; generated by Slic3r 1.2.9 on 2019-11-21 at 11:20:01

; external perimeters extrusion width = 0.40mm
; perimeters extrusion width = 0.40mm
; infill extrusion width = 0.40mm
; solid infill extrusion width = 0.40mm
; top infill extrusion width = 0.40mm

M107
M83
T0
M116
G21 ; set units to millimeters
G90 ; use absolute coordinates
M83 ; use relative distances for extrusion
G1 E-4.20000 F1500.00000
G1 Z1.000 F15000.000
G1 X0.000 Y13.986 F15000.000
G1 Z0.300 F15000.000
G1 E4.20000 F1500.00000
G1 X-32.250 Y13.986 E2.48536 F960.000
G1 X-33.897 Y13.591 E0.13052
G1 X-35.187 Y12.493 E0.13052
G1 X-35.886 Y10.350 E0.17373
G1 X-35.886 Y-10.350 E1.59526
G1 X-35.491 Y-11.997 E0.13052
G1 X-34.393 Y-13.287 E0.13052
G1 X-32.250 Y-13.986 E0.17373
G1 X32.250 Y-13.986 E4.97072
G1 X33.897 Y-13.591 E0.13052
G1 X35.187 Y-12.493 E0.13052 F960.000
G1 X35.886 Y-10.350 E0.17373
G1 X35.886 Y10.350 E1.59526
G1 X35.491 Y11.997 E0.13052
G1 X34.393 Y13.287 E0.13052
G1 X32.250 Y13.986 E0.17373
G1 X0.060 Y13.986 E2.48074
G1 E-4.20000 F1500.00000
G1 Z1.300 F15000.000
G1 X17.444 Y3.624 F15000.000
G1 Z0.300 F15000.000
G1 E4.20000 F1500.00000
G1 X17.242 Y3.178 E0.03773 F600.000
G1 X17.108 Y2.738 E0.03544
G1 X17.026 Y2.284 E0.03553
G1 X16.999 Y1.823 E0.03557
G1 X17.030 Y1.299 E0.04046
G1 X17.109 Y0.906 E0.03092
G1 X17.242 Y0.469 E0.03518
G1 X17.427 Y0.050 E0.03531
G1 X17.661 Y-0.342 E0.03515
G1 X17.940 Y-0.700 E0.03500
G1 X18.259 Y-1.019 E0.03481
G1 X18.615 Y-1.294 E0.03463
G1 X19.001 Y-1.520 E0.03447
G1 X19.411 Y-1.693 E0.03431
G1 X19.839 Y-1.810 E0.03422
G1 X20.500 Y-1.899 E0.05137 F600.000
G1 X21.161 Y-1.810 E0.05136
G1 X21.589 Y-1.693 E0.03422
G1 X21.999 Y-1.520 E0.03432
G1 X22.385 Y-1.294 E0.03446
G1 X22.741 Y-1.019 E0.03463
G1 X23.060 Y-0.700 E0.03480
G1 X23.330 Y-0.354 E0.03382
G1 X23.572 Y0.049 E0.03627
G1 X23.758 Y0.469 E0.03536
G1 X23.892 Y0.909 E0.03544
G1 X23.973 Y1.363 E0.03553
G1 X24.001 Y1.823 E0.03556
G1 X23.973 Y2.284 E0.03557
G1 X23.892 Y2.738 E0.03553
G1 X23.758 Y3.178 E0.03544
G1 X23.573 Y3.597 E0.03531
G1 X23.339 Y3.988 E0.03516
G1 X23.060 Y4.347 E0.03499
G1 X22.741 Y4.666 E0.03481
G1 X22.385 Y4.941 E0.03463
G1 X21.999 Y5.167 E0.03446
G1 X21.589 Y5.340 E0.03432
G1 X21.184 Y5.450 E0.03236
G1 X20.723 Y5.516 E0.03590
G1 X20.279 Y5.516 E0.03422
G1 X19.839 Y5.457 E0.03416
G1 X19.409 Y5.339 E0.03442
G1 X18.956 Y5.141 E0.03809
G1 X18.615 Y4.941 E0.03047
G1 X18.259 Y4.666 E0.03463
G1 X17.940 Y4.347 E0.03480
G1 X17.661 Y3.988 E0.03499
G1 X17.474 Y3.675 E0.02809
G1 X17.044 Y3.599 F15000.000
G1 E-4.20000 F1500.00000
G1 Z1.300 F15000.000
G1 X20.500 Y-2.034 F15000.000
G1 Z0.300 F15000.000
G1 E4.20000 F1500.00000
G1 X15.100 Y-7.434 E0.58853 F600.000
G1 X15.100 Y-9.000 E0.12066
G1 X25.900 Y-9.000 E0.83231 F600.000
G1 X25.900 Y-7.434 E0.12066
G1 X20.542 Y-2.077 E0.58391
G1 X20.217 Y-1.751 F15000.000
G1 X-18.568 Y-3.400 F15000.000
G1 X-21.391 Y-3.400 E0.21753 F600.000
G1 X-21.976 Y-3.446 E0.04523
G1 X-22.506 Y-3.595 E0.04244
G1 X-22.958 Y-3.859 E0.04037
G1 X-23.305 Y-4.238 E0.03956
G1 X-23.393 Y-4.441 E0.01710
G1 X-24.990 Y-3.400 E0.14690
G1 X-26.415 Y-3.400 E0.10981
G1 X-26.415 Y-7.488 E0.31504
G1 X-27.516 Y-7.488 E0.08485
G1 X-27.516 Y-9.000 E0.11652
G1 X-22.059 Y-9.000 E0.42052
G1 X-20.940 Y-7.208 E0.16281
G1 X-20.373 Y-7.208 E0.04371
G1 X-20.373 Y-9.000 E0.13810
G1 X-18.568 Y-9.000 E0.13910 F600.000
G1 X-18.568 Y-3.460 E0.42694
G1 X-18.568 Y-3.000 F15000.000
G1 X-19.778 Y-1.390 F15000.000
G1 X-19.615 Y-1.294 E0.01461 F600.000
G1 X-19.259 Y-1.019 E0.03463
G1 X-18.940 Y-0.700 E0.03480
G1 X-18.670 Y-0.354 E0.03381
G1 X-18.428 Y0.049 E0.03627
G1 X-18.242 Y0.469 E0.03536
G1 X-18.113 Y0.891 E0.03398
G1 X-18.027 Y1.362 E0.03691
G1 X-17.999 Y1.823 E0.03563
G1 X-18.026 Y2.284 E0.03557
G1 X-18.108 Y2.738 E0.03553
G1 X-18.242 Y3.178 E0.03544
G1 X-18.427 Y3.597 E0.03531
G1 X-18.661 Y3.988 E0.03516
G1 X-18.940 Y4.347 E0.03499
G1 X-19.259 Y4.666 E0.03480
G1 X-19.615 Y4.941 E0.03463
G1 X-20.001 Y5.167 E0.03447
G1 X-20.411 Y5.340 E0.03432
G1 X-20.816 Y5.450 E0.03237
G1 X-21.277 Y5.516 E0.03589
G1 X-21.721 Y5.516 E0.03422
G1 X-22.161 Y5.457 E0.03416
G1 X-22.591 Y5.339 E0.03442
G1 X-23.044 Y5.141 E0.03809
G1 X-23.385 Y4.941 E0.03047
G1 X-23.741 Y4.666 E0.03463
G1 X-24.060 Y4.347 E0.03480
G1 X-24.339 Y3.988 E0.03498
G1 X-24.572 Y3.597 E0.03515
G1 X-24.758 Y3.178 E0.03531
G1 X-24.892 Y2.738 E0.03544
G1 X-24.974 Y2.284 E0.03553
G1 X-25.001 Y1.823 E0.03557
G1 X-24.974 Y1.363 E0.03556
G1 X-24.892 Y0.909 E0.03552
G1 X-24.758 Y0.469 E0.03544
G1 X-24.572 Y0.050 E0.03531
G1 X-24.369 Y-0.292 E0.03066
G1 X-24.062 Y-0.698 E0.03926
G1 X-23.741 Y-1.019 E0.03500
G1 X-23.385 Y-1.294 E0.03463
G1 X-22.999 Y-1.520 E0.03447
G1 X-22.589 Y-1.693 E0.03431
G1 X-22.161 Y-1.810 E0.03422
G1 X-21.721 Y-1.869 E0.03416
G1 X-21.279 Y-1.869 E0.03412 F600.000
G1 X-20.839 Y-1.810 E0.03415
G1 X-20.411 Y-1.693 E0.03422
G1 X-20.001 Y-1.520 E0.03431
G1 X-19.830 Y-1.420 E0.01523
G1 X-19.614 Y-1.484 F15000.000
G1 E-4.20000 F1500.00000
G1 Z1.300 F15000.000
G1 X2.398 Y1.218 F15000.000
G1 Z0.300 F15000.000
G1 E4.20000 F1500.00000
G1 X2.492 Y0.750 E0.03674 F600.000
G1 X2.645 Y0.247 E0.04055
G1 X2.862 Y-0.242 E0.04122
G1 X3.135 Y-0.701 E0.04114
G1 X3.462 Y-1.122 E0.04109
G1 X3.838 Y-1.498 E0.04097
G1 X4.258 Y-1.822 E0.04090
G1 X4.716 Y-2.090 E0.04083
G1 X5.203 Y-2.295 E0.04075
G1 X5.713 Y-2.434 E0.04073
G1 X6.236 Y-2.505 E0.04070
G1 X6.764 Y-2.505 E0.04068 F600.000
G1 X7.287 Y-2.434 E0.04069
G1 X7.797 Y-2.295 E0.04073
G1 X8.284 Y-2.090 E0.04075
G1 X8.742 Y-1.822 E0.04083
G1 X9.162 Y-1.498 E0.04090
G1 X9.538 Y-1.122 E0.04097
G1 X9.855 Y-0.714 E0.03980
G1 X10.137 Y-0.244 E0.04228
G1 X10.355 Y0.247 E0.04138
G1 X10.508 Y0.750 E0.04054
G1 X10.602 Y1.218 E0.03674
G1 X10.637 Y1.823 E0.04675
G1 X10.606 Y2.359 E0.04137
G1 X10.511 Y2.887 E0.04135
G1 X10.355 Y3.400 E0.04129
G1 X10.138 Y3.889 E0.04123
G1 X9.865 Y4.348 E0.04116
G1 X9.538 Y4.768 E0.04107
G1 X9.162 Y5.144 E0.04097
G1 X8.742 Y5.469 E0.04090
G1 X8.313 Y5.720 E0.03827
G1 X7.801 Y5.941 E0.04296
G1 X7.287 Y6.081 E0.04106
G1 X6.764 Y6.151 E0.04069
G1 X6.236 Y6.151 E0.04068
G1 X5.713 Y6.081 E0.04070
G1 X5.196 Y5.940 E0.04127
G1 X4.667 Y5.708 E0.04453
G1 X4.258 Y5.469 E0.03649
G1 X3.838 Y5.144 E0.04090
G1 X3.462 Y4.768 E0.04097
G1 X3.135 Y4.348 E0.04108
G1 X2.862 Y3.889 E0.04115
G1 X2.645 Y3.400 E0.04122
G1 X2.489 Y2.887 E0.04130
G1 X2.394 Y2.359 E0.04135
G1 X2.363 Y1.823 E0.04137
G1 X2.395 Y1.278 E0.04212
G1 X3.029 Y1.315 F15000.000
G1 X3.109 Y0.906 E0.03214 F600.000
G1 X3.242 Y0.469 E0.03518
G1 X3.427 Y0.050 E0.03531
G1 X3.661 Y-0.342 E0.03515
G1 X3.940 Y-0.700 E0.03500
G1 X4.259 Y-1.019 E0.03481
G1 X4.615 Y-1.294 E0.03463
G1 X5.001 Y-1.520 E0.03447
G1 X5.411 Y-1.693 E0.03431
G1 X5.839 Y-1.810 E0.03422
G1 X6.279 Y-1.869 E0.03416
G1 X6.721 Y-1.869 E0.03412 F600.000
G1 X7.161 Y-1.810 E0.03415
G1 X7.589 Y-1.693 E0.03422
G1 X7.999 Y-1.520 E0.03431
G1 X8.385 Y-1.294 E0.03447
G1 X8.741 Y-1.019 E0.03463
G1 X9.060 Y-0.700 E0.03480
G1 X9.330 Y-0.354 E0.03381
G1 X9.572 Y0.049 E0.03627
G1 X9.758 Y0.469 E0.03536
G1 X9.891 Y0.906 E0.03517
G1 X9.970 Y1.299 E0.03092
G1 X10.001 Y1.823 E0.04046
G1 X9.974 Y2.284 E0.03557
G1 X9.892 Y2.738 E0.03553
G1 X9.758 Y3.178 E0.03543
G1 X9.573 Y3.597 E0.03531
G1 X9.339 Y3.988 E0.03516
G1 X9.060 Y4.347 E0.03499
G1 X8.741 Y4.666 E0.03480
G1 X8.385 Y4.941 E0.03463
G1 X8.026 Y5.151 E0.03213
G1 X7.590 Y5.339 E0.03652
G1 X7.161 Y5.457 E0.03434
G1 X6.721 Y5.516 E0.03415
G1 X6.279 Y5.516 E0.03413
G1 X5.839 Y5.457 E0.03416
G1 X5.409 Y5.339 E0.03442
G1 X4.956 Y5.141 E0.03809
G1 X4.615 Y4.941 E0.03047
G1 X4.259 Y4.666 E0.03463
G1 X3.940 Y4.347 E0.03480
G1 X3.661 Y3.988 E0.03499
G1 X3.428 Y3.597 E0.03515
G1 X3.242 Y3.178 E0.03531
G1 X3.108 Y2.738 E0.03544
G1 X3.026 Y2.284 E0.03553
G1 X2.999 Y1.823 E0.03557
G1 X3.026 Y1.375 E0.03461
G1 X2.716 Y1.066 F15000.000
G1 X-3.367 Y1.752 F15000.000
G1 X-3.394 Y2.359 E0.04682 F600.000
G1 X-3.489 Y2.887 E0.04135
G1 X-3.645 Y3.400 E0.04129
G1 X-3.862 Y3.889 E0.04123
G1 X-4.135 Y4.348 E0.04116
G1 X-4.462 Y4.768 E0.04107
G1 X-4.838 Y5.144 E0.04097
G1 X-5.258 Y5.469 E0.04090
G1 X-5.716 Y5.736 E0.04083
G1 X-6.203 Y5.942 E0.04075
G1 X-6.687 Y6.074 E0.03869
G1 X-7.232 Y6.151 E0.04244
G1 X-7.764 Y6.151 E0.04095
G1 X-8.287 Y6.081 E0.04070
G1 X-8.804 Y5.940 E0.04127
G1 X-9.333 Y5.708 E0.04453
G1 X-9.742 Y5.469 E0.03649
G1 X-10.162 Y5.144 E0.04090
G1 X-10.538 Y4.768 E0.04098
G1 X-10.865 Y4.348 E0.04107
G1 X-11.138 Y3.889 E0.04114
G1 X-11.355 Y3.400 E0.04123
G1 X-11.511 Y2.887 E0.04130
G1 X-11.606 Y2.359 E0.04135
G1 X-11.637 Y1.823 E0.04137
G1 X-11.606 Y1.288 E0.04136
G1 X-11.511 Y0.760 E0.04134
G1 X-11.355 Y0.247 E0.04131
G1 X-11.138 Y-0.242 E0.04122
G1 X-10.897 Y-0.647 E0.03629
G1 X-10.543 Y-1.117 E0.04534
G1 X-10.162 Y-1.498 E0.04153
G1 X-9.742 Y-1.822 E0.04090
G1 X-9.284 Y-2.090 E0.04083
G1 X-8.797 Y-2.295 E0.04075
G1 X-8.287 Y-2.434 E0.04073
G1 X-7.764 Y-2.505 E0.04070
G1 X-7.236 Y-2.505 E0.04068 F600.000
G1 X-6.713 Y-2.434 E0.04069
G1 X-6.203 Y-2.295 E0.04073
G1 X-5.716 Y-2.090 E0.04075
G1 X-5.258 Y-1.822 E0.04083
G1 X-4.838 Y-1.498 E0.04090
G1 X-4.462 Y-1.122 E0.04097
G1 X-4.145 Y-0.714 E0.03980
G1 X-3.863 Y-0.244 E0.04228
G1 X-3.645 Y0.247 E0.04138
G1 X-3.495 Y0.740 E0.03971
G1 X-3.394 Y1.285 E0.04273
G1 X-3.370 Y1.692 E0.03143
G1 X-4.005 Y1.730 F15000.000
G1 X-4.026 Y2.284 E0.04275 F600.000
G1 X-4.108 Y2.738 E0.03553
G1 X-4.242 Y3.178 E0.03543
G1 X-4.427 Y3.597 E0.03531
G1 X-4.661 Y3.988 E0.03516
G1 X-4.940 Y4.347 E0.03499
G1 X-5.259 Y4.666 E0.03480
G1 X-5.615 Y4.941 E0.03463
G1 X-6.001 Y5.167 E0.03447
G1 X-6.411 Y5.340 E0.03432
G1 X-6.816 Y5.450 E0.03237
G1 X-7.277 Y5.516 E0.03589
G1 X-7.721 Y5.516 E0.03422
G1 X-8.161 Y5.457 E0.03416
G1 X-8.591 Y5.339 E0.03442
G1 X-9.044 Y5.141 E0.03809
G1 X-9.385 Y4.941 E0.03047
G1 X-9.741 Y4.666 E0.03463
G1 X-10.060 Y4.347 E0.03480
G1 X-10.339 Y3.988 E0.03498
G1 X-10.572 Y3.597 E0.03515
G1 X-10.758 Y3.178 E0.03531
G1 X-10.892 Y2.738 E0.03544
G1 X-10.974 Y2.284 E0.03553
G1 X-11.001 Y1.823 E0.03557
G1 X-10.974 Y1.363 E0.03556
G1 X-10.892 Y0.909 E0.03552
G1 X-10.758 Y0.469 E0.03544
G1 X-10.573 Y0.050 E0.03531
G1 X-10.369 Y-0.292 E0.03066
G1 X-10.062 Y-0.698 E0.03926
G1 X-9.741 Y-1.019 E0.03501
G1 X-9.385 Y-1.294 E0.03463
G1 X-8.999 Y-1.520 E0.03447
G1 X-8.589 Y-1.693 E0.03431
G1 X-8.161 Y-1.810 E0.03422
G1 X-7.721 Y-1.869 E0.03416
G1 X-7.279 Y-1.869 E0.03412 F600.000
G1 X-6.839 Y-1.810 E0.03415
G1 X-6.411 Y-1.693 E0.03422
G1 X-6.001 Y-1.520 E0.03431
G1 X-5.615 Y-1.294 E0.03447
G1 X-5.259 Y-1.019 E0.03463
G1 X-4.940 Y-0.700 E0.03480
G1 X-4.670 Y-0.354 E0.03381
G1 X-4.428 Y0.049 E0.03627
G1 X-4.242 Y0.469 E0.03536
G1 X-4.113 Y0.891 E0.03398
G1 X-4.027 Y1.362 E0.03691
G1 X-4.008 Y1.670 E0.02379
G1 X-3.660 Y1.932 F15000.000
G1 E-4.20000 F1500.00000
G1 Z1.300 F15000.000
G1 X27.090 Y9.364 F15000.000
G1 Z0.300 F15000.000
G1 E4.20000 F1500.00000
G1 X-31.264 Y9.364 E4.49712 F720.000
G1 X-31.264 Y-9.364 E1.44334
G1 X-28.152 Y-9.364 E0.23989
G1 X-28.152 Y-6.852 E0.19359
G1 X-27.051 Y-6.852 E0.08485 F720.000
G1 X-27.051 Y-2.764 E0.31504
G1 X-24.801 Y-2.764 E0.17336
G1 X-23.559 Y-3.574 E0.11427
G1 X-23.362 Y-3.359 E0.02249
G1 X-22.756 Y-3.005 E0.05408
G1 X-21.970 Y-2.784 E0.06296
G1 X-21.992 Y-2.474 E0.02394
G1 X-22.287 Y-2.434 E0.02299
G1 X-22.797 Y-2.295 E0.04073
G1 X-23.284 Y-2.090 E0.04075
G1 X-23.742 Y-1.822 E0.04083
G1 X-24.162 Y-1.497 E0.04090
G1 X-24.543 Y-1.117 E0.04153
G1 X-24.897 Y-0.647 E0.04534
G1 X-25.138 Y-0.242 E0.03629
G1 X-25.355 Y0.247 E0.04122
G1 X-25.511 Y0.760 E0.04131
G1 X-25.606 Y1.288 E0.04134
G1 X-25.637 Y1.823 E0.04136
G1 X-25.606 Y2.359 E0.04137
G1 X-25.511 Y2.887 E0.04135
G1 X-25.355 Y3.400 E0.04130
G1 X-25.138 Y3.889 E0.04123
G1 X-24.865 Y4.348 E0.04114
G1 X-24.538 Y4.768 E0.04107
G1 X-24.162 Y5.144 E0.04098
G1 X-23.742 Y5.469 E0.04090
G1 X-23.333 Y5.708 E0.03649
G1 X-22.804 Y5.940 E0.04453
G1 X-22.287 Y6.081 E0.04127
G1 X-21.764 Y6.151 E0.04070
G1 X-21.232 Y6.151 E0.04095
G1 X-20.687 Y6.074 E0.04244
G1 X-20.203 Y5.942 E0.03869
G1 X-19.716 Y5.736 E0.04075
G1 X-19.258 Y5.469 E0.04083
G1 X-18.838 Y5.144 E0.04090
G1 X-18.462 Y4.768 E0.04097
G1 X-18.135 Y4.348 E0.04107
G1 X-17.862 Y3.889 E0.04116
G1 X-17.645 Y3.400 E0.04123
G1 X-17.489 Y2.887 E0.04129
G1 X-17.394 Y2.359 E0.04135
G1 X-17.363 Y1.823 E0.04137
G1 X-17.394 Y1.285 E0.04154
G1 X-17.495 Y0.740 E0.04273
G1 X-17.645 Y0.247 E0.03971
G1 X-17.863 Y-0.244 E0.04138
G1 X-18.145 Y-0.714 E0.04228
G1 X-18.462 Y-1.122 E0.03980
G1 X-18.838 Y-1.497 E0.04097
G1 X-19.258 Y-1.822 E0.04090
G1 X-19.716 Y-2.090 E0.04083
G1 X-20.203 Y-2.295 E0.04075
G1 X-20.710 Y-2.434 E0.04054
G1 X-20.666 Y-2.764 E0.02571
G1 X-17.932 Y-2.764 E0.21066
G1 X-17.932 Y-9.364 E0.50863
G1 X14.464 Y-9.364 E2.49667
G1 X14.464 Y-7.171 E0.16903
G1 X19.300 Y-2.336 E0.52698
G1 X18.716 Y-2.090 E0.04884
G1 X18.258 Y-1.822 E0.04083
G1 X17.838 Y-1.498 E0.04090
G1 X17.462 Y-1.122 E0.04097
G1 X17.135 Y-0.701 E0.04109
G1 X16.862 Y-0.242 E0.04114
G1 X16.645 Y0.247 E0.04122
G1 X16.492 Y0.750 E0.04055
G1 X16.398 Y1.218 E0.03674
G1 X16.363 Y1.823 E0.04675
G1 X16.394 Y2.359 E0.04137
G1 X16.489 Y2.887 E0.04135
G1 X16.645 Y3.400 E0.04130
G1 X16.862 Y3.889 E0.04122
G1 X17.135 Y4.348 E0.04115
G1 X17.462 Y4.768 E0.04108
G1 X17.838 Y5.144 E0.04097
G1 X18.258 Y5.469 E0.04090
G1 X18.667 Y5.708 E0.03649
G1 X19.196 Y5.940 E0.04453
G1 X19.713 Y6.081 E0.04127
G1 X20.236 Y6.151 E0.04070
G1 X20.768 Y6.151 E0.04095
G1 X21.313 Y6.074 E0.04244
G1 X21.797 Y5.942 E0.03869
G1 X22.284 Y5.736 E0.04076
G1 X22.742 Y5.469 E0.04082
G1 X23.162 Y5.144 E0.04090
G1 X23.538 Y4.768 E0.04098
G1 X23.865 Y4.348 E0.04107
G1 X24.138 Y3.889 E0.04115
G1 X24.355 Y3.400 E0.04123
G1 X24.511 Y2.887 E0.04130
G1 X24.606 Y2.359 E0.04134
G1 X24.637 Y1.823 E0.04137
G1 X24.606 Y1.288 E0.04136
G1 X24.511 Y0.759 E0.04134
G1 X24.355 Y0.247 E0.04130
G1 X24.137 Y-0.244 E0.04138
G1 X23.855 Y-0.714 E0.04226
G1 X23.538 Y-1.122 E0.03980
G1 X23.162 Y-1.498 E0.04097
G1 X22.742 Y-1.822 E0.04091
G1 X22.284 Y-2.090 E0.04083
G1 X21.700 Y-2.336 E0.04884
G1 X26.536 Y-7.171 E0.52698
G1 X26.536 Y-9.364 E0.16903
G1 X31.264 Y-9.364 E0.36442
G1 X31.264 Y9.364 E1.44334
G1 X27.150 Y9.364 E0.31706
G1 X27.150 Y10.000 F15000.000
G1 X-31.900 Y10.000 E4.55073 F720.000
G1 X-31.900 Y-10.000 E1.54131
G1 X31.900 Y-10.000 E4.91678
G1 X31.900 Y10.000 E1.54131
G1 X27.210 Y10.000 E0.36142 F720.000
G1 X26.950 Y9.654 F15000.000
G1 E-4.20000 F1500.00000
G1 Z1.300 F15000.000
G1 X-24.658 Y-7.488 F15000.000
G1 Z0.300 F15000.000
G1 E4.20000 F1500.00000
G1 X-23.380 Y-7.488 E0.09851 F600.000
G1 X-23.197 Y-7.543 E0.01472
G1 X-22.707 Y-6.796 E0.06885
G1 X-22.924 Y-6.659 E0.01978 F600.000
G1 X-23.203 Y-6.374 E0.03074
G1 X-23.325 Y-6.173 E0.01814
G1 X-24.658 Y-5.337 E0.12123
G1 X-24.658 Y-7.428 E0.16114
G1 X-24.311 Y-7.288 F15000.000
G1 E-4.20000 F1500.00000
G1 Z1.300 F15000.000
G1 X-20.373 Y-5.179 F15000.000
G1 Z0.300 F15000.000
G1 E4.20000 F1500.00000
G1 X-20.373 Y-4.980 E0.01537 F600.000
G1 X-21.238 Y-4.980 E0.06670 F600.000
G1 X-21.599 Y-5.037 E0.02815
G1 X-21.708 Y-5.124 E0.01071
G1 X-21.756 Y-5.314 E0.01516
G1 X-21.746 Y-5.405 E0.00701
G1 X-21.674 Y-5.530 E0.01113
G1 X-21.604 Y-5.575 E0.00639
G1 X-21.483 Y-5.611 E0.00977
G1 X-21.280 Y-5.628 E0.01565
G1 X-20.373 Y-5.628 E0.06993
G1 X-20.373 Y-5.239 E0.02994
G1 X-20.546 Y-5.080 F15000.000
G1 E-4.20000 F1500.00000
G1 Z1.300 F15000.000
G1 X-21.841 Y-3.098 F15000.000
G1 Z0.300 F15000.000
G1 E4.20000 F1500.00000
G1 X-21.624 Y-3.059 E0.01701 F960.000
G1 X-21.555 Y-3.014 E0.00630
G1 X-21.322 Y-2.752 E0.02707
G1 X-21.380 Y-2.187 E0.04374
G1 X-22.933 Y-2.583 F15000.000
G1 X-23.622 Y-2.769 E0.11555 F960.000
G1 X-24.201 Y-2.597 E0.09795
G1 X-24.654 Y-1.471 F15000.000
G1 X-25.562 Y-2.379 E0.10010 F960.000
G1 X-26.472 Y-2.379 E0.07086
G1 X-25.066 Y-0.973 E0.15495
G1 X-25.422 Y-0.421 E0.05126
G1 X-30.879 Y-5.877 E0.60148
G1 X-30.879 Y-4.968 E0.07086
G1 X-25.709 Y0.202 E0.56990
G1 X-25.908 Y0.912 E0.05748
G1 X-30.879 Y-4.059 E0.54795
G1 X-30.879 Y-3.150 E0.07086
G1 X-26.010 Y1.720 E0.53674
G1 X-25.968 Y2.671 E0.07419
G1 X-30.879 Y-2.241 E0.54135
G1 X-30.879 Y-1.331 E0.07086
G1 X-25.611 Y3.937 E0.58072
