;(.../Electronics/Eagle/pcb-gcode/pcb-gcode.ulp)
;(Copyright 2005 - 2012 by John Johnson)
;(See readme.txt for licensing terms.)
;(This file generated from the board:)
;(.../RepRap-MultiFilament/Electronics/multifilament.brd)
;(Current profile is .../pcb-gcode/profiles/generic.pp  )
;(This file generated 06/02/2019 15:38)
;(Settings from pcb-machine.h)
;(spindle on time = 1000.0000)
;(  Tool Size)
;(0.1778 )
;(spindle speed = 30000.0000)
;(tool change at 0.0000 0.0000 5.0000 )
;(feed rate xy = F500.00 )
;(feed rate z  = F200.00 )
;(Z Axis Settings)
;(  High     Up        Down     Drill)
;(5.0000 	2.0000 	-0.2000 	-2.0000 )
;(Settings from pcb-defaults.h)
;(isolate min = 0.0250)
;(isolate max = 0.5000)
;(isolate step = 0.0800)
;(Generated top outlines, top drill, )
;(Unit of measure: mm)
;(Metric Mode)
G21
;(Absolute Coordinates)
G90
;S30000
G00 Z5.0000  F3000
G00 X0.0000 Y0.0000  F3000
;M03 S1
G04 P1000.000000
G00 Z2.0000  F3000
G00 X0.2035 Y0.2625  F3000
G01 Z-0.2000 F200.00 
G01 X0.2625 Y0.2035 F500.00 
G01 X0.3348 Y0.1617 
G01 X0.4154 Y0.1401 
G01 X66.0817 Y0.1401 
G01 X66.1624 Y0.1617 
G01 X66.2347 Y0.2035 
G01 X66.2937 Y0.2625 
G01 X66.3355 Y0.3348 
G01 X66.3571 Y0.4154 
G01 X66.3571 Y2.4087 
G01 X68.3640 Y4.4156 
G01 X68.4058 Y4.4879 
G01 X68.4274 Y4.5686 
G01 X68.4274 Y38.6114 
G01 X68.4058 Y38.6921 
G01 X68.3640 Y38.7644 
G01 X68.3309 Y38.7976 
G01 X66.3571 Y40.7713 
G01 X66.3571 Y52.1117 
G01 X66.3355 Y52.1924 
G01 X66.2937 Y52.2647 
G01 X66.2400 Y52.3184 
G01 X66.2347 Y52.3237 
G01 X65.4909 Y53.0675 
G01 X65.4319 Y53.1265 
G01 X65.3612 Y53.1674 
G01 X65.2789 Y53.1899 
G01 X0.4154 Y53.1899 
G01 X0.3348 Y53.1683 
G01 X0.2625 Y53.1265 
G01 X0.2035 Y53.0675 
G01 X0.1617 Y52.9952 
G01 X0.1401 Y52.9145 
G01 X0.1401 Y0.4154 
G01 X0.1617 Y0.3348 
G01 X0.2035 Y0.2625 
G00 Z2.0000  F3000
G00 X5.6490 Y20.2579  F3000
G01 Z-0.2000 F200.00 
G01 X5.6229 Y20.2840 F500.00 
G01 X5.6044 Y20.3159 
G01 X5.5949 Y20.3515 
G01 X5.5949 Y21.9997 
G01 X5.6211 Y21.9997 
G01 X5.6211 Y20.3473 
G01 X5.6384 Y20.3055 
G01 X5.6705 Y20.2734 
G01 X5.7123 Y20.2561 
G01 X6.4647 Y20.2561 
G01 X6.4647 Y20.2299 
G01 X5.7165 Y20.2299 
G01 X5.6809 Y20.2394 
G01 X5.6490 Y20.2579 
G00 Z2.0000  F3000
G00 X7.5053 Y20.2561  F3000
G01 Z-0.2000 F200.00 
G01 X8.2577 Y20.2561 F500.00 
G01 X8.2995 Y20.2734 
G01 X8.3316 Y20.3055 
G01 X8.3489 Y20.3473 
G01 X8.3489 Y21.9997 
G01 X8.3751 Y21.9997 
G01 X8.3751 Y20.3515 
G01 X8.3656 Y20.3159 
G01 X8.3471 Y20.2840 
G01 X8.3210 Y20.2579 
G01 X8.2891 Y20.2394 
G01 X8.2534 Y20.2299 
G01 X7.5053 Y20.2299 
G01 X7.5053 Y20.2561 
G00 Z2.0000  F3000
G00 X8.3489 Y23.0403  F3000
G01 Z-0.2000 F200.00 
G01 X8.3489 Y24.6927 F500.00 
G01 X8.3316 Y24.7345 
G01 X8.2995 Y24.7666 
G01 X8.2577 Y24.7839 
G01 X7.5053 Y24.7839 
G01 X7.5053 Y24.8101 
G01 X8.2534 Y24.8101 
G01 X8.2891 Y24.8006 
G01 X8.3210 Y24.7821 
G01 X8.3471 Y24.7560 
G01 X8.3656 Y24.7241 
G01 X8.3751 Y24.6884 
G01 X8.3751 Y23.0403 
G01 X8.3489 Y23.0403 
G00 Z2.0000  F3000
G00 X5.6211 Y23.0403  F3000
G01 Z-0.2000 F200.00 
G01 X5.5949 Y23.0403 F500.00 
G01 X5.5949 Y24.6884 
G01 X5.6044 Y24.7241 
G01 X5.6229 Y24.7560 
G01 X5.6490 Y24.7821 
G01 X5.6809 Y24.8006 
G01 X5.7165 Y24.8101 
G01 X6.4647 Y24.8101 
G01 X6.4647 Y24.7839 
G01 X5.7123 Y24.7839 
G01 X5.6705 Y24.7666 
G01 X5.6384 Y24.7345 
G01 X5.6211 Y24.6927 
G01 X5.6211 Y23.0403 
G00 Z2.0000  F3000
G00 X5.6538 Y28.4739  F3000
G01 Z-0.2000 F200.00 
G01 X5.5389 Y28.5888 F500.00 
G01 X5.5389 Y33.0512 
G01 X5.6538 Y33.1661 
G01 X5.8785 Y33.1661 
G01 X5.9592 Y33.1877 
G01 X6.0315 Y33.2295 
G01 X6.0905 Y33.2885 
G01 X6.1323 Y33.3608 
G01 X6.1539 Y33.4414 
G01 X6.1539 Y35.2714 
G01 X6.1566 Y35.2922 
G01 X6.1539 Y35.3130 
G01 X6.1539 Y35.3340 
G01 X6.1485 Y35.3542 
G01 X6.1457 Y35.3750 
G01 X6.1377 Y35.3943 
G01 X6.1323 Y35.4146 
G01 X6.1218 Y35.4327 
G01 X6.1138 Y35.4521 
G01 X6.1010 Y35.4688 
G01 X6.0905 Y35.4869 
G01 X6.0757 Y35.5017 
G01 X6.0630 Y35.5184 
G01 X6.0463 Y35.5311 
G01 X6.0315 Y35.5459 
G01 X6.0133 Y35.5564 
G01 X5.9967 Y35.5692 
G01 X5.9773 Y35.5772 
G01 X5.9592 Y35.5877 
G01 X5.9389 Y35.5931 
G01 X5.6803 Y35.7003 
G01 X5.4108 Y35.9698 
G01 X5.2649 Y36.3219 
G01 X5.2649 Y36.7031 
G01 X5.4108 Y37.0552 
G01 X5.6803 Y37.3247 
G01 X6.0324 Y37.4706 
G01 X7.9376 Y37.4706 
G01 X8.2897 Y37.3247 
G01 X8.5592 Y37.0552 
G01 X8.7051 Y36.7031 
G01 X8.7051 Y36.3219 
G01 X8.5592 Y35.9698 
G01 X8.2897 Y35.7003 
G01 X8.0310 Y35.5931 
G01 X8.0108 Y35.5877 
G01 X7.9927 Y35.5772 
G01 X7.9733 Y35.5692 
G01 X7.9566 Y35.5564 
G01 X7.9385 Y35.5459 
G01 X7.9237 Y35.5311 
G01 X7.9070 Y35.5184 
G01 X7.8943 Y35.5017 
G01 X7.8795 Y35.4869 
G01 X7.8690 Y35.4688 
G01 X7.8562 Y35.4521 
G01 X7.8482 Y35.4327 
G01 X7.8377 Y35.4146 
G01 X7.8323 Y35.3943 
G01 X7.8243 Y35.3750 
G01 X7.8215 Y35.3542 
G01 X7.8161 Y35.3340 
G01 X7.8161 Y35.3130 
G01 X7.8134 Y35.2922 
G01 X7.8161 Y35.2714 
G01 X7.8161 Y33.4414 
G01 X7.8377 Y33.3608 
G01 X7.8795 Y33.2885 
G01 X7.9385 Y33.2295 
G01 X8.0108 Y33.1877 
G01 X8.0914 Y33.1661 
G01 X8.3162 Y33.1661 
G01 X8.4311 Y33.0512 
G01 X8.4311 Y31.9264 
G01 X8.4527 Y31.8458 
G01 X8.4945 Y31.7735 
G01 X8.5535 Y31.7145 
G01 X8.6258 Y31.6727 
G01 X8.7064 Y31.6511 
G01 X9.6885 Y31.6511 
G01 X9.7692 Y31.6727 
G01 X9.8415 Y31.7145 
G01 X9.9005 Y31.7735 
G01 X9.9423 Y31.8458 
G01 X9.9639 Y31.9264 
G01 X9.9639 Y32.3591 
G01 X10.1871 Y32.8980 
G01 X10.5995 Y33.3104 
G01 X11.1384 Y33.5336 
G01 X11.7216 Y33.5336 
G01 X12.2605 Y33.3104 
G01 X12.6729 Y32.8980 
G01 X12.8961 Y32.3591 
G01 X12.8961 Y31.7759 
G01 X12.6729 Y31.2370 
G01 X12.2605 Y30.8246 
G01 X11.7216 Y30.6014 
G01 X11.2288 Y30.6014 
G01 X11.1482 Y30.5798 
G01 X11.0759 Y30.5380 
G01 X11.0169 Y30.4790 
G01 X10.6533 Y30.1154 
G01 X10.3478 Y29.9889 
G01 X8.7064 Y29.9889 
G01 X8.6258 Y29.9673 
G01 X8.5535 Y29.9255 
G01 X8.4945 Y29.8665 
G01 X8.4527 Y29.7942 
G01 X8.4311 Y29.7135 
G01 X8.4311 Y28.5888 
G01 X8.3162 Y28.4739 
G01 X5.6538 Y28.4739 
G00 Z2.0000  F3000
G00 X5.6705 Y28.5734  F3000
G01 Z-0.2000 F200.00 
G01 X5.7123 Y28.5561 F500.00 
G01 X8.2577 Y28.5561 
G01 X8.2995 Y28.5734 
G01 X8.3316 Y28.6055 
G01 X8.3489 Y28.6473 
G01 X8.3489 Y30.0711 
G01 X10.2563 Y30.0711 
G01 X10.4009 Y30.0999 
G01 X10.5372 Y30.1563 
G01 X10.6599 Y30.2383 
G01 X11.1347 Y30.7131 
G01 X11.3211 Y30.6836 
G01 X11.5389 Y30.6836 
G01 X11.7541 Y30.7177 
G01 X11.9612 Y30.7850 
G01 X12.1553 Y30.8839 
G01 X12.3315 Y31.0119 
G01 X12.4856 Y31.1659 
G01 X12.6136 Y31.3422 
G01 X12.7125 Y31.5363 
G01 X12.7798 Y31.7434 
G01 X12.8139 Y31.9586 
G01 X12.8139 Y32.1764 
G01 X12.7798 Y32.3916 
G01 X12.7125 Y32.5987 
G01 X12.6136 Y32.7928 
G01 X12.4856 Y32.9690 
G01 X12.3315 Y33.1231 
G01 X12.1553 Y33.2511 
G01 X11.9612 Y33.3500 
G01 X11.7541 Y33.4173 
G01 X11.5389 Y33.4514 
G01 X11.3211 Y33.4514 
G01 X11.1059 Y33.4173 
G01 X10.8988 Y33.3500 
G01 X10.7047 Y33.2511 
G01 X10.5284 Y33.1231 
G01 X10.3744 Y32.9690 
G01 X10.2464 Y32.7928 
G01 X10.1475 Y32.5987 
G01 X10.0802 Y32.3916 
G01 X10.0461 Y32.1764 
G01 X10.0461 Y31.9586 
G01 X10.0756 Y31.7722 
G01 X9.8723 Y31.5689 
G01 X8.3489 Y31.5689 
G01 X8.3489 Y32.9927 
G01 X8.3316 Y33.0345 
G01 X8.2995 Y33.0666 
G01 X8.2577 Y33.0839 
G01 X7.7339 Y33.0839 
G01 X7.7339 Y35.6366 
G01 X7.8333 Y35.6366 
G01 X8.0025 Y35.6703 
G01 X8.1619 Y35.7363 
G01 X8.3054 Y35.8321 
G01 X8.4274 Y35.9541 
G01 X8.5232 Y36.0976 
G01 X8.5892 Y36.2570 
G01 X8.6229 Y36.4262 
G01 X8.6229 Y36.5988 
G01 X8.5892 Y36.7680 
G01 X8.5232 Y36.9274 
G01 X8.4274 Y37.0709 
G01 X8.3054 Y37.1929 
G01 X8.1619 Y37.2887 
G01 X8.0025 Y37.3547 
G01 X7.8333 Y37.3884 
G01 X6.1367 Y37.3884 
G01 X5.9675 Y37.3547 
G01 X5.8081 Y37.2887 
G01 X5.6646 Y37.1929 
G01 X5.5426 Y37.0709 
G01 X5.4468 Y36.9274 
G01 X5.3808 Y36.7680 
G01 X5.3471 Y36.5988 
G01 X5.3471 Y36.4262 
G01 X5.3808 Y36.2570 
G01 X5.4468 Y36.0976 
G01 X5.5426 Y35.9541 
G01 X5.6646 Y35.8321 
G01 X5.8081 Y35.7363 
G01 X5.9675 Y35.6703 
G01 X6.1367 Y35.6366 
G01 X6.2361 Y35.6366 
G01 X6.2361 Y33.0839 
G01 X5.7123 Y33.0839 
G01 X5.6705 Y33.0666 
G01 X5.6384 Y33.0345 
G01 X5.6211 Y32.9927 
G01 X5.6211 Y28.6473 
G01 X5.6384 Y28.6055 
G01 X5.6705 Y28.5734 
G00 Z2.0000  F3000
G00 X5.7502 Y38.2809  F3000
G01 Z-0.2000 F200.00 
G01 X5.6353 Y38.3644 F500.00 
G01 X5.5349 Y38.4648 
G01 X5.4515 Y38.5797 
G01 X5.3980 Y38.6846 
G01 X5.4273 Y38.6846 
G01 X5.4468 Y38.6376 
G01 X5.5426 Y38.4941 
G01 X5.6646 Y38.3721 
G01 X5.8081 Y38.2763 
G01 X5.9675 Y38.2103 
G01 X6.1367 Y38.1766 
G01 X6.6171 Y38.1766 
G01 X6.6171 Y38.1504 
G01 X6.1520 Y38.1504 
G01 X6.0117 Y38.1726 
G01 X5.8767 Y38.2165 
G01 X5.7502 Y38.2809 
G00 Z2.0000  F3000
G00 X5.4273 Y39.4204  F3000
G01 Z-0.2000 F200.00 
G01 X5.3980 Y39.4204 F500.00 
G01 X5.4515 Y39.5253 
G01 X5.5349 Y39.6402 
G01 X5.6353 Y39.7406 
G01 X5.7502 Y39.8240 
G01 X5.8767 Y39.8885 
G01 X6.0117 Y39.9324 
G01 X6.1520 Y39.9546 
G01 X6.6171 Y39.9546 
G01 X6.6171 Y39.9284 
G01 X6.1367 Y39.9284 
G01 X5.9675 Y39.8947 
G01 X5.8081 Y39.8287 
G01 X5.6646 Y39.7329 
G01 X5.5426 Y39.6109 
G01 X5.4468 Y39.4674 
G01 X5.4273 Y39.4204 
G00 Z2.0000  F3000
G00 X7.3529 Y39.9284  F3000
G01 Z-0.2000 F200.00 
G01 X7.3529 Y39.9546 F500.00 
G01 X7.8180 Y39.9546 
G01 X7.9583 Y39.9324 
G01 X8.0933 Y39.8885 
G01 X8.2198 Y39.8240 
G01 X8.3347 Y39.7406 
G01 X8.4351 Y39.6402 
G01 X8.5185 Y39.5253 
G01 X8.5720 Y39.4204 
G01 X8.5427 Y39.4204 
G01 X8.5232 Y39.4674 
G01 X8.4274 Y39.6109 
G01 X8.3054 Y39.7329 
G01 X8.1619 Y39.8287 
G01 X8.0025 Y39.8947 
G01 X7.8333 Y39.9284 
G01 X7.3529 Y39.9284 
G00 Z2.0000  F3000
G00 X7.3529 Y38.1766  F3000
G01 Z-0.2000 F200.00 
G01 X7.8333 Y38.1766 F500.00 
G01 X8.0025 Y38.2103 
G01 X8.1619 Y38.2763 
G01 X8.3054 Y38.3721 
G01 X8.4274 Y38.4941 
G01 X8.5232 Y38.6376 
G01 X8.5427 Y38.6846 
G01 X8.5720 Y38.6846 
G01 X8.5185 Y38.5797 
G01 X8.4351 Y38.4648 
G01 X8.3347 Y38.3644 
G01 X8.2198 Y38.2810 
G01 X8.0933 Y38.2165 
G01 X7.9583 Y38.1726 
G01 X7.8180 Y38.1504 
G01 X7.3529 Y38.1504 
G01 X7.3529 Y38.1766 
G00 Z2.0000  F3000
G00 X14.4089 Y39.7067  F3000
G01 Z-0.2000 F200.00 
G01 X14.4013 Y39.7349 F500.00 
G01 X14.3873 Y39.7873 
G01 X14.3770 Y39.8051 
G01 X14.3455 Y39.8596 
G01 X14.2939 Y39.9113 
G01 X14.2939 Y41.3737 
G01 X14.3040 Y41.3838 
G01 X14.3600 Y41.4398 
G01 X14.3630 Y41.4428 
G01 X14.4048 Y41.5151 
G01 X14.4160 Y41.5573 
G01 X14.4264 Y41.5958 
G01 X14.4264 Y41.6793 
G01 X14.4048 Y41.7599 
G01 X14.3815 Y41.8003 
G01 X14.3630 Y41.8322 
G01 X14.3594 Y41.8384 
G01 X14.3499 Y41.8740 
G01 X14.3499 Y42.1036 
G01 X14.3761 Y42.1036 
G01 X14.3761 Y41.8698 
G01 X14.3934 Y41.8280 
G01 X14.4255 Y41.7959 
G01 X14.4673 Y41.7786 
G01 X16.0127 Y41.7786 
G01 X16.0545 Y41.7959 
G01 X16.0866 Y41.8280 
G01 X16.1039 Y41.8698 
G01 X16.1039 Y42.1036 
G01 X16.1301 Y42.1036 
G01 X16.1301 Y41.8741 
G01 X16.1226 Y41.8459 
G01 X16.1189 Y41.8325 
G01 X16.1189 Y41.7489 
G01 X16.1349 Y41.6895 
G01 X16.1406 Y41.6683 
G01 X16.1823 Y41.5960 
G01 X16.2413 Y41.5370 
G01 X16.3136 Y41.4952 
G01 X16.3833 Y41.4766 
G01 X16.3943 Y41.4736 
G01 X17.4610 Y41.4736 
G01 X17.5417 Y41.4952 
G01 X17.6140 Y41.5370 
G01 X17.6730 Y41.5960 
G01 X17.7148 Y41.6683 
G01 X17.7364 Y41.7489 
G01 X17.7364 Y43.2737 
G01 X17.7790 Y43.3163 
G01 X17.8380 Y43.3754 
G01 X17.8642 Y43.4206 
G01 X17.8798 Y43.4477 
G01 X17.9014 Y43.5283 
G01 X17.9014 Y44.6945 
G01 X17.9041 Y44.7152 
G01 X17.9014 Y44.7360 
G01 X17.9014 Y44.7570 
G01 X17.8960 Y44.7772 
G01 X17.8932 Y44.7980 
G01 X17.8852 Y44.8174 
G01 X17.8798 Y44.8376 
G01 X17.8693 Y44.8558 
G01 X17.7744 Y45.0849 
G01 X17.7744 Y46.9901 
G01 X17.9328 Y47.3725 
G01 X17.9433 Y47.3907 
G01 X17.9487 Y47.4109 
G01 X17.9567 Y47.4303 
G01 X17.9595 Y47.4511 
G01 X17.9649 Y47.4713 
G01 X17.9649 Y47.4923 
G01 X17.9676 Y47.5131 
G01 X17.9649 Y47.5338 
G01 X17.9649 Y50.0788 
G01 X17.9433 Y50.1594 
G01 X17.9015 Y50.2317 
G01 X17.8425 Y50.2908 
G01 X17.7617 Y50.3716 
G01 X17.7617 Y51.2284 
G01 X18.3676 Y51.8343 
G01 X19.2244 Y51.8343 
G01 X19.8713 Y51.1874 
G01 X19.9436 Y51.1457 
G01 X20.0242 Y51.1241 
G01 X20.1077 Y51.1241 
G01 X20.1112 Y51.1250 
G01 X20.1884 Y51.1457 
G01 X20.2591 Y51.1865 
G01 X20.3197 Y51.2465 
G01 X20.9076 Y51.8343 
G01 X21.7644 Y51.8343 
G01 X22.4113 Y51.1874 
G01 X22.4836 Y51.1457 
G01 X22.5643 Y51.1241 
G01 X22.6477 Y51.1241 
G01 X22.6512 Y51.1250 
G01 X22.7284 Y51.1457 
G01 X22.7991 Y51.1865 
G01 X22.8597 Y51.2465 
G01 X23.4476 Y51.8343 
G01 X24.3044 Y51.8343 
G01 X24.9319 Y51.2069 
G01 X24.9386 Y51.2001 
G01 X24.9909 Y51.1478 
G01 X25.0632 Y51.1061 
G01 X25.1438 Y51.0845 
G01 X25.2273 Y51.0845 
G01 X25.2308 Y51.0854 
G01 X25.3080 Y51.1061 
G01 X25.3803 Y51.1478 
G01 X25.4305 Y51.1981 
G01 X25.4393 Y51.2069 
G01 X26.0108 Y51.7783 
G01 X26.0521 Y51.7783 
G01 X26.0521 Y51.7521 
G01 X26.0216 Y51.7521 
G01 X25.4639 Y51.1944 
G01 X25.4639 Y50.4056 
G01 X26.0216 Y49.8479 
G01 X26.0521 Y49.8479 
G01 X26.0521 Y49.8217 
G01 X26.0108 Y49.8217 
G01 X25.4393 Y50.3931 
G01 X25.4321 Y50.4003 
G01 X25.3803 Y50.4522 
G01 X25.3080 Y50.4939 
G01 X25.2273 Y50.5155 
G01 X25.1438 Y50.5155 
G01 X25.1404 Y50.5146 
G01 X25.0632 Y50.4939 
G01 X24.9909 Y50.4522 
G01 X24.9402 Y50.4015 
G01 X24.9319 Y50.3931 
G01 X24.3044 Y49.7657 
G01 X23.4476 Y49.7657 
G01 X22.8597 Y50.3535 
G01 X22.8067 Y50.4066 
G01 X22.8007 Y50.4126 
G01 X22.7284 Y50.4543 
G01 X22.6477 Y50.4759 
G01 X22.5643 Y50.4759 
G01 X22.4836 Y50.4543 
G01 X22.4113 Y50.4126 
G01 X22.3532 Y50.3545 
G01 X22.2305 Y50.2317 
G01 X22.1887 Y50.1594 
G01 X22.1671 Y50.0788 
G01 X22.1671 Y47.2272 
G01 X22.1644 Y47.2065 
G01 X22.1671 Y47.1857 
G01 X22.1671 Y47.1647 
G01 X22.1725 Y47.1445 
G01 X22.1753 Y47.1237 
G01 X22.1833 Y47.1043 
G01 X22.1887 Y47.0841 
G01 X22.1992 Y47.0659 
G01 X22.2358 Y46.9774 
G01 X22.2655 Y46.9058 
G01 X22.3038 Y46.8559 
G01 X22.3163 Y46.8395 
G01 X22.3826 Y46.7887 
G01 X22.4268 Y46.7704 
G01 X22.4597 Y46.7568 
G01 X22.5425 Y46.7459 
G01 X22.5525 Y46.7472 
G01 X22.6253 Y46.7568 
G01 X22.6714 Y46.7759 
G01 X22.7024 Y46.7887 
G01 X22.7523 Y46.8270 
G01 X22.7687 Y46.8395 
G01 X22.8195 Y46.9058 
G01 X22.8485 Y46.9759 
G01 X22.8514 Y46.9829 
G01 X23.0003 Y47.3422 
G01 X23.2698 Y47.6117 
G01 X23.6219 Y47.7576 
G01 X24.0031 Y47.7576 
G01 X24.3552 Y47.6117 
G01 X24.6247 Y47.3422 
G01 X24.7319 Y47.0835 
G01 X24.7373 Y47.0633 
G01 X24.7478 Y47.0451 
G01 X24.7558 Y47.0258 
G01 X24.7686 Y47.0091 
G01 X24.7791 Y46.9910 
G01 X24.7939 Y46.9762 
G01 X24.8066 Y46.9595 
G01 X24.8233 Y46.9468 
G01 X24.8381 Y46.9320 
G01 X24.8562 Y46.9215 
G01 X24.8729 Y46.9087 
G01 X24.8923 Y46.9007 
G01 X24.9104 Y46.8902 
G01 X24.9306 Y46.8848 
G01 X24.9500 Y46.8768 
G01 X24.9708 Y46.8740 
G01 X24.9910 Y46.8686 
G01 X25.0120 Y46.8686 
G01 X25.0328 Y46.8659 
G01 X25.0536 Y46.8686 
G01 X25.6011 Y46.8686 
G01 X25.6818 Y46.8902 
G01 X25.7541 Y46.9320 
G01 X25.8131 Y46.9910 
G01 X28.0615 Y49.2394 
G01 X28.1033 Y49.3117 
G01 X28.1249 Y49.3923 
G01 X28.1249 Y50.0788 
G01 X28.1033 Y50.1594 
G01 X28.0787 Y50.2021 
G01 X28.0615 Y50.2317 
G01 X28.0025 Y50.2908 
G01 X27.9001 Y50.3931 
G01 X27.8420 Y50.4513 
G01 X27.8115 Y50.4693 
G01 X27.7688 Y50.4939 
G01 X27.6882 Y50.5155 
G01 X27.6046 Y50.5155 
G01 X27.5240 Y50.4939 
G01 X27.4717 Y50.4637 
G01 X27.4517 Y50.4522 
G01 X26.8212 Y49.8217 
G01 X26.7799 Y49.8217 
G01 X26.7799 Y49.8479 
G01 X26.8104 Y49.8479 
G01 X27.3681 Y50.4056 
G01 X27.3681 Y51.1944 
G01 X26.8104 Y51.7521 
G01 X26.7799 Y51.7521 
G01 X26.7799 Y51.7783 
G01 X26.8212 Y51.7783 
G01 X27.3927 Y51.2069 
G01 X27.3999 Y51.1996 
G01 X27.4517 Y51.1478 
G01 X27.5240 Y51.1061 
G01 X27.6046 Y51.0845 
G01 X27.6881 Y51.0845 
G01 X27.6916 Y51.0854 
G01 X27.7688 Y51.1061 
G01 X27.8411 Y51.1478 
G01 X27.8918 Y51.1985 
G01 X27.9001 Y51.2069 
G01 X28.5276 Y51.8343 
G01 X29.3844 Y51.8343 
G01 X30.0313 Y51.1874 
G01 X30.1036 Y51.1457 
G01 X30.1842 Y51.1241 
G01 X30.2677 Y51.1241 
G01 X30.2712 Y51.1250 
G01 X30.3484 Y51.1457 
G01 X30.4191 Y51.1865 
G01 X30.4797 Y51.2465 
G01 X31.0676 Y51.8343 
G01 X31.9244 Y51.8343 
G01 X32.5713 Y51.1874 
G01 X32.6436 Y51.1457 
G01 X32.7242 Y51.1241 
G01 X32.8077 Y51.1241 
G01 X32.8112 Y51.1250 
G01 X32.8884 Y51.1457 
G01 X32.9591 Y51.1865 
G01 X33.0197 Y51.2465 
G01 X33.6076 Y51.8343 
G01 X34.4644 Y51.8343 
G01 X35.1113 Y51.1874 
G01 X35.1836 Y51.1457 
G01 X35.2642 Y51.1241 
G01 X35.3477 Y51.1241 
G01 X35.3512 Y51.1250 
G01 X35.4284 Y51.1457 
G01 X35.4991 Y51.1865 
G01 X35.5597 Y51.2465 
G01 X36.1476 Y51.8343 
G01 X37.0044 Y51.8343 
G01 X37.6513 Y51.1874 
G01 X37.7236 Y51.1457 
G01 X37.8043 Y51.1241 
G01 X37.8877 Y51.1241 
G01 X37.8912 Y51.1250 
G01 X37.9684 Y51.1457 
G01 X38.0391 Y51.1865 
G01 X38.0997 Y51.2465 
G01 X38.6876 Y51.8343 
G01 X39.5444 Y51.8343 
G01 X40.1913 Y51.1874 
G01 X40.2636 Y51.1457 
G01 X40.3443 Y51.1241 
G01 X40.4277 Y51.1241 
G01 X40.4312 Y51.1250 
G01 X40.5084 Y51.1457 
G01 X40.5791 Y51.1865 
G01 X40.6397 Y51.2465 
G01 X41.2276 Y51.8343 
G01 X42.0844 Y51.8343 
G01 X42.6903 Y51.2284 
G01 X42.6903 Y50.3716 
G01 X42.6095 Y50.2908 
G01 X42.5525 Y50.2338 
G01 X42.5505 Y50.2317 
G01 X42.5087 Y50.1594 
G01 X42.4871 Y50.0788 
G01 X42.4871 Y41.1732 
G01 X42.3957 Y40.9526 
G01 X42.3852 Y40.9344 
G01 X42.3798 Y40.9142 
G01 X42.3718 Y40.8948 
G01 X42.3690 Y40.8740 
G01 X42.3636 Y40.8538 
G01 X42.3636 Y40.8328 
G01 X42.3609 Y40.8120 
G01 X42.3636 Y40.7912 
G01 X42.3636 Y40.7703 
G01 X42.3691 Y40.7500 
G01 X42.3718 Y40.7292 
G01 X42.3798 Y40.7099 
G01 X42.3852 Y40.6896 
G01 X42.3957 Y40.6715 
G01 X42.4037 Y40.6521 
G01 X42.4165 Y40.6355 
G01 X42.4270 Y40.6173 
G01 X42.4418 Y40.6025 
G01 X42.4546 Y40.5859 
G01 X42.4712 Y40.5731 
G01 X42.4860 Y40.5583 
G01 X42.5042 Y40.5478 
G01 X42.5208 Y40.5350 
G01 X42.5402 Y40.5270 
G01 X42.5583 Y40.5165 
G01 X42.5786 Y40.5111 
G01 X42.5979 Y40.5031 
G01 X42.6187 Y40.5003 
G01 X42.6390 Y40.4949 
G01 X42.6599 Y40.4949 
G01 X42.6807 Y40.4922 
G01 X42.7015 Y40.4949 
G01 X42.7225 Y40.4949 
G01 X42.7427 Y40.5003 
G01 X42.7635 Y40.5031 
G01 X42.7829 Y40.5111 
G01 X42.8031 Y40.5165 
G01 X42.8213 Y40.5270 
G01 X42.8406 Y40.5350 
G01 X42.8573 Y40.5478 
G01 X42.8754 Y40.5583 
G01 X42.8902 Y40.5731 
G01 X42.9069 Y40.5859 
G01 X42.9196 Y40.6025 
G01 X44.8255 Y42.5084 
G01 X44.8673 Y42.5807 
G01 X44.8889 Y42.6613 
G01 X44.8889 Y50.0788 
G01 X44.8673 Y50.1594 
G01 X44.8255 Y50.2317 
G01 X44.7665 Y50.2908 
G01 X44.6857 Y50.3716 
G01 X44.6857 Y51.2284 
G01 X45.2916 Y51.8343 
G01 X46.1484 Y51.8343 
G01 X46.7953 Y51.1874 
G01 X46.8676 Y51.1457 
G01 X46.9483 Y51.1241 
G01 X47.0317 Y51.1241 
G01 X47.0352 Y51.1250 
G01 X47.1124 Y51.1457 
G01 X47.1831 Y51.1865 
G01 X47.2437 Y51.2465 
G01 X47.8316 Y51.8343 
G01 X48.6884 Y51.8343 
G01 X49.3353 Y51.1874 
G01 X49.4076 Y51.1457 
G01 X49.4883 Y51.1241 
G01 X49.5717 Y51.1241 
G01 X49.5752 Y51.1250 
G01 X49.6524 Y51.1457 
G01 X49.7231 Y51.1865 
G01 X49.7837 Y51.2465 
G01 X50.3716 Y51.8343 
G01 X51.2284 Y51.8343 
G01 X51.8753 Y51.1874 
G01 X51.9476 Y51.1457 
G01 X52.0282 Y51.1241 
G01 X52.1117 Y51.1241 
G01 X52.1152 Y51.1250 
G01 X52.1924 Y51.1457 
G01 X52.2631 Y51.1865 
G01 X52.3237 Y51.2465 
G01 X52.9116 Y51.8343 
G01 X53.7684 Y51.8343 
G01 X54.3563 Y51.2465 
G01 X54.4093 Y51.1934 
G01 X54.4153 Y51.1874 
G01 X54.4876 Y51.1457 
G01 X54.5682 Y51.1241 
G01 X54.6517 Y51.1241 
G01 X54.7324 Y51.1457 
G01 X54.8047 Y51.1874 
G01 X54.8628 Y51.2455 
G01 X55.4516 Y51.8343 
G01 X56.3084 Y51.8343 
G01 X56.8963 Y51.2465 
G01 X56.9493 Y51.1934 
G01 X56.9553 Y51.1874 
G01 X57.0276 Y51.1457 
G01 X57.1082 Y51.1241 
G01 X57.1917 Y51.1241 
G01 X57.2724 Y51.1457 
G01 X57.3447 Y51.1874 
G01 X57.4028 Y51.2455 
G01 X57.9916 Y51.8343 
G01 X58.8484 Y51.8343 
G01 X59.4363 Y51.2465 
G01 X59.4893 Y51.1934 
G01 X59.4953 Y51.1874 
G01 X59.5676 Y51.1457 
G01 X59.6482 Y51.1241 
G01 X59.7317 Y51.1241 
G01 X59.8124 Y51.1457 
G01 X59.8847 Y51.1874 
G01 X59.9428 Y51.2455 
G01 X60.5316 Y51.8343 
G01 X61.3884 Y51.8343 
G01 X61.9763 Y51.2465 
G01 X62.0293 Y51.1934 
G01 X62.0353 Y51.1874 
G01 X62.1076 Y51.1457 
G01 X62.1882 Y51.1241 
G01 X62.2717 Y51.1241 
G01 X62.3524 Y51.1457 
G01 X62.4247 Y51.1874 
G01 X62.4828 Y51.2455 
G01 X63.0716 Y51.8343 
G01 X63.9284 Y51.8343 
G01 X64.5343 Y51.2284 
G01 X64.5343 Y50.3716 
G01 X63.9284 Y49.7657 
G01 X63.0716 Y49.7657 
G01 X62.4247 Y50.4126 
G01 X62.3524 Y50.4543 
G01 X62.2717 Y50.4759 
G01 X62.1882 Y50.4759 
G01 X62.1848 Y50.4750 
G01 X62.1076 Y50.4543 
G01 X62.0369 Y50.4135 
G01 X61.9763 Y50.3535 
G01 X61.3884 Y49.7657 
G01 X60.5316 Y49.7657 
G01 X59.8847 Y50.4126 
G01 X59.8551 Y50.4297 
G01 X59.8124 Y50.4543 
G01 X59.7317 Y50.4759 
G01 X59.6482 Y50.4759 
G01 X59.6200 Y50.4684 
G01 X59.5676 Y50.4543 
G01 X59.5498 Y50.4441 
G01 X59.4953 Y50.4126 
G01 X59.4363 Y50.3535 
G01 X59.3145 Y50.2317 
G01 X59.2963 Y50.2002 
G01 X59.2727 Y50.1594 
G01 X59.2511 Y50.0788 
G01 X59.2511 Y46.4713 
G01 X59.2727 Y46.3907 
G01 X59.3145 Y46.3184 
G01 X59.3735 Y46.2594 
G01 X62.3682 Y43.2647 
G01 X62.6171 Y43.0158 
G01 X62.7436 Y42.7103 
G01 X62.7436 Y16.0270 
G01 X62.7410 Y16.0020 
G01 X62.7436 Y15.9854 
G01 X62.7436 Y15.9686 
G01 X62.7501 Y15.9443 
G01 X62.7540 Y15.9195 
G01 X62.7609 Y15.9042 
G01 X62.7652 Y15.8880 
G01 X62.7778 Y15.8662 
G01 X62.7880 Y15.8432 
G01 X62.7986 Y15.8302 
G01 X62.8070 Y15.8157 
G01 X62.8247 Y15.7979 
G01 X62.8406 Y15.7783 
G01 X62.8541 Y15.7685 
G01 X62.8660 Y15.7566 
G01 X62.8878 Y15.7441 
G01 X62.9081 Y15.7293 
G01 X62.9238 Y15.7233 
G01 X62.9383 Y15.7149 
G01 X62.9626 Y15.7084 
G01 X62.9861 Y15.6994 
G01 X63.0027 Y15.6976 
G01 X63.0189 Y15.6933 
G01 X63.0441 Y15.6933 
G01 X63.0691 Y15.6906 
G01 X63.0857 Y15.6933 
G01 X63.1024 Y15.6933 
G01 X63.1267 Y15.6998 
G01 X63.1516 Y15.7037 
G01 X63.1669 Y15.7105 
G01 X63.1831 Y15.7149 
G01 X63.2049 Y15.7275 
G01 X63.2278 Y15.7377 
G01 X63.2409 Y15.7482 
G01 X63.2554 Y15.7566 
G01 X63.2732 Y15.7744 
G01 X63.2927 Y15.7902 
G01 X63.3026 Y15.8038 
G01 X63.3144 Y15.8157 
G01 X63.3234 Y15.8311 
G01 X63.4203 Y15.9281 
G01 X63.5352 Y16.0115 
G01 X63.6617 Y16.0760 
G01 X63.7967 Y16.1199 
G01 X63.9370 Y16.1421 
G01 X64.4021 Y16.1421 
G01 X64.4021 Y16.1159 
G01 X63.9217 Y16.1159 
G01 X63.7525 Y16.0822 
G01 X63.5931 Y16.0162 
G01 X63.4496 Y15.9204 
G01 X63.3276 Y15.7984 
G01 X63.2318 Y15.6549 
G01 X63.1658 Y15.4955 
G01 X63.1321 Y15.3263 
G01 X63.1321 Y15.1537 
G01 X63.1658 Y14.9845 
G01 X63.2318 Y14.8251 
G01 X63.3276 Y14.6816 
G01 X63.4496 Y14.5596 
G01 X63.5931 Y14.4638 
G01 X63.7525 Y14.3978 
G01 X63.9217 Y14.3641 
G01 X64.4021 Y14.3641 
G01 X64.4021 Y14.3379 
G01 X63.9370 Y14.3379 
G01 X63.7967 Y14.3601 
G01 X63.6617 Y14.4040 
G01 X63.5352 Y14.4685 
G01 X63.4203 Y14.5519 
G01 X63.3234 Y14.6489 
G01 X63.3144 Y14.6643 
G01 X63.3026 Y14.6762 
G01 X63.2927 Y14.6898 
G01 X63.2732 Y14.7056 
G01 X63.2554 Y14.7234 
G01 X63.2409 Y14.7318 
G01 X63.2278 Y14.7423 
G01 X63.2049 Y14.7525 
G01 X63.1831 Y14.7651 
G01 X63.1669 Y14.7695 
G01 X63.1516 Y14.7763 
G01 X63.1267 Y14.7802 
G01 X63.1024 Y14.7867 
G01 X63.0857 Y14.7867 
G01 X63.0691 Y14.7894 
G01 X63.0441 Y14.7867 
G01 X63.0189 Y14.7867 
G01 X63.0027 Y14.7824 
G01 X62.9861 Y14.7806 
G01 X62.9626 Y14.7716 
G01 X62.9383 Y14.7651 
G01 X62.9238 Y14.7567 
G01 X62.9081 Y14.7507 
G01 X62.8878 Y14.7359 
G01 X62.8660 Y14.7234 
G01 X62.8541 Y14.7115 
G01 X62.8406 Y14.7016 
G01 X62.8247 Y14.6821 
G01 X62.8070 Y14.6643 
G01 X62.7986 Y14.6498 
G01 X62.7880 Y14.6368 
G01 X62.7778 Y14.6138 
G01 X62.7652 Y14.5920 
G01 X62.7609 Y14.5758 
G01 X62.7540 Y14.5605 
G01 X62.7501 Y14.5357 
G01 X62.7436 Y14.5114 
G01 X62.7436 Y14.4946 
G01 X62.7410 Y14.4780 
G01 X62.7436 Y14.4530 
G01 X62.7436 Y13.8064 
G01 X62.7652 Y13.7258 
G01 X62.8070 Y13.6535 
G01 X62.8660 Y13.5945 
G01 X62.9383 Y13.5527 
G01 X63.0189 Y13.5311 
G01 X63.4270 Y13.5311 
G01 X63.4477 Y13.5284 
G01 X63.4685 Y13.5311 
G01 X63.4895 Y13.5311 
G01 X63.5097 Y13.5365 
G01 X63.5305 Y13.5393 
G01 X63.5499 Y13.5473 
G01 X63.5701 Y13.5527 
G01 X63.5883 Y13.5632 
G01 X63.8174 Y13.6581 
G01 X65.7226 Y13.6581 
G01 X66.0747 Y13.5122 
G01 X66.3442 Y13.2427 
G01 X66.4901 Y12.8906 
G01 X66.4901 Y12.5094 
G01 X66.3442 Y12.1573 
G01 X66.0747 Y11.8878 
G01 X65.7154 Y11.7389 
G01 X65.7113 Y11.7372 
G01 X65.6383 Y11.7070 
G01 X65.5720 Y11.6562 
G01 X65.5212 Y11.5899 
G01 X65.4893 Y11.5128 
G01 X65.4784 Y11.4300 
G01 X65.4893 Y11.3472 
G01 X65.5021 Y11.3162 
G01 X65.5212 Y11.2701 
G01 X65.5720 Y11.2038 
G01 X65.6383 Y11.1530 
G01 X65.6424 Y11.1513 
G01 X66.0747 Y10.9722 
G01 X66.3442 Y10.7027 
G01 X66.4901 Y10.3506 
G01 X66.4901 Y9.9694 
G01 X66.3442 Y9.6173 
G01 X66.0747 Y9.3478 
G01 X65.7154 Y9.1989 
G01 X65.7113 Y9.1972 
G01 X65.6383 Y9.1670 
G01 X65.5720 Y9.1162 
G01 X65.5212 Y9.0499 
G01 X65.4893 Y8.9728 
G01 X65.4784 Y8.8900 
G01 X65.4893 Y8.8072 
G01 X65.5021 Y8.7762 
G01 X65.5212 Y8.7301 
G01 X65.5720 Y8.6638 
G01 X65.6383 Y8.6130 
G01 X65.6424 Y8.6113 
G01 X66.0747 Y8.4322 
G01 X66.3442 Y8.1627 
G01 X66.4901 Y7.8106 
G01 X66.4901 Y7.4294 
G01 X66.3442 Y7.0773 
G01 X66.0747 Y6.8078 
G01 X65.7226 Y6.6619 
G01 X63.8174 Y6.6619 
G01 X63.5883 Y6.7568 
G01 X63.5701 Y6.7673 
G01 X63.5499 Y6.7727 
G01 X63.5305 Y6.7807 
G01 X63.5097 Y6.7835 
G01 X63.4895 Y6.7889 
G01 X63.4685 Y6.7889 
G01 X63.4477 Y6.7916 
G01 X63.4270 Y6.7889 
G01 X62.6638 Y6.7889 
G01 X62.5832 Y6.7673 
G01 X62.5109 Y6.7255 
G01 X62.4519 Y6.6665 
G01 X59.3145 Y3.5291 
G01 X59.2727 Y3.4568 
G01 X59.2511 Y3.3761 
G01 X59.2511 Y3.2612 
G01 X59.2727 Y3.1806 
G01 X59.3145 Y3.1083 
G01 X59.3735 Y3.0492 
G01 X59.4953 Y2.9274 
G01 X59.5676 Y2.8857 
G01 X59.6482 Y2.8641 
G01 X59.7317 Y2.8641 
G01 X59.8124 Y2.8857 
G01 X59.8847 Y2.9274 
G01 X59.9437 Y2.9865 
G01 X60.5316 Y3.5743 
G01 X61.3884 Y3.5743 
G01 X61.9763 Y2.9865 
G01 X62.0293 Y2.9334 
G01 X62.0353 Y2.9274 
G01 X62.1076 Y2.8857 
G01 X62.1882 Y2.8641 
G01 X62.2717 Y2.8641 
G01 X62.3524 Y2.8857 
G01 X62.4247 Y2.9274 
G01 X62.4828 Y2.9855 
G01 X63.0716 Y3.5743 
G01 X63.9284 Y3.5743 
G01 X64.5343 Y2.9684 
G01 X64.5343 Y2.1116 
G01 X63.9284 Y1.5057 
G01 X63.0716 Y1.5057 
G01 X62.4247 Y2.1526 
G01 X62.3524 Y2.1943 
G01 X62.2717 Y2.2159 
G01 X62.1882 Y2.2159 
G01 X62.1848 Y2.2150 
G01 X62.1076 Y2.1943 
G01 X62.0369 Y2.1535 
G01 X61.9763 Y2.0935 
G01 X61.3884 Y1.5057 
G01 X60.5316 Y1.5057 
G01 X59.8847 Y2.1526 
G01 X59.8124 Y2.1943 
G01 X59.7317 Y2.2159 
G01 X59.6482 Y2.2159 
G01 X59.6448 Y2.2150 
G01 X59.5676 Y2.1943 
G01 X59.4969 Y2.1535 
G01 X59.4363 Y2.0935 
G01 X58.8484 Y1.5057 
G01 X57.9916 Y1.5057 
G01 X57.3447 Y2.1526 
G01 X57.2724 Y2.1943 
G01 X57.1917 Y2.2159 
G01 X57.1082 Y2.2159 
G01 X57.1048 Y2.2150 
G01 X57.0276 Y2.1943 
G01 X56.9569 Y2.1535 
G01 X56.8963 Y2.0935 
G01 X56.3084 Y1.5057 
G01 X55.4516 Y1.5057 
G01 X54.8047 Y2.1526 
G01 X54.7324 Y2.1943 
G01 X54.6517 Y2.2159 
G01 X54.5682 Y2.2159 
G01 X54.5648 Y2.2150 
G01 X54.4876 Y2.1943 
G01 X54.4169 Y2.1535 
G01 X54.3563 Y2.0935 
G01 X53.7684 Y1.5057 
G01 X52.9116 Y1.5057 
G01 X52.3237 Y2.0935 
G01 X52.2647 Y2.1526 
G01 X52.2089 Y2.1848 
G01 X52.1924 Y2.1943 
G01 X52.1117 Y2.2159 
G01 X52.0282 Y2.2159 
G01 X51.9476 Y2.1943 
G01 X51.8753 Y2.1526 
G01 X51.2284 Y1.5057 
G01 X50.3716 Y1.5057 
G01 X49.7657 Y2.1116 
G01 X49.7657 Y2.9684 
G01 X49.9055 Y3.1083 
G01 X49.9473 Y3.1806 
G01 X49.9689 Y3.2612 
G01 X49.9689 Y3.9984 
G01 X49.9716 Y4.0192 
G01 X49.9689 Y4.0400 
G01 X49.9689 Y4.0609 
G01 X49.9635 Y4.0812 
G01 X49.9607 Y4.1020 
G01 X49.9527 Y4.1213 
G01 X49.9473 Y4.1416 
G01 X49.9368 Y4.1597 
G01 X49.9288 Y4.1791 
G01 X49.9160 Y4.1957 
G01 X49.9055 Y4.2139 
G01 X49.8907 Y4.2287 
G01 X49.8780 Y4.2453 
G01 X49.8613 Y4.2581 
G01 X49.8465 Y4.2729 
G01 X49.8284 Y4.2834 
G01 X49.8117 Y4.2962 
G01 X49.7923 Y4.3042 
G01 X49.7742 Y4.3147 
G01 X49.7540 Y4.3201 
G01 X49.7346 Y4.3281 
G01 X49.7138 Y4.3308 
G01 X49.6935 Y4.3363 
G01 X49.6726 Y4.3363 
G01 X49.6518 Y4.3390 
G01 X49.6310 Y4.3363 
G01 X49.6101 Y4.3363 
G01 X49.5898 Y4.3308 
G01 X49.5690 Y4.3281 
G01 X49.5496 Y4.3201 
G01 X49.5294 Y4.3147 
G01 X49.5113 Y4.3042 
G01 X49.3778 Y4.2489 
G01 X43.9615 Y4.2489 
G01 X43.9215 Y4.2493 
G01 X43.9180 Y4.2489 
G01 X43.8794 Y4.2386 
G01 X43.8611 Y4.2339 
G01 X43.7971 Y4.2430 
G01 X43.7751 Y4.2489 
G01 X43.7559 Y4.2489 
G01 X43.7369 Y4.2516 
G01 X43.7144 Y4.2489 
G01 X43.6497 Y4.2489 
G01 X43.6322 Y4.2561 
G01 X43.5955 Y4.2718 
G01 X43.5921 Y4.2727 
G01 X43.5523 Y4.2780 
G01 X43.5338 Y4.2806 
G01 X43.4781 Y4.3136 
G01 X43.4601 Y4.3274 
G01 X43.4424 Y4.3348 
G01 X43.4259 Y4.3446 
G01 X43.4040 Y4.3507 
G01 X43.3442 Y4.3754 
G01 X43.3309 Y4.3888 
G01 X43.3029 Y4.4173 
G01 X43.3002 Y4.4195 
G01 X43.2655 Y4.4395 
G01 X43.2493 Y4.4491 
G01 X43.2105 Y4.5008 
G01 X43.1991 Y4.5205 
G01 X43.1855 Y4.5341 
G01 X43.1740 Y4.5495 
G01 X43.1562 Y4.5635 
G01 X43.1104 Y4.6092 
G01 X43.1032 Y4.6266 
G01 X43.0883 Y4.6637 
G01 X43.0866 Y4.6668 
G01 X43.0622 Y4.6986 
G01 X43.0297 Y4.7418 
G01 X43.0184 Y4.7615 
G01 X43.0048 Y4.7751 
G01 X42.9933 Y4.7905 
G01 X42.9754 Y4.8045 
G01 X42.9594 Y4.8205 
G01 X42.9427 Y4.8301 
G01 X42.9276 Y4.8420 
G01 X42.9067 Y4.8509 
G01 X42.8870 Y4.8623 
G01 X42.8685 Y4.8673 
G01 X42.8508 Y4.8748 
G01 X42.8283 Y4.8780 
G01 X42.8064 Y4.8839 
G01 X42.7872 Y4.8839 
G01 X42.7682 Y4.8866 
G01 X42.7456 Y4.8839 
G01 X42.5709 Y4.8839 
G01 X42.0320 Y5.1071 
G01 X41.6196 Y5.5195 
G01 X41.3964 Y6.0584 
G01 X41.3964 Y6.6416 
G01 X41.6196 Y7.1805 
G01 X42.0320 Y7.5929 
G01 X42.5709 Y7.8161 
G01 X43.1541 Y7.8161 
G01 X43.6930 Y7.5929 
G01 X44.1054 Y7.1805 
G01 X44.3286 Y6.6416 
G01 X44.3286 Y6.1864 
G01 X44.3502 Y6.1058 
G01 X44.3920 Y6.0335 
G01 X44.4510 Y5.9745 
G01 X44.5233 Y5.9327 
G01 X44.6039 Y5.9111 
G01 X48.7786 Y5.9111 
G01 X48.8593 Y5.9327 
G01 X48.9316 Y5.9745 
G01 X48.9906 Y6.0335 
G01 X49.1727 Y6.2156 
G01 X49.2294 Y6.2723 
G01 X49.2317 Y6.2746 
G01 X49.2735 Y6.3469 
G01 X49.2951 Y6.4275 
G01 X49.2951 Y6.5110 
G01 X49.2744 Y6.5883 
G01 X49.2735 Y6.5917 
G01 X49.2317 Y6.6640 
G01 X49.1736 Y6.7221 
G01 X49.1004 Y6.7648 
G01 X49.0198 Y6.7864 
G01 X48.5558 Y6.7864 
G01 X48.5276 Y6.7788 
G01 X48.4752 Y6.7648 
G01 X48.4574 Y6.7545 
G01 X48.4029 Y6.7230 
G01 X48.3537 Y6.6739 
G01 X46.8913 Y6.6739 
G01 X46.8812 Y6.6840 
G01 X46.8251 Y6.7400 
G01 X46.8222 Y6.7430 
G01 X46.7498 Y6.7848 
G01 X46.7077 Y6.7960 
G01 X46.6692 Y6.8064 
G01 X46.5857 Y6.8064 
G01 X46.5050 Y6.7848 
G01 X46.4647 Y6.7615 
G01 X46.4328 Y6.7430 
G01 X46.4266 Y6.7394 
G01 X46.3909 Y6.7299 
G01 X46.1614 Y6.7299 
G01 X46.1614 Y6.7561 
G01 X46.3952 Y6.7561 
G01 X46.4370 Y6.7734 
G01 X46.4691 Y6.8055 
G01 X46.4864 Y6.8473 
G01 X46.4864 Y8.3927 
G01 X46.4691 Y8.4345 
G01 X46.4370 Y8.4666 
G01 X46.3952 Y8.4839 
G01 X46.1614 Y8.4839 
G01 X46.1614 Y8.5101 
G01 X46.3909 Y8.5101 
G01 X46.4325 Y8.4989 
G01 X46.5160 Y8.4989 
G01 X46.5494 Y8.5079 
G01 X46.5967 Y8.5206 
G01 X46.6512 Y8.5520 
G01 X46.6690 Y8.5623 
G01 X46.7271 Y8.6204 
G01 X46.7577 Y8.6727 
G01 X46.7698 Y8.6936 
G01 X46.7796 Y8.7302 
G01 X46.7914 Y8.7743 
G01 X46.7914 Y9.0535 
G01 X46.7698 Y9.1342 
G01 X46.7280 Y9.2065 
G01 X46.6690 Y9.2655 
G01 X46.5967 Y9.3073 
G01 X46.5160 Y9.3289 
G01 X39.2064 Y9.3289 
G01 X39.1258 Y9.3073 
G01 X39.0535 Y9.2655 
G01 X38.9945 Y9.2065 
G01 X38.9527 Y9.1342 
G01 X38.9311 Y9.0535 
G01 X38.9311 Y3.2612 
G01 X38.9527 Y3.1806 
G01 X38.9773 Y3.1379 
G01 X38.9945 Y3.1083 
G01 X39.0535 Y3.0492 
G01 X39.1559 Y2.9469 
G01 X39.2140 Y2.8887 
G01 X39.2445 Y2.8707 
G01 X39.2872 Y2.8461 
G01 X39.3678 Y2.8245 
G01 X39.4513 Y2.8245 
G01 X39.5320 Y2.8461 
G01 X39.5843 Y2.8763 
G01 X39.6043 Y2.8878 
G01 X40.2348 Y3.5183 
G01 X40.2761 Y3.5183 
G01 X40.2761 Y3.4921 
G01 X40.2456 Y3.4921 
G01 X39.6879 Y2.9344 
G01 X39.6879 Y2.1456 
G01 X40.2456 Y1.5879 
G01 X40.2761 Y1.5879 
G01 X40.2761 Y1.5617 
G01 X40.2348 Y1.5617 
G01 X39.6633 Y2.1331 
G01 X39.6561 Y2.1403 
G01 X39.6043 Y2.1922 
G01 X39.5320 Y2.2339 
G01 X39.4513 Y2.2555 
G01 X39.3678 Y2.2555 
G01 X39.3644 Y2.2546 
G01 X39.2872 Y2.2339 
G01 X39.2149 Y2.1922 
G01 X39.1642 Y2.1415 
G01 X39.1559 Y2.1331 
G01 X38.5284 Y1.5057 
G01 X37.6716 Y1.5057 
G01 X37.0837 Y2.0935 
G01 X37.0307 Y2.1466 
G01 X37.0247 Y2.1526 
G01 X36.9524 Y2.1943 
G01 X36.8717 Y2.2159 
G01 X36.7882 Y2.2159 
G01 X36.7076 Y2.1943 
G01 X36.6353 Y2.1526 
G01 X36.5772 Y2.0945 
G01 X35.9884 Y1.5057 
G01 X35.1316 Y1.5057 
G01 X34.5437 Y2.0935 
G01 X34.4907 Y2.1466 
G01 X34.4847 Y2.1526 
G01 X34.4124 Y2.1943 
G01 X34.3317 Y2.2159 
G01 X34.2482 Y2.2159 
G01 X34.1676 Y2.1943 
G01 X34.0953 Y2.1526 
G01 X34.0372 Y2.0945 
G01 X33.4484 Y1.5057 
G01 X32.5916 Y1.5057 
G01 X31.9857 Y2.1116 
G01 X31.9857 Y2.9684 
G01 X32.5916 Y3.5743 
G01 X33.4484 Y3.5743 
G01 X34.0953 Y2.9274 
G01 X34.1676 Y2.8857 
G01 X34.2482 Y2.8641 
G01 X34.3317 Y2.8641 
G01 X34.3352 Y2.8650 
G01 X34.4124 Y2.8857 
G01 X34.4831 Y2.9265 
G01 X34.5437 Y2.9865 
G01 X35.1316 Y3.5743 
G01 X35.9884 Y3.5743 
G01 X36.6353 Y2.9274 
G01 X36.6649 Y2.9103 
G01 X36.7076 Y2.8857 
G01 X36.7882 Y2.8641 
G01 X36.8717 Y2.8641 
G01 X36.9000 Y2.8716 
G01 X36.9524 Y2.8857 
G01 X36.9702 Y2.8959 
G01 X37.0247 Y2.9274 
G01 X37.0837 Y2.9865 
G01 X37.2055 Y3.1083 
G01 X37.2237 Y3.1397 
G01 X37.2473 Y3.1806 
G01 X37.2689 Y3.2612 
G01 X37.2689 Y4.2910 
G01 X37.2473 Y4.3717 
G01 X37.2055 Y4.4440 
G01 X37.1465 Y4.5030 
G01 X37.0742 Y4.5448 
G01 X36.9935 Y4.5664 
G01 X25.2347 Y4.5664 
G01 X24.9292 Y4.6929 
G01 X14.7843 Y14.8378 
G01 X14.5354 Y15.0867 
G01 X14.4089 Y15.3922 
G01 X14.4089 Y39.7067 
G00 Z2.0000  F3000
G00 X14.4255 Y39.8959  F3000
G01 Z-0.2000 F200.00 
G01 X14.4673 Y39.8786 F500.00 
G01 X14.4911 Y39.8786 
G01 X14.4911 Y15.4837 
G01 X14.5199 Y15.3391 
G01 X14.5763 Y15.2028 
G01 X14.6583 Y15.0801 
G01 X14.7626 Y14.9758 
G01 X24.9226 Y4.8158 
G01 X25.0453 Y4.7338 
G01 X25.1816 Y4.6774 
G01 X25.3262 Y4.6486 
G01 X37.3511 Y4.6486 
G01 X37.3511 Y3.1376 
G01 X37.1479 Y2.9344 
G01 X37.1479 Y2.1456 
G01 X37.7056 Y1.5879 
G01 X38.4944 Y1.5879 
G01 X39.0521 Y2.1456 
G01 X39.0521 Y2.9344 
G01 X38.8489 Y3.1376 
G01 X38.8489 Y9.4111 
G01 X46.8736 Y9.4111 
G01 X46.8736 Y8.4289 
G01 X46.8586 Y8.3927 
G01 X46.8586 Y6.8473 
G01 X46.8759 Y6.8055 
G01 X46.9080 Y6.7734 
G01 X46.9498 Y6.7561 
G01 X48.2952 Y6.7561 
G01 X48.3370 Y6.7734 
G01 X48.3691 Y6.8055 
G01 X48.3864 Y6.8473 
G01 X48.3864 Y6.8686 
G01 X49.9411 Y6.8686 
G01 X49.9773 Y6.8536 
G01 X51.6227 Y6.8536 
G01 X51.6589 Y6.8686 
G01 X52.4811 Y6.8686 
G01 X52.5173 Y6.8536 
G01 X54.1627 Y6.8536 
G01 X54.2045 Y6.8709 
G01 X54.2366 Y6.9030 
G01 X54.2539 Y6.9448 
G01 X54.2539 Y8.2902 
G01 X54.2366 Y8.3320 
G01 X54.2045 Y8.3641 
G01 X54.1627 Y8.3814 
G01 X52.5173 Y8.3814 
G01 X52.4811 Y8.3664 
G01 X51.6589 Y8.3664 
G01 X51.6227 Y8.3814 
G01 X49.9773 Y8.3814 
G01 X49.9411 Y8.3664 
G01 X48.3864 Y8.3664 
G01 X48.3864 Y8.3927 
G01 X48.3714 Y8.4289 
G01 X48.3714 Y9.7562 
G01 X48.3739 Y9.7687 
G01 X48.3739 Y10.2338 
G01 X48.3451 Y10.3784 
G01 X48.2887 Y10.5147 
G01 X48.2067 Y10.6374 
G01 X48.1024 Y10.7417 
G01 X47.9797 Y10.8237 
G01 X47.8434 Y10.8801 
G01 X47.6988 Y10.9089 
G01 X38.3437 Y10.9089 
G01 X38.1991 Y10.8801 
G01 X38.0628 Y10.8237 
G01 X37.9401 Y10.7417 
G01 X37.6226 Y10.4242 
G01 X37.5183 Y10.3199 
G01 X37.4363 Y10.1972 
G01 X37.3799 Y10.0609 
G01 X37.3511 Y9.9163 
G01 X37.3511 Y6.1464 
G01 X25.7102 Y6.1464 
G01 X15.9889 Y15.8677 
G01 X15.9889 Y39.8786 
G01 X16.0127 Y39.8786 
G01 X16.0489 Y39.8936 
G01 X17.8736 Y39.8936 
G01 X17.9098 Y39.8786 
G01 X19.5552 Y39.8786 
G01 X19.5914 Y39.8936 
G01 X20.4136 Y39.8936 
G01 X20.4498 Y39.8786 
G01 X22.0952 Y39.8786 
G01 X22.1370 Y39.8959 
G01 X22.1691 Y39.9280 
G01 X22.1864 Y39.9698 
G01 X22.1864 Y41.3152 
G01 X22.1691 Y41.3570 
G01 X22.1370 Y41.3891 
G01 X22.0952 Y41.4064 
G01 X20.4498 Y41.4064 
G01 X20.4136 Y41.3914 
G01 X19.5914 Y41.3914 
G01 X19.5552 Y41.4064 
G01 X17.9098 Y41.4064 
G01 X17.8736 Y41.3914 
G01 X16.0489 Y41.3914 
G01 X16.0127 Y41.4064 
G01 X14.4673 Y41.4064 
G01 X14.4255 Y41.3891 
G01 X14.3934 Y41.3570 
G01 X14.3761 Y41.3152 
G01 X14.3761 Y39.9698 
G01 X14.3934 Y39.9280 
G01 X14.4255 Y39.8959 
G00 Z2.0000  F3000
G00 X16.1935 Y39.7480  F3000
G01 Z-0.2000 F200.00 
G01 X16.1345 Y39.6890 F500.00 
G01 X16.0927 Y39.6167 
G01 X16.0711 Y39.5360 
G01 X16.0711 Y15.9913 
G01 X16.0927 Y15.9107 
G01 X16.1345 Y15.8384 
G01 X16.1935 Y15.7794 
G01 X25.6809 Y6.2920 
G01 X25.7532 Y6.2502 
G01 X25.8338 Y6.2286 
G01 X34.0536 Y6.2286 
G01 X34.0744 Y6.2259 
G01 X34.0952 Y6.2286 
G01 X34.1161 Y6.2286 
G01 X34.1364 Y6.2340 
G01 X34.1572 Y6.2368 
G01 X34.1765 Y6.2448 
G01 X34.1968 Y6.2502 
G01 X34.2150 Y6.2607 
G01 X34.2343 Y6.2687 
G01 X34.2509 Y6.2815 
G01 X34.2691 Y6.2920 
G01 X34.2839 Y6.3068 
G01 X34.3006 Y6.3195 
G01 X34.3133 Y6.3362 
G01 X34.3281 Y6.3510 
G01 X34.3386 Y6.3692 
G01 X34.3514 Y6.3858 
G01 X34.3594 Y6.4051 
G01 X34.3699 Y6.4233 
G01 X34.3753 Y6.4436 
G01 X34.3833 Y6.4629 
G01 X34.3861 Y6.4837 
G01 X34.3915 Y6.5039 
G01 X34.3915 Y6.5249 
G01 X34.3942 Y6.5457 
G01 X34.3915 Y6.5665 
G01 X34.3915 Y6.5874 
G01 X34.3861 Y6.6077 
G01 X34.3833 Y6.6285 
G01 X34.3753 Y6.6478 
G01 X34.3699 Y6.6681 
G01 X34.3594 Y6.6863 
G01 X34.3514 Y6.7056 
G01 X34.3386 Y6.7222 
G01 X34.3281 Y6.7404 
G01 X34.3133 Y6.7552 
G01 X34.3006 Y6.7719 
G01 X34.2839 Y6.7846 
G01 X34.2691 Y6.7994 
G01 X34.2509 Y6.8099 
G01 X34.2343 Y6.8227 
G01 X34.2149 Y6.8307 
G01 X34.1968 Y6.8412 
G01 X34.1765 Y6.8466 
G01 X33.7770 Y7.0121 
G01 X33.4286 Y7.3605 
G01 X33.3563 Y7.4023 
G01 X33.2756 Y7.4239 
G01 X29.0447 Y7.4239 
G01 X28.7392 Y7.5504 
G01 X22.0868 Y14.2028 
G01 X21.8379 Y14.4517 
G01 X21.7114 Y14.7572 
G01 X21.7114 Y18.3420 
G01 X21.7141 Y18.3627 
G01 X21.7114 Y18.3835 
G01 X21.7114 Y18.4045 
G01 X21.7060 Y18.4247 
G01 X21.7032 Y18.4455 
G01 X21.6952 Y18.4649 
G01 X21.6898 Y18.4851 
G01 X21.6793 Y18.5033 
G01 X21.5844 Y18.7324 
G01 X21.5844 Y20.6376 
G01 X21.7303 Y20.9897 
G01 X21.9998 Y21.2592 
G01 X22.3519 Y21.4051 
G01 X22.7331 Y21.4051 
G01 X23.0852 Y21.2592 
G01 X23.3547 Y20.9897 
G01 X23.5355 Y20.5533 
G01 X23.5863 Y20.4870 
G01 X23.6526 Y20.4362 
G01 X23.7297 Y20.4043 
G01 X23.8125 Y20.3934 
G01 X23.8953 Y20.4043 
G01 X23.9724 Y20.4362 
G01 X24.0387 Y20.4870 
G01 X24.0895 Y20.5533 
G01 X24.0904 Y20.5555 
G01 X24.2193 Y20.8667 
G01 X24.2298 Y20.8849 
G01 X24.2352 Y20.9051 
G01 X24.2432 Y20.9245 
G01 X24.2460 Y20.9453 
G01 X24.2514 Y20.9655 
G01 X24.2514 Y20.9865 
G01 X24.2541 Y21.0073 
G01 X24.2514 Y21.0280 
G01 X24.2514 Y22.4261 
G01 X24.2298 Y22.5068 
G01 X24.1880 Y22.5791 
G01 X24.1290 Y22.6381 
G01 X17.3243 Y29.4428 
G01 X17.0754 Y29.6917 
G01 X16.9489 Y29.9972 
G01 X16.9489 Y32.8678 
G01 X17.0754 Y33.1733 
G01 X17.3833 Y33.4812 
G01 X24.1880 Y40.2859 
G01 X24.2298 Y40.3582 
G01 X24.2514 Y40.4388 
G01 X24.2514 Y41.1228 
G01 X24.3779 Y41.4283 
G01 X24.6858 Y41.7362 
G01 X29.3767 Y46.4271 
G01 X29.6822 Y46.5536 
G01 X30.1610 Y46.5536 
G01 X30.2417 Y46.5752 
G01 X30.3140 Y46.6170 
G01 X30.3730 Y46.6760 
G01 X30.4148 Y46.7483 
G01 X30.4364 Y46.8289 
G01 X30.4364 Y48.3537 
G01 X30.5425 Y48.4598 
G01 X30.5993 Y48.5166 
G01 X30.6015 Y48.5189 
G01 X30.6433 Y48.5912 
G01 X30.6649 Y48.6718 
G01 X30.6649 Y50.0788 
G01 X30.6433 Y50.1594 
G01 X30.6015 Y50.2317 
G01 X30.5425 Y50.2908 
G01 X30.4207 Y50.4126 
G01 X30.3484 Y50.4543 
G01 X30.2677 Y50.4759 
G01 X30.1842 Y50.4759 
G01 X30.1036 Y50.4543 
G01 X30.0313 Y50.4126 
G01 X29.9723 Y50.3535 
G01 X29.8505 Y50.2317 
G01 X29.8087 Y50.1594 
G01 X29.7871 Y50.0788 
G01 X29.7871 Y48.7932 
G01 X29.6606 Y48.4877 
G01 X26.7547 Y45.5818 
G01 X26.5058 Y45.3329 
G01 X26.2003 Y45.2064 
G01 X25.0536 Y45.2064 
G01 X25.0328 Y45.2091 
G01 X25.0120 Y45.2064 
G01 X24.9910 Y45.2064 
G01 X24.9708 Y45.2010 
G01 X24.9500 Y45.1982 
G01 X24.9306 Y45.1902 
G01 X24.9104 Y45.1848 
G01 X24.8923 Y45.1743 
G01 X24.8729 Y45.1663 
G01 X24.8562 Y45.1535 
G01 X24.8381 Y45.1430 
G01 X24.8233 Y45.1282 
G01 X24.8066 Y45.1155 
G01 X24.7939 Y45.0988 
G01 X24.7791 Y45.0840 
G01 X24.7686 Y45.0658 
G01 X24.7558 Y45.0492 
G01 X24.7478 Y45.0298 
G01 X24.7373 Y45.0117 
G01 X24.7319 Y44.9914 
G01 X24.6247 Y44.7328 
G01 X24.3552 Y44.4633 
G01 X24.0031 Y44.3174 
G01 X23.6219 Y44.3174 
G01 X23.2698 Y44.4633 
G01 X23.0003 Y44.7328 
G01 X22.8514 Y45.0921 
G01 X22.8497 Y45.0962 
G01 X22.8195 Y45.1692 
G01 X22.7687 Y45.2355 
G01 X22.7542 Y45.2466 
G01 X22.7024 Y45.2863 
G01 X22.6253 Y45.3182 
G01 X22.5425 Y45.3291 
G01 X22.4597 Y45.3182 
G01 X22.4287 Y45.3054 
G01 X22.3826 Y45.2863 
G01 X22.3163 Y45.2355 
G01 X22.3052 Y45.2210 
G01 X22.2655 Y45.1692 
G01 X22.2336 Y45.0921 
G01 X22.1357 Y44.8558 
G01 X22.1252 Y44.8376 
G01 X22.1198 Y44.8174 
G01 X22.1118 Y44.7980 
G01 X22.1090 Y44.7772 
G01 X22.1036 Y44.7570 
G01 X22.1036 Y44.7360 
G01 X22.1009 Y44.7152 
G01 X22.1036 Y44.6944 
G01 X22.1036 Y43.5283 
G01 X22.1252 Y43.4477 
G01 X22.1670 Y43.3754 
G01 X22.2260 Y43.3163 
G01 X22.2686 Y43.2737 
G01 X22.2686 Y41.8113 
G01 X22.2457 Y41.7883 
G01 X22.2149 Y41.7359 
G01 X22.2028 Y41.7149 
G01 X22.1930 Y41.6784 
G01 X22.1812 Y41.6343 
G01 X22.1812 Y41.5508 
G01 X22.1901 Y41.5174 
G01 X22.2028 Y41.4701 
G01 X22.2343 Y41.4156 
G01 X22.2445 Y41.3978 
G01 X22.2686 Y41.3737 
G01 X22.2686 Y39.9113 
G01 X22.1537 Y39.7964 
G01 X20.3427 Y39.7964 
G01 X20.3322 Y39.7992 
G01 X20.2867 Y39.8114 
G01 X20.2454 Y39.8114 
G01 X20.2032 Y39.8114 
G01 X19.8018 Y39.8114 
G01 X19.7605 Y39.8114 
G01 X19.7183 Y39.8114 
G01 X19.6734 Y39.7994 
G01 X19.6623 Y39.7964 
G01 X17.8027 Y39.7964 
G01 X17.7922 Y39.7992 
G01 X17.7467 Y39.8114 
G01 X17.7054 Y39.8114 
G01 X17.6632 Y39.8114 
G01 X16.3464 Y39.8114 
G01 X16.2658 Y39.7898 
G01 X16.1935 Y39.7480 
G00 Z2.0000  F3000
G00 X16.1301 Y42.9814  F3000
G01 Z-0.2000 F200.00 
G01 X16.1039 Y42.9814 F500.00 
G01 X16.1039 Y43.2152 
G01 X16.0866 Y43.2570 
G01 X16.0545 Y43.2891 
G01 X16.0127 Y43.3064 
G01 X15.6789 Y43.3064 
G01 X15.6789 Y43.3326 
G01 X16.0084 Y43.3326 
G01 X16.0441 Y43.3231 
G01 X16.0760 Y43.3046 
G01 X16.1021 Y43.2785 
G01 X16.1206 Y43.2466 
G01 X16.1301 Y43.2109 
G01 X16.1301 Y42.9814 
G00 Z2.0000  F3000
G00 X14.8011 Y43.3064  F3000
G01 Z-0.2000 F200.00 
G01 X14.4673 Y43.3064 F500.00 
G01 X14.4255 Y43.2891 
G01 X14.3934 Y43.2570 
G01 X14.3761 Y43.2152 
G01 X14.3761 Y42.9814 
G01 X14.3499 Y42.9814 
G01 X14.3499 Y43.2109 
G01 X14.3594 Y43.2466 
G01 X14.3779 Y43.2785 
G01 X14.4040 Y43.3046 
G01 X14.4359 Y43.3231 
G01 X14.4715 Y43.3326 
G01 X14.8011 Y43.3326 
G01 X14.8011 Y43.3064 
G00 Z2.0000  F3000
G00 X15.6048 Y44.5874  F3000
G01 Z-0.2000 F200.00 
G01 X15.5044 Y44.6878 F500.00 
G01 X15.4210 Y44.8027 
G01 X15.3565 Y44.9292 
G01 X15.3126 Y45.0642 
G01 X15.2904 Y45.2045 
G01 X15.2904 Y45.6696 
G01 X15.3166 Y45.6696 
G01 X15.3166 Y45.1892 
G01 X15.3503 Y45.0200 
G01 X15.4163 Y44.8606 
G01 X15.5121 Y44.7171 
G01 X15.6341 Y44.5951 
G01 X15.7776 Y44.4993 
G01 X15.8246 Y44.4798 
G01 X15.8246 Y44.4505 
G01 X15.7197 Y44.5040 
G01 X15.6048 Y44.5874 
G00 Z2.0000  F3000
G00 X16.5604 Y44.4798  F3000
G01 Z-0.2000 F200.00 
G01 X16.6074 Y44.4993 F500.00 
G01 X16.7509 Y44.5951 
G01 X16.8729 Y44.7171 
G01 X16.9687 Y44.8606 
G01 X17.0347 Y45.0200 
G01 X17.0684 Y45.1892 
G01 X17.0684 Y45.6696 
G01 X17.0946 Y45.6696 
G01 X17.0946 Y45.2045 
G01 X17.0724 Y45.0642 
G01 X17.0285 Y44.9292 
G01 X16.9640 Y44.8027 
G01 X16.8806 Y44.6878 
G01 X16.7802 Y44.5874 
G01 X16.6653 Y44.5040 
G01 X16.5604 Y44.4505 
G01 X16.5604 Y44.4798 
G00 Z2.0000  F3000
G00 X17.9836 Y44.8197  F3000
G01 Z-0.2000 F200.00 
G01 X17.9836 Y43.3064 F500.00 
G01 X17.9098 Y43.3064 
G01 X17.8680 Y43.2891 
G01 X17.8359 Y43.2570 
G01 X17.8186 Y43.2152 
G01 X17.8186 Y41.8698 
G01 X17.8359 Y41.8280 
G01 X17.8680 Y41.7959 
G01 X17.9098 Y41.7786 
G01 X19.5552 Y41.7786 
G01 X19.5970 Y41.7959 
G01 X19.6291 Y41.8280 
G01 X19.6464 Y41.8698 
G01 X19.6464 Y43.2152 
G01 X19.6291 Y43.2570 
G01 X19.5970 Y43.2891 
G01 X19.5552 Y43.3064 
G01 X19.4814 Y43.3064 
G01 X19.4814 Y44.8197 
G01 X19.5087 Y44.8606 
G01 X19.5747 Y45.0200 
G01 X19.6084 Y45.1892 
G01 X19.6084 Y46.8858 
G01 X19.5747 Y47.0550 
G01 X19.5449 Y47.1270 
G01 X19.5449 Y50.2024 
G01 X19.7481 Y50.4056 
G01 X19.7481 Y51.1944 
G01 X19.1904 Y51.7521 
G01 X18.4016 Y51.7521 
G01 X17.8439 Y51.1944 
G01 X17.8439 Y50.4056 
G01 X18.0471 Y50.2024 
G01 X18.0471 Y47.3503 
G01 X17.9563 Y47.2144 
G01 X17.8903 Y47.0550 
G01 X17.8566 Y46.8858 
G01 X17.8566 Y45.1892 
G01 X17.8903 Y45.0200 
G01 X17.9563 Y44.8606 
G01 X17.9836 Y44.8197 
G00 Z2.0000  F3000
G00 X17.0946 Y46.4054  F3000
G01 Z-0.2000 F200.00 
G01 X17.0684 Y46.4054 F500.00 
G01 X17.0684 Y46.8858 
G01 X17.0347 Y47.0550 
G01 X16.9687 Y47.2144 
G01 X16.8729 Y47.3579 
G01 X16.7509 Y47.4799 
G01 X16.6074 Y47.5757 
G01 X16.5604 Y47.5952 
G01 X16.5604 Y47.6245 
G01 X16.6653 Y47.5710 
G01 X16.7802 Y47.4876 
G01 X16.8806 Y47.3872 
G01 X16.9640 Y47.2723 
G01 X17.0285 Y47.1458 
G01 X17.0724 Y47.0108 
G01 X17.0946 Y46.8705 
G01 X17.0946 Y46.4054 
G00 Z2.0000  F3000
G00 X15.3166 Y46.4054  F3000
G01 Z-0.2000 F200.00 
G01 X15.2904 Y46.4054 F500.00 
G01 X15.2904 Y46.8705 
G01 X15.3126 Y47.0108 
G01 X15.3565 Y47.1458 
G01 X15.4209 Y47.2723 
G01 X15.5044 Y47.3872 
G01 X15.6048 Y47.4876 
G01 X15.7197 Y47.5710 
G01 X15.8246 Y47.6245 
G01 X15.8246 Y47.5952 
G01 X15.7776 Y47.5757 
G01 X15.6341 Y47.4799 
G01 X15.5121 Y47.3579 
G01 X15.4163 Y47.2144 
G01 X15.3503 Y47.0550 
G01 X15.3166 Y46.8858 
G01 X15.3166 Y46.4054 
G00 Z2.0000  F3000
G00 X20.3966 Y46.8858  F3000
G01 Z-0.2000 F200.00 
G01 X20.3966 Y45.1892 F500.00 
G01 X20.4303 Y45.0200 
G01 X20.4963 Y44.8606 
G01 X20.5236 Y44.8197 
G01 X20.5236 Y43.3064 
G01 X20.4498 Y43.3064 
G01 X20.4080 Y43.2891 
G01 X20.3759 Y43.2570 
G01 X20.3586 Y43.2152 
G01 X20.3586 Y41.8698 
G01 X20.3759 Y41.8280 
G01 X20.4080 Y41.7959 
G01 X20.4498 Y41.7786 
G01 X22.0952 Y41.7786 
G01 X22.1370 Y41.7959 
G01 X22.1691 Y41.8280 
G01 X22.1864 Y41.8698 
G01 X22.1864 Y43.2152 
G01 X22.1691 Y43.2570 
G01 X22.1370 Y43.2891 
G01 X22.0952 Y43.3064 
G01 X22.0214 Y43.3064 
G01 X22.0214 Y44.8197 
G01 X22.0487 Y44.8606 
G01 X22.1147 Y45.0200 
G01 X22.1484 Y45.1892 
G01 X22.1484 Y46.8858 
G01 X22.1147 Y47.0550 
G01 X22.0849 Y47.1270 
G01 X22.0849 Y50.2024 
G01 X22.2881 Y50.4056 
G01 X22.2881 Y51.1944 
G01 X21.7304 Y51.7521 
G01 X20.9416 Y51.7521 
G01 X20.3839 Y51.1944 
G01 X20.3839 Y50.4056 
G01 X20.5871 Y50.2024 
G01 X20.5871 Y47.3503 
G01 X20.4963 Y47.2144 
G01 X20.4303 Y47.0550 
G01 X20.3966 Y46.8858 
G00 Z2.0000  F3000
G00 X22.9366 Y46.8858  F3000
G01 Z-0.2000 F200.00 
G01 X22.9366 Y45.1892 F500.00 
G01 X22.9703 Y45.0200 
G01 X23.0363 Y44.8606 
G01 X23.1321 Y44.7171 
G01 X23.2541 Y44.5951 
G01 X23.3976 Y44.4993 
G01 X23.5570 Y44.4333 
G01 X23.7262 Y44.3996 
G01 X23.8988 Y44.3996 
G01 X24.0680 Y44.4333 
G01 X24.2274 Y44.4993 
G01 X24.3709 Y44.5951 
G01 X24.4929 Y44.7171 
G01 X24.5887 Y44.8606 
G01 X24.6547 Y45.0200 
G01 X24.6884 Y45.1892 
G01 X24.6884 Y45.2886 
G01 X26.1088 Y45.2886 
G01 X26.2534 Y45.3174 
G01 X26.3897 Y45.3738 
G01 X26.5124 Y45.4558 
G01 X26.6167 Y45.5601 
G01 X29.5377 Y48.4811 
G01 X29.6197 Y48.6038 
G01 X29.6761 Y48.7401 
G01 X29.7049 Y48.8847 
G01 X29.7049 Y50.2024 
G01 X29.9081 Y50.4056 
G01 X29.9081 Y51.1944 
G01 X29.3504 Y51.7521 
G01 X28.5616 Y51.7521 
G01 X28.0039 Y51.1944 
G01 X28.0039 Y50.4056 
G01 X28.2071 Y50.2024 
G01 X28.2071 Y49.2687 
G01 X25.7248 Y46.7864 
G01 X24.6884 Y46.7864 
G01 X24.6884 Y46.8858 
G01 X24.6547 Y47.0550 
G01 X24.5887 Y47.2144 
G01 X24.4929 Y47.3579 
G01 X24.3709 Y47.4799 
G01 X24.2274 Y47.5757 
G01 X24.0680 Y47.6417 
G01 X23.8988 Y47.6754 
G01 X23.7262 Y47.6754 
G01 X23.5570 Y47.6417 
G01 X23.3976 Y47.5757 
G01 X23.2541 Y47.4799 
G01 X23.1321 Y47.3579 
G01 X23.0363 Y47.2144 
G01 X22.9703 Y47.0550 
G01 X22.9366 Y46.8858 
G00 Z2.0000  F3000
G00 X23.4816 Y49.8479  F3000
G01 Z-0.2000 F200.00 
G01 X24.2704 Y49.8479 F500.00 
G01 X24.8281 Y50.4056 
G01 X24.8281 Y51.1944 
G01 X24.2704 Y51.7521 
G01 X23.4816 Y51.7521 
G01 X22.9239 Y51.1944 
G01 X22.9239 Y50.4056 
G01 X23.4816 Y49.8479 
G00 Z2.0000  F3000
G00 X30.5439 Y50.4056  F3000
G01 Z-0.2000 F200.00 
G01 X30.7471 Y50.2024 F500.00 
G01 X30.7471 Y48.3864 
G01 X30.6098 Y48.3864 
G01 X30.5680 Y48.3691 
G01 X30.5359 Y48.3370 
G01 X30.5186 Y48.2952 
G01 X30.5186 Y46.9498 
G01 X30.5359 Y46.9080 
G01 X30.5680 Y46.8759 
G01 X30.6098 Y46.8586 
G01 X32.2552 Y46.8586 
G01 X32.2970 Y46.8759 
G01 X32.3291 Y46.9080 
G01 X32.3464 Y46.9498 
G01 X32.3464 Y48.2952 
G01 X32.3291 Y48.3370 
G01 X32.2970 Y48.3691 
G01 X32.2552 Y48.3864 
G01 X32.2449 Y48.3864 
G01 X32.2449 Y50.2024 
G01 X32.4481 Y50.4056 
G01 X32.4481 Y51.1944 
G01 X31.8904 Y51.7521 
G01 X31.1016 Y51.7521 
G01 X30.5439 Y51.1944 
G01 X30.5439 Y50.4056 
G00 Z2.0000  F3000
G00 X33.0839 Y50.4056  F3000
G01 Z-0.2000 F200.00 
G01 X33.2871 Y50.2024 F500.00 
G01 X33.2871 Y48.3864 
G01 X33.1498 Y48.3864 
G01 X33.1080 Y48.3691 
G01 X33.0759 Y48.3370 
G01 X33.0586 Y48.2952 
G01 X33.0586 Y46.9498 
G01 X33.0759 Y46.9080 
G01 X33.1080 Y46.8759 
G01 X33.1498 Y46.8586 
G01 X34.7952 Y46.8586 
G01 X34.8370 Y46.8759 
G01 X34.8691 Y46.9080 
G01 X34.8864 Y46.9498 
G01 X34.8864 Y48.2952 
G01 X34.8691 Y48.3370 
G01 X34.8370 Y48.3691 
G01 X34.7952 Y48.3864 
G01 X34.7849 Y48.3864 
G01 X34.7849 Y50.2024 
G01 X34.9881 Y50.4056 
G01 X34.9881 Y51.1944 
G01 X34.4304 Y51.7521 
G01 X33.6416 Y51.7521 
G01 X33.0839 Y51.1944 
G01 X33.0839 Y50.4056 
G00 Z2.0000  F3000
G00 X35.6239 Y50.4056  F3000
G01 Z-0.2000 F200.00 
G01 X35.8271 Y50.2024 F500.00 
G01 X35.8271 Y48.3864 
G01 X35.6898 Y48.3864 
G01 X35.6480 Y48.3691 
G01 X35.6159 Y48.3370 
G01 X35.5986 Y48.2952 
G01 X35.5986 Y46.9498 
G01 X35.6159 Y46.9080 
G01 X35.6480 Y46.8759 
G01 X35.6898 Y46.8586 
G01 X37.3352 Y46.8586 
G01 X37.3770 Y46.8759 
G01 X37.4091 Y46.9080 
G01 X37.4264 Y46.9498 
G01 X37.4264 Y48.2952 
G01 X37.4091 Y48.3370 
G01 X37.3770 Y48.3691 
G01 X37.3352 Y48.3864 
G01 X37.3249 Y48.3864 
G01 X37.3249 Y50.2024 
G01 X37.5281 Y50.4056 
G01 X37.5281 Y51.1944 
G01 X36.9704 Y51.7521 
G01 X36.1816 Y51.7521 
G01 X35.6239 Y51.1944 
G01 X35.6239 Y50.4056 
G00 Z2.0000  F3000
G00 X38.1639 Y50.4056  F3000
G01 Z-0.2000 F200.00 
G01 X38.3671 Y50.2024 F500.00 
G01 X38.3671 Y42.2837 
G01 X34.9323 Y38.8489 
G01 X29.7712 Y38.8489 
G01 X29.6266 Y38.8201 
G01 X29.4903 Y38.7637 
G01 X29.3676 Y38.6817 
G01 X26.0883 Y35.4024 
G01 X26.0063 Y35.2797 
G01 X25.9499 Y35.1434 
G01 X25.9211 Y34.9988 
G01 X25.9211 Y34.8512 
G01 X25.9499 Y34.7066 
G01 X26.0063 Y34.5703 
G01 X26.0883 Y34.4476 
G01 X26.1926 Y34.3433 
G01 X26.2513 Y34.3041 
G01 X26.2513 Y33.7514 
G01 X25.7873 Y33.7514 
G01 X25.7455 Y33.7341 
G01 X25.7134 Y33.7020 
G01 X25.6961 Y33.6602 
G01 X25.6961 Y33.0148 
G01 X25.7134 Y32.9730 
G01 X25.7455 Y32.9409 
G01 X25.7873 Y32.9236 
G01 X26.5370 Y32.9236 
G01 X26.5549 Y32.9188 
G01 X26.6651 Y32.9188 
G01 X26.6830 Y32.9236 
G01 X27.4327 Y32.9236 
G01 X27.4745 Y32.9409 
G01 X27.5066 Y32.9730 
G01 X27.5239 Y33.0148 
G01 X27.5239 Y33.6602 
G01 X27.5066 Y33.7020 
G01 X27.4745 Y33.7341 
G01 X27.4327 Y33.7514 
G01 X27.0887 Y33.7514 
G01 X27.0887 Y34.3041 
G01 X27.1474 Y34.3433 
G01 X30.1552 Y37.3511 
G01 X35.3163 Y37.3511 
G01 X35.4609 Y37.3799 
G01 X35.5972 Y37.4363 
G01 X35.7199 Y37.5183 
G01 X35.8242 Y37.6226 
G01 X39.6977 Y41.4961 
G01 X39.7797 Y41.6188 
G01 X39.8361 Y41.7551 
G01 X39.8649 Y41.8997 
G01 X39.8649 Y50.2024 
G01 X40.0681 Y50.4056 
G01 X40.0681 Y51.1944 
G01 X39.5104 Y51.7521 
G01 X38.7216 Y51.7521 
G01 X38.1639 Y51.1944 
G01 X38.1639 Y50.4056 
G00 Z2.0000  F3000
G00 X40.7039 Y50.4056  F3000
G01 Z-0.2000 F200.00 
G01 X40.9071 Y50.2024 F500.00 
G01 X40.9071 Y41.6487 
G01 X35.8848 Y36.6264 
G01 X32.6287 Y36.6264 
G01 X32.4841 Y36.5976 
G01 X32.3478 Y36.5412 
G01 X32.2251 Y36.4592 
G01 X31.1683 Y35.4024 
G01 X31.0863 Y35.2797 
G01 X31.0299 Y35.1434 
G01 X31.0011 Y34.9988 
G01 X31.0011 Y34.8512 
G01 X31.0299 Y34.7066 
G01 X31.0863 Y34.5703 
G01 X31.1683 Y34.4476 
G01 X31.2726 Y34.3433 
G01 X31.3313 Y34.3041 
G01 X31.3313 Y33.7514 
G01 X30.9873 Y33.7514 
G01 X30.9455 Y33.7341 
G01 X30.9134 Y33.7020 
G01 X30.8961 Y33.6602 
G01 X30.8961 Y33.0148 
G01 X30.9134 Y32.9730 
G01 X30.9455 Y32.9409 
G01 X30.9873 Y32.9236 
G01 X31.7370 Y32.9236 
G01 X31.7549 Y32.9188 
G01 X31.8651 Y32.9188 
G01 X31.8830 Y32.9236 
G01 X32.6327 Y32.9236 
G01 X32.6745 Y32.9409 
G01 X32.7066 Y32.9730 
G01 X32.7239 Y33.0148 
G01 X32.7239 Y33.6602 
G01 X32.7066 Y33.7020 
G01 X32.6745 Y33.7341 
G01 X32.6327 Y33.7514 
G01 X32.1687 Y33.7514 
G01 X32.1687 Y34.3041 
G01 X32.2274 Y34.3433 
G01 X33.0127 Y35.1286 
G01 X36.2688 Y35.1286 
G01 X36.4134 Y35.1574 
G01 X36.5497 Y35.2138 
G01 X36.6724 Y35.2958 
G01 X36.7767 Y35.4001 
G01 X42.2377 Y40.8611 
G01 X42.3197 Y40.9838 
G01 X42.3761 Y41.1201 
G01 X42.4049 Y41.2647 
G01 X42.4049 Y50.2024 
G01 X42.6081 Y50.4056 
G01 X42.6081 Y51.1944 
G01 X42.0504 Y51.7521 
G01 X41.2616 Y51.7521 
G01 X40.7039 Y51.1944 
G01 X40.7039 Y50.4056 
G00 Z2.0000  F3000
G00 X44.7679 Y50.4056  F3000
G01 Z-0.2000 F200.00 
G01 X44.9711 Y50.2024 F500.00 
G01 X44.9711 Y42.5377 
G01 X40.1626 Y37.7292 
G01 X40.0583 Y37.6249 
G01 X39.9763 Y37.5022 
G01 X39.9199 Y37.3659 
G01 X39.8911 Y37.2213 
G01 X39.8911 Y34.8512 
G01 X39.9199 Y34.7066 
G01 X39.9763 Y34.5703 
G01 X40.0583 Y34.4476 
G01 X40.1626 Y34.3433 
G01 X40.2213 Y34.3041 
G01 X40.2213 Y33.7514 
G01 X40.0748 Y33.7514 
G01 X40.0330 Y33.7341 
G01 X40.0009 Y33.7020 
G01 X39.9836 Y33.6602 
G01 X39.9836 Y33.0148 
G01 X40.0009 Y32.9730 
G01 X40.0330 Y32.9409 
G01 X40.0748 Y32.9236 
G01 X40.8245 Y32.9236 
G01 X40.8424 Y32.9188 
G01 X40.9526 Y32.9188 
G01 X40.9705 Y32.9236 
G01 X41.7202 Y32.9236 
G01 X41.7620 Y32.9409 
G01 X41.7941 Y32.9730 
G01 X41.8114 Y33.0148 
G01 X41.8114 Y33.6602 
G01 X41.7941 Y33.7020 
G01 X41.7620 Y33.7341 
G01 X41.7202 Y33.7514 
G01 X41.0757 Y33.7514 
G01 X41.0587 Y33.7684 
G01 X41.0587 Y34.3041 
G01 X41.1174 Y34.3433 
G01 X41.2217 Y34.4476 
G01 X41.3037 Y34.5703 
G01 X41.3601 Y34.7066 
G01 X41.3889 Y34.8512 
G01 X41.3889 Y36.8373 
G01 X46.3017 Y41.7501 
G01 X46.3837 Y41.8728 
G01 X46.4401 Y42.0091 
G01 X46.4689 Y42.1537 
G01 X46.4689 Y50.2024 
G01 X46.6721 Y50.4056 
G01 X46.6721 Y51.1944 
G01 X46.1144 Y51.7521 
G01 X45.3256 Y51.7521 
G01 X44.7679 Y51.1944 
G01 X44.7679 Y50.4056 
G00 Z2.0000  F3000
G00 X47.3079 Y50.4056  F3000
G01 Z-0.2000 F200.00 
G01 X47.5111 Y50.2024 F500.00 
G01 X47.5111 Y42.2202 
G01 X43.9726 Y38.6817 
G01 X43.8683 Y38.5774 
G01 X43.7863 Y38.4547 
G01 X43.7299 Y38.3184 
G01 X43.7011 Y38.1738 
G01 X43.7011 Y36.4387 
G01 X43.7299 Y36.2941 
G01 X43.7863 Y36.1578 
G01 X43.8683 Y36.0351 
G01 X45.5601 Y34.3433 
G01 X45.6188 Y34.3041 
G01 X45.6188 Y33.7514 
G01 X45.2748 Y33.7514 
G01 X45.2330 Y33.7341 
G01 X45.2009 Y33.7020 
G01 X45.1836 Y33.6602 
G01 X45.1836 Y33.0148 
G01 X45.2009 Y32.9730 
G01 X45.2330 Y32.9409 
G01 X45.2748 Y32.9236 
G01 X46.0245 Y32.9236 
G01 X46.0424 Y32.9188 
G01 X46.1526 Y32.9188 
G01 X46.1705 Y32.9236 
G01 X46.9202 Y32.9236 
G01 X46.9620 Y32.9409 
G01 X46.9941 Y32.9730 
G01 X47.0114 Y33.0148 
G01 X47.0114 Y33.6602 
G01 X46.9941 Y33.7020 
G01 X46.9620 Y33.7341 
G01 X46.9202 Y33.7514 
G01 X46.4562 Y33.7514 
G01 X46.4562 Y34.3041 
G01 X46.5149 Y34.3433 
G01 X46.6192 Y34.4476 
G01 X46.7012 Y34.5703 
G01 X46.7576 Y34.7066 
G01 X46.7864 Y34.8512 
G01 X46.7864 Y34.9988 
G01 X46.7576 Y35.1434 
G01 X46.7012 Y35.2797 
G01 X46.6192 Y35.4024 
G01 X45.1989 Y36.8227 
G01 X45.1989 Y37.7898 
G01 X48.8417 Y41.4326 
G01 X48.9237 Y41.5553 
G01 X48.9801 Y41.6916 
G01 X49.0089 Y41.8362 
G01 X49.0089 Y50.2024 
G01 X49.2121 Y50.4056 
G01 X49.2121 Y51.1944 
G01 X48.6544 Y51.7521 
G01 X47.8656 Y51.7521 
G01 X47.3079 Y51.1944 
G01 X47.3079 Y50.4056 
G00 Z2.0000  F3000
G00 X49.8479 Y50.4056  F3000
G01 Z-0.2000 F200.00 
G01 X50.0511 Y50.2024 F500.00 
G01 X50.0511 Y48.3864 
G01 X49.9773 Y48.3864 
G01 X49.9355 Y48.3691 
G01 X49.9034 Y48.3370 
G01 X49.8861 Y48.2952 
G01 X49.8861 Y46.9498 
G01 X49.9034 Y46.9080 
G01 X49.9355 Y46.8759 
G01 X49.9773 Y46.8586 
G01 X51.6227 Y46.8586 
G01 X51.6645 Y46.8759 
G01 X51.6966 Y46.9080 
G01 X51.7139 Y46.9498 
G01 X51.7139 Y48.2952 
G01 X51.6966 Y48.3370 
G01 X51.6645 Y48.3691 
G01 X51.6227 Y48.3864 
G01 X51.5489 Y48.3864 
G01 X51.5489 Y50.2024 
G01 X51.7521 Y50.4056 
G01 X51.7521 Y51.1944 
G01 X51.1944 Y51.7521 
G01 X50.4056 Y51.7521 
G01 X49.8479 Y51.1944 
G01 X49.8479 Y50.4056 
G00 Z2.0000  F3000
G00 X52.3879 Y50.4056  F3000
G01 Z-0.2000 F200.00 
G01 X52.5911 Y50.2024 F500.00 
G01 X52.5911 Y48.3864 
G01 X52.5173 Y48.3864 
G01 X52.4755 Y48.3691 
G01 X52.4434 Y48.3370 
G01 X52.4261 Y48.2952 
G01 X52.4261 Y46.9498 
G01 X52.4434 Y46.9080 
G01 X52.4755 Y46.8759 
G01 X52.5173 Y46.8586 
G01 X54.1627 Y46.8586 
G01 X54.2045 Y46.8759 
G01 X54.2366 Y46.9080 
G01 X54.2539 Y46.9498 
G01 X54.2539 Y48.2952 
G01 X54.2366 Y48.3370 
G01 X54.2045 Y48.3691 
G01 X54.1627 Y48.3864 
G01 X54.0889 Y48.3864 
G01 X54.0889 Y50.2024 
G01 X54.2921 Y50.4056 
G01 X54.2921 Y51.1944 
G01 X53.7344 Y51.7521 
G01 X52.9456 Y51.7521 
G01 X52.3879 Y51.1944 
G01 X52.3879 Y50.4056 
G00 Z2.0000  F3000
G00 X54.9279 Y50.4056  F3000
G01 Z-0.2000 F200.00 
G01 X55.1311 Y50.2024 F500.00 
G01 X55.1311 Y48.3864 
G01 X55.0573 Y48.3864 
G01 X55.0155 Y48.3691 
G01 X54.9834 Y48.3370 
G01 X54.9661 Y48.2952 
G01 X54.9661 Y46.9498 
G01 X54.9834 Y46.9080 
G01 X55.0155 Y46.8759 
G01 X55.0573 Y46.8586 
G01 X56.7027 Y46.8586 
G01 X56.7445 Y46.8759 
G01 X56.7766 Y46.9080 
G01 X56.7939 Y46.9498 
G01 X56.7939 Y48.2952 
G01 X56.7766 Y48.3370 
G01 X56.7445 Y48.3691 
G01 X56.7027 Y48.3864 
G01 X56.6289 Y48.3864 
G01 X56.6289 Y50.2024 
G01 X56.8321 Y50.4056 
G01 X56.8321 Y51.1944 
G01 X56.2744 Y51.7521 
G01 X55.4856 Y51.7521 
G01 X54.9279 Y51.1944 
G01 X54.9279 Y50.4056 
G00 Z2.0000  F3000
G00 X56.8963 Y50.3535  F3000
G01 Z-0.2000 F200.00 
G01 X56.8963 Y50.3535 F500.00 
G01 X56.7745 Y50.2317 
G01 X56.7563 Y50.2002 
G01 X56.7327 Y50.1594 
G01 X56.7111 Y50.0788 
G01 X56.7111 Y48.6083 
G01 X56.7327 Y48.5277 
G01 X56.7745 Y48.4554 
G01 X56.8335 Y48.3963 
G01 X56.8761 Y48.3537 
G01 X56.8761 Y46.8913 
G01 X56.8532 Y46.8683 
G01 X56.8224 Y46.8159 
G01 X56.8103 Y46.7949 
G01 X56.8005 Y46.7584 
G01 X56.7887 Y46.7143 
G01 X56.7887 Y46.6307 
G01 X56.7976 Y46.5974 
G01 X56.8103 Y46.5501 
G01 X56.8418 Y46.4956 
G01 X56.8520 Y46.4778 
G01 X56.8761 Y46.4537 
G01 X56.8761 Y44.9913 
G01 X56.7745 Y44.8896 
G01 X56.7327 Y44.8173 
G01 X56.7111 Y44.7367 
G01 X56.7111 Y24.9172 
G01 X56.5846 Y24.6117 
G01 X55.1870 Y23.2141 
G01 X55.1452 Y23.1418 
G01 X55.1236 Y23.0611 
G01 X55.1236 Y21.3455 
G01 X55.1209 Y21.3248 
G01 X55.1236 Y21.3040 
G01 X55.1236 Y21.2830 
G01 X55.1290 Y21.2628 
G01 X55.1318 Y21.2420 
G01 X55.1398 Y21.2226 
G01 X55.1452 Y21.2024 
G01 X55.1557 Y21.1842 
G01 X55.2855 Y20.8708 
G01 X55.3363 Y20.8045 
G01 X55.3403 Y20.8015 
G01 X55.4026 Y20.7537 
G01 X55.4468 Y20.7354 
G01 X55.4797 Y20.7218 
G01 X55.5625 Y20.7109 
G01 X55.6383 Y20.7208 
G01 X55.6453 Y20.7218 
G01 X55.7224 Y20.7537 
G01 X55.7887 Y20.8045 
G01 X55.7917 Y20.8085 
G01 X55.8395 Y20.8708 
G01 X56.0203 Y21.3072 
G01 X56.2898 Y21.5767 
G01 X56.6419 Y21.7226 
G01 X57.0231 Y21.7226 
G01 X57.3752 Y21.5767 
G01 X57.6447 Y21.3072 
G01 X57.7906 Y20.9551 
G01 X57.7906 Y19.0499 
G01 X57.6957 Y18.8208 
G01 X57.6852 Y18.8026 
G01 X57.6798 Y18.7824 
G01 X57.6718 Y18.7630 
G01 X57.6690 Y18.7422 
G01 X57.6636 Y18.7220 
G01 X57.6636 Y18.7010 
G01 X57.6609 Y18.6802 
G01 X57.6636 Y18.6594 
G01 X57.6636 Y8.1277 
G01 X57.6852 Y8.0471 
G01 X57.7270 Y7.9748 
G01 X57.7860 Y7.9157 
G01 X57.8583 Y7.8740 
G01 X57.9389 Y7.8524 
G01 X58.0224 Y7.8524 
G01 X58.1031 Y7.8740 
G01 X58.1754 Y7.9157 
G01 X58.2344 Y7.9748 
G01 X60.8753 Y10.6157 
G01 X61.1242 Y10.8646 
G01 X61.4297 Y10.9911 
G01 X63.4269 Y10.9911 
G01 X63.4477 Y10.9884 
G01 X63.4685 Y10.9911 
G01 X63.4895 Y10.9911 
G01 X63.5097 Y10.9965 
G01 X63.5305 Y10.9993 
G01 X63.5499 Y11.0073 
G01 X63.5701 Y11.0127 
G01 X63.5883 Y11.0232 
G01 X63.8932 Y11.1495 
G01 X63.9017 Y11.1530 
G01 X63.9680 Y11.2038 
G01 X64.0188 Y11.2701 
G01 X64.0507 Y11.3472 
G01 X64.0526 Y11.3612 
G01 X64.0616 Y11.4300 
G01 X64.0507 Y11.5128 
G01 X64.0188 Y11.5899 
G01 X63.9680 Y11.6562 
G01 X63.9017 Y11.7070 
G01 X63.5883 Y11.8368 
G01 X63.5701 Y11.8473 
G01 X63.5499 Y11.8527 
G01 X63.5305 Y11.8607 
G01 X63.5097 Y11.8635 
G01 X63.4895 Y11.8689 
G01 X63.4685 Y11.8689 
G01 X63.4477 Y11.8716 
G01 X63.4270 Y11.8689 
G01 X62.0647 Y11.8689 
G01 X61.7592 Y11.9954 
G01 X61.4513 Y12.3033 
G01 X61.2079 Y12.5467 
G01 X61.0814 Y12.8522 
G01 X61.0814 Y42.1111 
G01 X61.0598 Y42.1918 
G01 X61.0180 Y42.2641 
G01 X60.9590 Y42.3231 
G01 X57.7154 Y45.5667 
G01 X57.5889 Y45.8722 
G01 X57.5889 Y50.0788 
G01 X57.5673 Y50.1594 
G01 X57.5255 Y50.2317 
G01 X57.4665 Y50.2908 
G01 X57.3447 Y50.4126 
G01 X57.3151 Y50.4297 
G01 X57.2724 Y50.4543 
G01 X57.1917 Y50.4759 
G01 X57.1082 Y50.4759 
G01 X57.0800 Y50.4684 
G01 X57.0276 Y50.4543 
G01 X57.0098 Y50.4441 
G01 X56.9553 Y50.4126 
G01 X56.8963 Y50.3535 
G00 Z2.0000  F3000
G00 X57.4679 Y50.4056  F3000
G01 Z-0.2000 F200.00 
G01 X57.6711 Y50.2024 F500.00 
G01 X57.6711 Y45.9637 
G01 X57.6999 Y45.8191 
G01 X57.7563 Y45.6828 
G01 X57.8383 Y45.5601 
G01 X61.1636 Y42.2348 
G01 X61.1636 Y12.9437 
G01 X61.1924 Y12.7991 
G01 X61.2488 Y12.6628 
G01 X61.3308 Y12.5401 
G01 X61.6483 Y12.2226 
G01 X61.7526 Y12.1183 
G01 X61.8753 Y12.0363 
G01 X62.0116 Y11.9799 
G01 X62.1562 Y11.9511 
G01 X63.5522 Y11.9511 
G01 X63.5931 Y11.9238 
G01 X63.7525 Y11.8578 
G01 X63.9217 Y11.8241 
G01 X65.6183 Y11.8241 
G01 X65.7875 Y11.8578 
G01 X65.9469 Y11.9238 
G01 X66.0904 Y12.0196 
G01 X66.2124 Y12.1416 
G01 X66.3082 Y12.2851 
G01 X66.3742 Y12.4445 
G01 X66.4079 Y12.6137 
G01 X66.4079 Y12.7863 
G01 X66.3742 Y12.9555 
G01 X66.3082 Y13.1149 
G01 X66.2124 Y13.2584 
G01 X66.0904 Y13.3804 
G01 X65.9469 Y13.4762 
G01 X65.7875 Y13.5422 
G01 X65.6183 Y13.5759 
G01 X63.9217 Y13.5759 
G01 X63.7525 Y13.5422 
G01 X63.5931 Y13.4762 
G01 X63.5522 Y13.4489 
G01 X62.6614 Y13.4489 
G01 X62.6614 Y42.6188 
G01 X62.6326 Y42.7634 
G01 X62.5762 Y42.8997 
G01 X62.4942 Y43.0224 
G01 X62.3899 Y43.1267 
G01 X59.1689 Y46.3477 
G01 X59.1689 Y50.2024 
G01 X59.3721 Y50.4056 
G01 X59.3721 Y51.1944 
G01 X58.8144 Y51.7521 
G01 X58.0256 Y51.7521 
G01 X57.4679 Y51.1944 
G01 X57.4679 Y50.4056 
G00 Z2.0000  F3000
G00 X60.0079 Y50.4056  F3000
G01 Z-0.2000 F200.00 
G01 X60.5656 Y49.8479 F500.00 
G01 X61.3544 Y49.8479 
G01 X61.9121 Y50.4056 
G01 X61.9121 Y51.1944 
G01 X61.3544 Y51.7521 
G01 X60.5656 Y51.7521 
G01 X60.0079 Y51.1944 
G01 X60.0079 Y50.4056 
G00 Z2.0000  F3000
G00 X62.5479 Y50.4056  F3000
G01 Z-0.2000 F200.00 
G01 X63.1056 Y49.8479 F500.00 
G01 X63.8944 Y49.8479 
G01 X64.4521 Y50.4056 
G01 X64.4521 Y51.1944 
G01 X63.8944 Y51.7521 
G01 X63.1056 Y51.7521 
G01 X62.5479 Y51.1944 
G01 X62.5479 Y50.4056 
G00 Z2.0000  F3000
G00 X56.7766 Y46.4370  F3000
G01 Z-0.2000 F200.00 
G01 X56.7445 Y46.4691 F500.00 
G01 X56.7027 Y46.4864 
G01 X55.0573 Y46.4864 
G01 X55.0155 Y46.4691 
G01 X54.9834 Y46.4370 
G01 X54.9661 Y46.3952 
G01 X54.9661 Y45.0498 
G01 X54.9834 Y45.0080 
G01 X55.0155 Y44.9759 
G01 X55.0573 Y44.9586 
G01 X55.1311 Y44.9586 
G01 X55.1311 Y25.3927 
G01 X53.8151 Y24.0767 
G01 X53.7108 Y23.9724 
G01 X53.6288 Y23.8497 
G01 X53.5724 Y23.7134 
G01 X53.5436 Y23.5688 
G01 X53.5436 Y21.2203 
G01 X53.5163 Y21.1794 
G01 X53.4503 Y21.0200 
G01 X53.4166 Y20.8508 
G01 X53.4166 Y19.1542 
G01 X53.4503 Y18.9850 
G01 X53.5163 Y18.8256 
G01 X53.6121 Y18.6821 
G01 X53.7341 Y18.5601 
G01 X53.8776 Y18.4643 
G01 X54.0370 Y18.3983 
G01 X54.2062 Y18.3646 
G01 X54.3788 Y18.3646 
G01 X54.5480 Y18.3983 
G01 X54.7074 Y18.4643 
G01 X54.8509 Y18.5601 
G01 X54.9729 Y18.6821 
G01 X55.0687 Y18.8256 
G01 X55.1347 Y18.9850 
G01 X55.1684 Y19.1542 
G01 X55.1684 Y20.8508 
G01 X55.1347 Y21.0200 
G01 X55.0687 Y21.1794 
G01 X55.0414 Y21.2203 
G01 X55.0414 Y23.1848 
G01 X56.4617 Y24.6051 
G01 X56.5437 Y24.7278 
G01 X56.6001 Y24.8641 
G01 X56.6289 Y25.0087 
G01 X56.6289 Y44.9586 
G01 X56.7027 Y44.9586 
G01 X56.7445 Y44.9759 
G01 X56.7766 Y45.0080 
G01 X56.7939 Y45.0498 
G01 X56.7939 Y46.3952 
G01 X56.7766 Y46.4370 
G00 Z2.0000  F3000
G00 X54.2366 Y46.4370  F3000
G01 Z-0.2000 F200.00 
G01 X54.2045 Y46.4691 F500.00 
G01 X54.1627 Y46.4864 
G01 X52.5173 Y46.4864 
G01 X52.4755 Y46.4691 
G01 X52.4434 Y46.4370 
G01 X52.4261 Y46.3952 
G01 X52.4261 Y45.0498 
G01 X52.4434 Y45.0080 
G01 X52.4755 Y44.9759 
G01 X52.5173 Y44.9586 
G01 X52.5911 Y44.9586 
G01 X52.5911 Y26.3452 
G01 X51.2751 Y25.0292 
G01 X51.1708 Y24.9249 
G01 X51.0888 Y24.8022 
G01 X51.0324 Y24.6659 
G01 X51.0036 Y24.5213 
G01 X51.0036 Y21.2203 
G01 X50.9763 Y21.1794 
G01 X50.9103 Y21.0200 
G01 X50.8766 Y20.8508 
G01 X50.8766 Y19.1542 
G01 X50.9103 Y18.9850 
G01 X50.9763 Y18.8256 
G01 X51.0721 Y18.6821 
G01 X51.1941 Y18.5601 
G01 X51.3376 Y18.4643 
G01 X51.4970 Y18.3983 
G01 X51.6662 Y18.3646 
G01 X51.8388 Y18.3646 
G01 X52.0080 Y18.3983 
G01 X52.1674 Y18.4643 
G01 X52.3109 Y18.5601 
G01 X52.4329 Y18.6821 
G01 X52.5287 Y18.8256 
G01 X52.5947 Y18.9850 
G01 X52.6284 Y19.1542 
G01 X52.6284 Y20.8508 
G01 X52.5947 Y21.0200 
G01 X52.5287 Y21.1794 
G01 X52.5014 Y21.2203 
G01 X52.5014 Y24.1373 
G01 X53.9217 Y25.5576 
G01 X54.0037 Y25.6803 
G01 X54.0601 Y25.8166 
G01 X54.0889 Y25.9612 
G01 X54.0889 Y44.9586 
G01 X54.1627 Y44.9586 
G01 X54.2045 Y44.9759 
G01 X54.2366 Y45.0080 
G01 X54.2539 Y45.0498 
G01 X54.2539 Y46.3952 
G01 X54.2366 Y46.4370 
G00 Z2.0000  F3000
G00 X51.6966 Y46.4370  F3000
G01 Z-0.2000 F200.00 
G01 X51.6645 Y46.4691 F500.00 
G01 X51.6227 Y46.4864 
G01 X49.9773 Y46.4864 
G01 X49.9355 Y46.4691 
G01 X49.9034 Y46.4370 
G01 X49.8861 Y46.3952 
G01 X49.8861 Y45.0498 
G01 X49.9034 Y45.0080 
G01 X49.9355 Y44.9759 
G01 X49.9773 Y44.9586 
G01 X50.0511 Y44.9586 
G01 X50.0511 Y26.6627 
G01 X48.7351 Y25.3467 
G01 X48.6308 Y25.2424 
G01 X48.5488 Y25.1197 
G01 X48.4924 Y24.9834 
G01 X48.4636 Y24.8388 
G01 X48.4636 Y21.2203 
G01 X48.4363 Y21.1794 
G01 X48.3703 Y21.0200 
G01 X48.3366 Y20.8508 
G01 X48.3366 Y19.1542 
G01 X48.3703 Y18.9850 
G01 X48.4363 Y18.8256 
G01 X48.5321 Y18.6821 
G01 X48.6541 Y18.5601 
G01 X48.7976 Y18.4643 
G01 X48.9570 Y18.3983 
G01 X49.1262 Y18.3646 
G01 X49.2988 Y18.3646 
G01 X49.4680 Y18.3983 
G01 X49.6274 Y18.4643 
G01 X49.7709 Y18.5601 
G01 X49.8929 Y18.6821 
G01 X49.9887 Y18.8256 
G01 X50.0547 Y18.9850 
G01 X50.0884 Y19.1542 
G01 X50.0884 Y20.8508 
G01 X50.0547 Y21.0200 
G01 X49.9887 Y21.1794 
G01 X49.9614 Y21.2203 
G01 X49.9614 Y24.4548 
G01 X51.3817 Y25.8751 
G01 X51.4637 Y25.9978 
G01 X51.5201 Y26.1341 
G01 X51.5489 Y26.2787 
G01 X51.5489 Y44.9586 
G01 X51.6227 Y44.9586 
G01 X51.6645 Y44.9759 
G01 X51.6966 Y45.0080 
G01 X51.7139 Y45.0498 
G01 X51.7139 Y46.3952 
G01 X51.6966 Y46.4370 
G00 Z2.0000  F3000
G00 X48.9981 Y38.3665  F3000
G01 Z-0.2000 F200.00 
G01 X48.8440 Y38.5206 F500.00 
G01 X48.6678 Y38.6486 
G01 X48.4737 Y38.7475 
G01 X48.2666 Y38.8148 
G01 X48.0514 Y38.8489 
G01 X47.8336 Y38.8489 
G01 X47.6184 Y38.8148 
G01 X47.4113 Y38.7475 
G01 X47.2172 Y38.6486 
G01 X47.0410 Y38.5206 
G01 X46.8869 Y38.3665 
G01 X46.7589 Y38.1903 
G01 X46.6600 Y37.9962 
G01 X46.5927 Y37.7891 
G01 X46.5586 Y37.5739 
G01 X46.5586 Y37.3561 
G01 X46.5927 Y37.1409 
G01 X46.6600 Y36.9338 
G01 X46.7589 Y36.7397 
G01 X46.8869 Y36.5635 
G01 X47.0410 Y36.4094 
G01 X47.2172 Y36.2814 
G01 X47.4113 Y36.1825 
G01 X47.5885 Y36.1249 
G01 X47.8286 Y35.8848 
G01 X47.8286 Y26.9802 
G01 X46.1951 Y25.3467 
G01 X46.0908 Y25.2424 
G01 X46.0088 Y25.1197 
G01 X45.9524 Y24.9834 
G01 X45.9236 Y24.8388 
G01 X45.9236 Y21.2203 
G01 X45.8963 Y21.1794 
G01 X45.8303 Y21.0200 
G01 X45.7966 Y20.8508 
G01 X45.7966 Y19.1542 
G01 X45.8303 Y18.9850 
G01 X45.8963 Y18.8256 
G01 X45.9921 Y18.6821 
G01 X46.1141 Y18.5601 
G01 X46.2576 Y18.4643 
G01 X46.4170 Y18.3983 
G01 X46.5862 Y18.3646 
G01 X46.7588 Y18.3646 
G01 X46.9280 Y18.3983 
G01 X47.0874 Y18.4643 
G01 X47.2309 Y18.5601 
G01 X47.3529 Y18.6821 
G01 X47.4487 Y18.8256 
G01 X47.5147 Y18.9850 
G01 X47.5484 Y19.1542 
G01 X47.5484 Y20.8508 
G01 X47.5147 Y21.0200 
G01 X47.4487 Y21.1794 
G01 X47.4214 Y21.2203 
G01 X47.4214 Y24.4548 
G01 X49.1592 Y26.1926 
G01 X49.2412 Y26.3153 
G01 X49.2976 Y26.4516 
G01 X49.3264 Y26.5962 
G01 X49.3264 Y36.2688 
G01 X49.2976 Y36.4134 
G01 X49.2412 Y36.5497 
G01 X49.1592 Y36.6724 
G01 X49.1117 Y36.7199 
G01 X49.1261 Y36.7397 
G01 X49.2250 Y36.9338 
G01 X49.2923 Y37.1409 
G01 X49.3264 Y37.3561 
G01 X49.3264 Y37.5739 
G01 X49.2923 Y37.7891 
G01 X49.2250 Y37.9962 
G01 X49.1261 Y38.1903 
G01 X48.9981 Y38.3665 
G00 Z2.0000  F3000
G00 X46.9941 Y32.4320  F3000
G01 Z-0.2000 F200.00 
G01 X46.9620 Y32.4641 F500.00 
G01 X46.9202 Y32.4814 
G01 X46.1705 Y32.4814 
G01 X46.1526 Y32.4862 
G01 X40.8424 Y32.4862 
G01 X40.8330 Y32.4837 
G01 X39.2814 Y32.4837 
G01 X39.2814 Y32.7377 
G01 X39.2641 Y32.7795 
G01 X39.2320 Y32.8116 
G01 X39.1902 Y32.8289 
G01 X37.6448 Y32.8289 
G01 X37.6030 Y32.8116 
G01 X37.5709 Y32.7795 
G01 X37.5536 Y32.7377 
G01 X37.5536 Y32.4837 
G01 X35.7889 Y32.4837 
G01 X35.7889 Y32.7377 
G01 X35.7716 Y32.7795 
G01 X35.7395 Y32.8116 
G01 X35.6977 Y32.8289 
G01 X34.1523 Y32.8289 
G01 X34.1105 Y32.8116 
G01 X34.0784 Y32.7795 
G01 X34.0611 Y32.7377 
G01 X34.0611 Y32.4862 
G01 X25.1316 Y32.4862 
G01 X25.0950 Y32.5987 
G01 X24.9961 Y32.7928 
G01 X24.8681 Y32.9690 
G01 X24.7140 Y33.1231 
G01 X24.5378 Y33.2511 
G01 X24.3437 Y33.3500 
G01 X24.1366 Y33.4173 
G01 X23.9214 Y33.4514 
G01 X23.7036 Y33.4514 
G01 X23.4884 Y33.4173 
G01 X23.2813 Y33.3500 
G01 X23.0872 Y33.2511 
G01 X22.9109 Y33.1231 
G01 X22.7569 Y32.9690 
G01 X22.6289 Y32.7928 
G01 X22.5300 Y32.5987 
G01 X22.4627 Y32.3916 
G01 X22.4286 Y32.1764 
G01 X22.4286 Y31.9586 
G01 X22.4627 Y31.7434 
G01 X22.5300 Y31.5363 
G01 X22.6289 Y31.3422 
G01 X22.7569 Y31.1659 
G01 X22.9109 Y31.0119 
G01 X23.0872 Y30.8839 
G01 X23.2813 Y30.7850 
G01 X23.4884 Y30.7177 
G01 X23.7036 Y30.6836 
G01 X23.9214 Y30.6836 
G01 X24.1366 Y30.7177 
G01 X24.3437 Y30.7850 
G01 X24.5378 Y30.8839 
G01 X24.7140 Y31.0119 
G01 X24.8681 Y31.1659 
G01 X24.9961 Y31.3422 
G01 X25.0950 Y31.5363 
G01 X25.1316 Y31.6488 
G01 X31.3913 Y31.6488 
G01 X31.3913 Y31.2114 
G01 X30.9873 Y31.2114 
G01 X30.9455 Y31.1941 
G01 X30.9134 Y31.1620 
G01 X30.8961 Y31.1202 
G01 X30.8961 Y30.4748 
G01 X30.9134 Y30.4330 
G01 X30.9455 Y30.4009 
G01 X30.9873 Y30.3836 
G01 X31.7370 Y30.3836 
G01 X31.7549 Y30.3788 
G01 X31.8651 Y30.3788 
G01 X31.8830 Y30.3836 
G01 X32.6327 Y30.3836 
G01 X32.6745 Y30.4009 
G01 X32.7066 Y30.4330 
G01 X32.7239 Y30.4748 
G01 X32.7239 Y31.1202 
G01 X32.7066 Y31.1620 
G01 X32.6745 Y31.1941 
G01 X32.6327 Y31.2114 
G01 X32.2287 Y31.2114 
G01 X32.2287 Y31.6488 
G01 X34.0611 Y31.6488 
G01 X34.0611 Y31.3923 
G01 X34.0784 Y31.3505 
G01 X34.1105 Y31.3184 
G01 X34.1523 Y31.3011 
G01 X35.6977 Y31.3011 
G01 X35.7395 Y31.3184 
G01 X35.7716 Y31.3505 
G01 X35.7889 Y31.3923 
G01 X35.7889 Y31.6463 
G01 X37.5536 Y31.6463 
G01 X37.5536 Y31.3923 
G01 X37.5709 Y31.3505 
G01 X37.6030 Y31.3184 
G01 X37.6448 Y31.3011 
G01 X39.1902 Y31.3011 
G01 X39.2320 Y31.3184 
G01 X39.2641 Y31.3505 
G01 X39.2814 Y31.3923 
G01 X39.2814 Y31.6463 
G01 X40.9501 Y31.6463 
G01 X40.9594 Y31.6488 
G01 X45.6788 Y31.6488 
G01 X45.6788 Y31.2114 
G01 X45.2748 Y31.2114 
G01 X45.2330 Y31.1941 
G01 X45.2009 Y31.1620 
G01 X45.1836 Y31.1202 
G01 X45.1836 Y30.4748 
G01 X45.2009 Y30.4330 
G01 X45.2330 Y30.4009 
G01 X45.2748 Y30.3836 
G01 X46.0245 Y30.3836 
G01 X46.0424 Y30.3788 
G01 X46.1526 Y30.3788 
G01 X46.1705 Y30.3836 
G01 X46.9202 Y30.3836 
G01 X46.9620 Y30.4009 
G01 X46.9941 Y30.4330 
G01 X47.0114 Y30.4748 
G01 X47.0114 Y31.1202 
G01 X46.9941 Y31.1620 
G01 X46.9620 Y31.1941 
G01 X46.9202 Y31.2114 
G01 X46.5162 Y31.2114 
G01 X46.5162 Y31.6536 
G01 X46.9202 Y31.6536 
G01 X46.9620 Y31.6709 
G01 X46.9941 Y31.7030 
G01 X47.0114 Y31.7448 
G01 X47.0114 Y32.3902 
G01 X46.9941 Y32.4320 
G00 Z2.0000  F3000
G00 X46.9941 Y29.8920  F3000
G01 Z-0.2000 F200.00 
G01 X46.9620 Y29.9241 F500.00 
G01 X46.9202 Y29.9414 
G01 X46.1705 Y29.9414 
G01 X46.1526 Y29.9462 
G01 X46.0424 Y29.9462 
G01 X46.0245 Y29.9414 
G01 X45.2748 Y29.9414 
G01 X45.2330 Y29.9241 
G01 X45.2009 Y29.8920 
G01 X45.1836 Y29.8502 
G01 X45.1836 Y29.2048 
G01 X45.2009 Y29.1630 
G01 X45.2330 Y29.1309 
G01 X45.2748 Y29.1136 
G01 X45.6188 Y29.1136 
G01 X45.6188 Y28.5609 
G01 X45.5601 Y28.5217 
G01 X45.4558 Y28.4174 
G01 X45.3738 Y28.2947 
G01 X45.3174 Y28.1584 
G01 X45.2886 Y28.0138 
G01 X45.2886 Y26.9802 
G01 X43.5508 Y25.2424 
G01 X43.4688 Y25.1197 
G01 X43.4124 Y24.9834 
G01 X43.3836 Y24.8388 
G01 X43.3836 Y21.2203 
G01 X43.3563 Y21.1794 
G01 X43.2903 Y21.0200 
G01 X43.2566 Y20.8508 
G01 X43.2566 Y19.1542 
G01 X43.2903 Y18.9850 
G01 X43.3563 Y18.8256 
G01 X43.3836 Y18.7847 
G01 X43.3836 Y17.0072 
G01 X43.3661 Y16.9652 
G01 X43.3661 Y15.4198 
G01 X43.3834 Y15.3780 
G01 X43.4155 Y15.3459 
G01 X43.4573 Y15.3286 
G01 X44.8027 Y15.3286 
G01 X44.8445 Y15.3459 
G01 X44.8766 Y15.3780 
G01 X44.8939 Y15.4198 
G01 X44.8939 Y16.9652 
G01 X44.8814 Y16.9953 
G01 X44.8814 Y18.7847 
G01 X44.9087 Y18.8256 
G01 X44.9747 Y18.9850 
G01 X45.0084 Y19.1542 
G01 X45.0084 Y20.8508 
G01 X44.9747 Y21.0200 
G01 X44.9087 Y21.1794 
G01 X44.8814 Y21.2203 
G01 X44.8814 Y24.4548 
G01 X46.5149 Y26.0883 
G01 X46.6192 Y26.1926 
G01 X46.7012 Y26.3153 
G01 X46.7576 Y26.4516 
G01 X46.7864 Y26.5962 
G01 X46.7864 Y28.0138 
G01 X46.7576 Y28.1584 
G01 X46.7012 Y28.2947 
G01 X46.6192 Y28.4174 
G01 X46.5149 Y28.5217 
G01 X46.4562 Y28.5609 
G01 X46.4562 Y29.1136 
G01 X46.9202 Y29.1136 
G01 X46.9620 Y29.1309 
G01 X46.9941 Y29.1630 
G01 X47.0114 Y29.2048 
G01 X47.0114 Y29.8502 
G01 X46.9941 Y29.8920 
G00 Z2.0000  F3000
G00 X43.5987 Y30.8526  F3000
G01 Z-0.2000 F200.00 
G01 X43.5702 Y30.9591 F500.00 
G01 X43.5150 Y31.0546 
G01 X43.4371 Y31.1325 
G01 X43.3416 Y31.1877 
G01 X43.2351 Y31.2162 
G01 X40.8424 Y31.2162 
G01 X40.8245 Y31.2114 
G01 X40.0748 Y31.2114 
G01 X40.0330 Y31.1941 
G01 X40.0009 Y31.1620 
G01 X39.9836 Y31.1202 
G01 X39.9836 Y30.4748 
G01 X40.0009 Y30.4330 
G01 X40.0330 Y30.4009 
G01 X40.0748 Y30.3836 
G01 X40.8245 Y30.3836 
G01 X40.8424 Y30.3788 
G01 X42.7613 Y30.3788 
G01 X42.7613 Y28.2434 
G01 X42.7026 Y28.2042 
G01 X41.0108 Y26.5124 
G01 X40.9288 Y26.3897 
G01 X40.8724 Y26.2534 
G01 X40.8436 Y26.1088 
G01 X40.8436 Y21.2203 
G01 X40.8163 Y21.1794 
G01 X40.7503 Y21.0200 
G01 X40.7166 Y20.8508 
G01 X40.7166 Y19.1542 
G01 X40.7503 Y18.9850 
G01 X40.8163 Y18.8256 
G01 X40.8436 Y18.7847 
G01 X40.8436 Y16.7562 
G01 X40.8724 Y16.6116 
G01 X40.9288 Y16.4753 
G01 X41.0108 Y16.3526 
G01 X41.4661 Y15.8973 
G01 X41.4661 Y15.4198 
G01 X41.4834 Y15.3780 
G01 X41.5155 Y15.3459 
G01 X41.5573 Y15.3286 
G01 X42.9027 Y15.3286 
G01 X42.9445 Y15.3459 
G01 X42.9766 Y15.3780 
G01 X42.9939 Y15.4198 
G01 X42.9939 Y16.9652 
G01 X42.9766 Y17.0070 
G01 X42.9445 Y17.0391 
G01 X42.9027 Y17.0564 
G01 X42.4252 Y17.0564 
G01 X42.3414 Y17.1402 
G01 X42.3414 Y18.7847 
G01 X42.3687 Y18.8256 
G01 X42.4347 Y18.9850 
G01 X42.4684 Y19.1542 
G01 X42.4684 Y20.8508 
G01 X42.4347 Y21.0200 
G01 X42.3687 Y21.1794 
G01 X42.3414 Y21.2203 
G01 X42.3414 Y25.7248 
G01 X43.7617 Y27.1451 
G01 X43.8437 Y27.2678 
G01 X43.9001 Y27.4041 
G01 X43.9289 Y27.5487 
G01 X43.9289 Y27.6963 
G01 X43.9001 Y27.8409 
G01 X43.8437 Y27.9772 
G01 X43.7617 Y28.0999 
G01 X43.6574 Y28.2042 
G01 X43.5987 Y28.2434 
G01 X43.5987 Y30.8526 
G00 Z2.0000  F3000
G00 X42.6157 Y30.1742  F3000
G01 Z-0.2000 F200.00 
G01 X42.5567 Y30.2332 F500.00 
G01 X42.4844 Y30.2750 
G01 X42.4037 Y30.2966 
G01 X42.0883 Y30.2966 
G01 X42.0077 Y30.2750 
G01 X41.9354 Y30.2332 
G01 X41.8764 Y30.1742 
G01 X41.8346 Y30.1019 
G01 X41.8139 Y30.0247 
G01 X41.8130 Y30.0212 
G01 X41.8130 Y29.9378 
G01 X41.8174 Y29.9213 
G01 X41.8376 Y29.8459 
G01 X41.8114 Y29.8446 
G01 X41.8114 Y29.8502 
G01 X41.7941 Y29.8920 
G01 X41.7620 Y29.9241 
G01 X41.7202 Y29.9414 
G01 X40.0748 Y29.9414 
G01 X40.0330 Y29.9241 
G01 X40.0009 Y29.8920 
G01 X39.9836 Y29.8502 
G01 X39.9836 Y29.8446 
G01 X39.9574 Y29.8446 
G01 X39.9669 Y29.8816 
G01 X39.9854 Y29.9135 
G01 X40.0001 Y29.9282 
G01 X40.0172 Y29.9578 
G01 X40.0418 Y30.0005 
G01 X40.0634 Y30.0812 
G01 X40.0634 Y30.1647 
G01 X40.0418 Y30.2453 
G01 X40.0269 Y30.2712 
G01 X40.0001 Y30.3176 
G01 X39.9410 Y30.3766 
G01 X39.8406 Y30.4771 
G01 X39.8380 Y30.4815 
G01 X39.7790 Y30.5405 
G01 X39.7067 Y30.5823 
G01 X39.6260 Y30.6039 
G01 X39.2814 Y30.6039 
G01 X39.2814 Y30.8377 
G01 X39.2641 Y30.8795 
G01 X39.2320 Y30.9116 
G01 X39.1902 Y30.9289 
G01 X37.6448 Y30.9289 
G01 X37.6030 Y30.9116 
G01 X37.5709 Y30.8795 
G01 X37.5536 Y30.8377 
G01 X37.5536 Y30.6039 
G01 X37.5274 Y30.6039 
G01 X37.5274 Y30.8334 
G01 X37.5369 Y30.8691 
G01 X37.5405 Y30.8752 
G01 X37.5585 Y30.9064 
G01 X37.5823 Y30.9475 
G01 X37.6039 Y31.0282 
G01 X37.6039 Y31.1117 
G01 X37.5938 Y31.1494 
G01 X37.5823 Y31.1923 
G01 X37.5405 Y31.2647 
G01 X37.4815 Y31.3237 
G01 X37.4549 Y31.3502 
G01 X37.4498 Y31.3694 
G01 X37.4080 Y31.4417 
G01 X37.3490 Y31.5007 
G01 X37.2767 Y31.5425 
G01 X37.1960 Y31.5641 
G01 X36.1464 Y31.5641 
G01 X36.0658 Y31.5425 
G01 X35.9935 Y31.5007 
G01 X35.9345 Y31.4417 
G01 X35.8927 Y31.3694 
G01 X35.8876 Y31.3503 
G01 X35.8610 Y31.3237 
G01 X35.8050 Y31.2676 
G01 X35.8020 Y31.2647 
G01 X35.7602 Y31.1923 
G01 X35.7489 Y31.1502 
G01 X35.7386 Y31.1117 
G01 X35.7386 Y31.0282 
G01 X35.7602 Y30.9475 
G01 X35.7835 Y30.9072 
G01 X35.8020 Y30.8753 
G01 X35.8056 Y30.8691 
G01 X35.8151 Y30.8334 
G01 X35.8151 Y30.6039 
G01 X35.7889 Y30.6039 
G01 X35.7889 Y30.8377 
G01 X35.7716 Y30.8795 
G01 X35.7395 Y30.9116 
G01 X35.6977 Y30.9289 
G01 X34.1523 Y30.9289 
G01 X34.1105 Y30.9116 
G01 X34.0784 Y30.8795 
G01 X34.0611 Y30.8377 
G01 X34.0611 Y30.6039 
G01 X34.0349 Y30.6039 
G01 X34.0349 Y30.8334 
G01 X34.0444 Y30.8691 
G01 X34.0480 Y30.8752 
G01 X34.0660 Y30.9064 
G01 X34.0898 Y30.9475 
G01 X34.1114 Y31.0282 
G01 X34.1114 Y31.1117 
G01 X34.1013 Y31.1494 
G01 X34.0898 Y31.1923 
G01 X34.0480 Y31.2647 
G01 X33.9890 Y31.3237 
G01 X33.9633 Y31.3493 
G01 X33.9573 Y31.3719 
G01 X33.9155 Y31.4442 
G01 X33.8565 Y31.5032 
G01 X33.7842 Y31.5450 
G01 X33.7035 Y31.5666 
G01 X33.0814 Y31.5666 
G01 X33.0008 Y31.5450 
G01 X32.9285 Y31.5032 
G01 X32.8695 Y31.4442 
G01 X32.8277 Y31.3719 
G01 X32.8061 Y31.2912 
G01 X32.8061 Y30.4163 
G01 X32.7470 Y30.3572 
G01 X32.7299 Y30.3276 
G01 X32.7053 Y30.2849 
G01 X32.6837 Y30.2042 
G01 X32.6837 Y30.1207 
G01 X32.6912 Y30.0925 
G01 X32.7053 Y30.0401 
G01 X32.7155 Y30.0223 
G01 X32.7470 Y29.9678 
G01 X32.8061 Y29.9088 
G01 X32.8061 Y29.1463 
G01 X32.6912 Y29.0314 
G01 X32.5262 Y29.0314 
G01 X32.4456 Y29.0098 
G01 X32.3733 Y28.9680 
G01 X32.3143 Y28.9090 
G01 X32.2725 Y28.8367 
G01 X32.2509 Y28.7560 
G01 X32.2509 Y28.3865 
G01 X32.2725 Y28.3059 
G01 X32.3143 Y28.2336 
G01 X32.3733 Y28.1746 
G01 X33.4071 Y27.1408 
G01 X33.5336 Y26.8353 
G01 X33.5336 Y21.0280 
G01 X33.5309 Y21.0073 
G01 X33.5336 Y20.9865 
G01 X33.5336 Y20.9655 
G01 X33.5390 Y20.9453 
G01 X33.5418 Y20.9245 
G01 X33.5498 Y20.9051 
G01 X33.5552 Y20.8849 
G01 X33.5657 Y20.8667 
G01 X33.6606 Y20.6376 
G01 X33.6606 Y18.7324 
G01 X33.5657 Y18.5033 
G01 X33.5552 Y18.4851 
G01 X33.5498 Y18.4649 
G01 X33.5418 Y18.4455 
G01 X33.5390 Y18.4247 
G01 X33.5336 Y18.4045 
G01 X33.5336 Y18.3835 
G01 X33.5309 Y18.3627 
G01 X33.5336 Y18.3420 
G01 X33.5336 Y16.6647 
G01 X33.4071 Y16.3592 
G01 X33.2920 Y16.2441 
G01 X33.2502 Y16.1718 
G01 X33.2286 Y16.0911 
G01 X33.2286 Y15.6788 
G01 X33.1137 Y15.5639 
G01 X31.6513 Y15.5639 
G01 X31.6283 Y15.5868 
G01 X31.5759 Y15.6176 
G01 X31.5549 Y15.6297 
G01 X31.5184 Y15.6395 
G01 X31.4743 Y15.6513 
G01 X31.3908 Y15.6513 
G01 X31.3574 Y15.6424 
G01 X31.3101 Y15.6297 
G01 X31.2556 Y15.5982 
G01 X31.2378 Y15.5880 
G01 X31.2137 Y15.5639 
G01 X29.7513 Y15.5639 
G01 X29.6364 Y15.6788 
G01 X29.6364 Y16.0911 
G01 X29.6148 Y16.1718 
G01 X29.5730 Y16.2441 
G01 X29.5140 Y16.3031 
G01 X29.4579 Y16.3592 
G01 X29.3314 Y16.6647 
G01 X29.3314 Y18.3420 
G01 X29.3341 Y18.3627 
G01 X29.3314 Y18.3835 
G01 X29.3314 Y18.4045 
G01 X29.3260 Y18.4247 
G01 X29.3232 Y18.4455 
G01 X29.3152 Y18.4649 
G01 X29.3098 Y18.4851 
G01 X29.2993 Y18.5033 
G01 X29.1695 Y18.8167 
G01 X29.1187 Y18.8830 
G01 X29.0524 Y18.9338 
G01 X28.9753 Y18.9657 
G01 X28.8925 Y18.9766 
G01 X28.8097 Y18.9657 
G01 X28.7326 Y18.9338 
G01 X28.6663 Y18.8830 
G01 X28.6155 Y18.8167 
G01 X28.6142 Y18.8135 
G01 X28.4347 Y18.3803 
G01 X28.1652 Y18.1108 
G01 X27.8131 Y17.9649 
G01 X27.4319 Y17.9649 
G01 X27.0798 Y18.1108 
G01 X26.8103 Y18.3803 
G01 X26.6595 Y18.7443 
G01 X26.6295 Y18.8167 
G01 X26.5796 Y18.8818 
G01 X26.5124 Y18.9338 
G01 X26.4353 Y18.9657 
G01 X26.3525 Y18.9766 
G01 X26.3455 Y18.9757 
G01 X26.2697 Y18.9657 
G01 X26.1926 Y18.9338 
G01 X26.1275 Y18.8839 
G01 X26.0755 Y18.8167 
G01 X26.0742 Y18.8135 
G01 X25.8947 Y18.3803 
G01 X25.6252 Y18.1108 
G01 X25.2731 Y17.9649 
G01 X24.8919 Y17.9649 
G01 X24.5398 Y18.1108 
G01 X24.2703 Y18.3803 
G01 X24.0895 Y18.8167 
G01 X24.0387 Y18.8830 
G01 X23.9724 Y18.9338 
G01 X23.8953 Y18.9657 
G01 X23.8125 Y18.9766 
G01 X23.7297 Y18.9657 
G01 X23.6987 Y18.9529 
G01 X23.6526 Y18.9338 
G01 X23.5863 Y18.8830 
G01 X23.5355 Y18.8167 
G01 X23.5337 Y18.8124 
G01 X23.4057 Y18.5033 
G01 X23.3952 Y18.4851 
G01 X23.3898 Y18.4649 
G01 X23.3818 Y18.4455 
G01 X23.3790 Y18.4247 
G01 X23.3736 Y18.4045 
G01 X23.3736 Y18.3835 
G01 X23.3709 Y18.3627 
G01 X23.3736 Y18.3419 
G01 X23.3736 Y15.3563 
G01 X23.3952 Y15.2757 
G01 X23.4370 Y15.2034 
G01 X23.4960 Y15.1444 
G01 X29.4319 Y9.2085 
G01 X29.4909 Y9.1495 
G01 X29.5632 Y9.1077 
G01 X29.6438 Y9.0861 
G01 X33.2756 Y9.0861 
G01 X33.3563 Y9.1077 
G01 X33.4286 Y9.1495 
G01 X33.4876 Y9.2085 
G01 X33.7770 Y9.4979 
G01 X34.3159 Y9.7211 
G01 X34.8991 Y9.7211 
G01 X35.4380 Y9.4979 
G01 X35.8504 Y9.0855 
G01 X36.0736 Y8.5466 
G01 X36.0736 Y7.9634 
G01 X35.8504 Y7.4245 
G01 X35.4380 Y7.0121 
G01 X35.0384 Y6.8466 
G01 X35.0182 Y6.8412 
G01 X35.0000 Y6.8307 
G01 X34.9807 Y6.8227 
G01 X34.9640 Y6.8099 
G01 X34.9459 Y6.7994 
G01 X34.9311 Y6.7846 
G01 X34.9144 Y6.7719 
G01 X34.9017 Y6.7552 
G01 X34.8869 Y6.7404 
G01 X34.8764 Y6.7222 
G01 X34.8636 Y6.7056 
G01 X34.8556 Y6.6863 
G01 X34.8451 Y6.6681 
G01 X34.8397 Y6.6478 
G01 X34.8317 Y6.6285 
G01 X34.8289 Y6.6077 
G01 X34.8235 Y6.5874 
G01 X34.8235 Y6.5665 
G01 X34.8208 Y6.5457 
G01 X34.8235 Y6.5249 
G01 X34.8235 Y6.5039 
G01 X34.8289 Y6.4837 
G01 X34.8317 Y6.4629 
G01 X34.8397 Y6.4436 
G01 X34.8451 Y6.4233 
G01 X34.8556 Y6.4051 
G01 X34.8636 Y6.3858 
G01 X34.8764 Y6.3691 
G01 X34.8869 Y6.3510 
G01 X34.9017 Y6.3362 
G01 X34.9144 Y6.3195 
G01 X34.9311 Y6.3068 
G01 X34.9459 Y6.2920 
G01 X34.9641 Y6.2815 
G01 X34.9807 Y6.2687 
G01 X35.0000 Y6.2607 
G01 X35.0182 Y6.2502 
G01 X35.0384 Y6.2448 
G01 X35.0578 Y6.2368 
G01 X35.0786 Y6.2340 
G01 X35.0988 Y6.2286 
G01 X35.1198 Y6.2286 
G01 X35.1406 Y6.2259 
G01 X35.1614 Y6.2286 
G01 X36.9935 Y6.2286 
G01 X37.0742 Y6.2502 
G01 X37.1465 Y6.2920 
G01 X37.2055 Y6.3510 
G01 X37.2473 Y6.4233 
G01 X37.2689 Y6.5039 
G01 X37.2689 Y10.0078 
G01 X37.3954 Y10.3133 
G01 X37.7033 Y10.6212 
G01 X37.9467 Y10.8646 
G01 X38.2522 Y10.9911 
G01 X47.7903 Y10.9911 
G01 X48.0958 Y10.8646 
G01 X48.3296 Y10.6308 
G01 X48.4561 Y10.3253 
G01 X48.4561 Y9.6591 
G01 X48.4536 Y9.6498 
G01 X48.4536 Y9.6289 
G01 X48.4509 Y9.6081 
G01 X48.4536 Y9.5873 
G01 X48.4536 Y8.7239 
G01 X48.4752 Y8.6433 
G01 X48.5170 Y8.5710 
G01 X48.5760 Y8.5120 
G01 X48.6483 Y8.4702 
G01 X48.7289 Y8.4486 
G01 X49.7307 Y8.4486 
G01 X49.7720 Y8.4486 
G01 X49.8142 Y8.4486 
G01 X49.8590 Y8.4606 
G01 X49.8702 Y8.4636 
G01 X51.7298 Y8.4636 
G01 X51.7403 Y8.4608 
G01 X51.7858 Y8.4486 
G01 X51.8271 Y8.4486 
G01 X51.8693 Y8.4486 
G01 X52.2707 Y8.4486 
G01 X52.3120 Y8.4486 
G01 X52.3542 Y8.4486 
G01 X52.3990 Y8.4606 
G01 X52.4102 Y8.4636 
G01 X54.2212 Y8.4636 
G01 X54.3361 Y8.3487 
G01 X54.3361 Y7.3402 
G01 X54.3577 Y7.2596 
G01 X54.3995 Y7.1873 
G01 X54.4585 Y7.1282 
G01 X54.5308 Y7.0865 
G01 X54.6114 Y7.0649 
G01 X54.6949 Y7.0649 
G01 X54.7756 Y7.0865 
G01 X54.8479 Y7.1282 
G01 X54.9069 Y7.1873 
G01 X55.9380 Y8.2184 
G01 X55.9798 Y8.2907 
G01 X56.0014 Y8.3713 
G01 X56.0014 Y18.6594 
G01 X56.0041 Y18.6802 
G01 X56.0014 Y18.7010 
G01 X56.0014 Y18.7220 
G01 X55.9960 Y18.7422 
G01 X55.9932 Y18.7630 
G01 X55.9852 Y18.7824 
G01 X55.9798 Y18.8026 
G01 X55.9693 Y18.8208 
G01 X55.8710 Y19.0582 
G01 X55.8395 Y19.1342 
G01 X55.7887 Y19.2005 
G01 X55.7224 Y19.2513 
G01 X55.6453 Y19.2832 
G01 X55.5625 Y19.2941 
G01 X55.4797 Y19.2832 
G01 X55.4026 Y19.2513 
G01 X55.3363 Y19.2005 
G01 X55.2855 Y19.1342 
G01 X55.1047 Y18.6978 
G01 X54.8352 Y18.4283 
G01 X54.4831 Y18.2824 
G01 X54.1019 Y18.2824 
G01 X53.7498 Y18.4283 
G01 X53.4803 Y18.6978 
G01 X53.3295 Y19.0618 
G01 X53.2995 Y19.1342 
G01 X53.2496 Y19.1993 
G01 X53.1824 Y19.2513 
G01 X53.1053 Y19.2832 
G01 X53.0225 Y19.2941 
G01 X53.0155 Y19.2932 
G01 X52.9397 Y19.2832 
G01 X52.8626 Y19.2513 
G01 X52.7975 Y19.2014 
G01 X52.7455 Y19.1342 
G01 X52.7442 Y19.1310 
G01 X52.5647 Y18.6978 
G01 X52.2952 Y18.4283 
G01 X51.9431 Y18.2824 
G01 X51.5619 Y18.2824 
G01 X51.2098 Y18.4283 
G01 X50.9403 Y18.6978 
G01 X50.7895 Y19.0618 
G01 X50.7595 Y19.1342 
G01 X50.7096 Y19.1993 
G01 X50.6424 Y19.2513 
G01 X50.5653 Y19.2832 
G01 X50.4825 Y19.2941 
G01 X50.4755 Y19.2932 
G01 X50.3997 Y19.2832 
G01 X50.3226 Y19.2513 
G01 X50.2575 Y19.2014 
G01 X50.2055 Y19.1342 
G01 X50.2042 Y19.1310 
G01 X50.0247 Y18.6978 
G01 X49.7552 Y18.4283 
G01 X49.4031 Y18.2824 
G01 X49.0219 Y18.2824 
G01 X48.6698 Y18.4283 
G01 X48.4003 Y18.6978 
G01 X48.2495 Y19.0618 
G01 X48.2195 Y19.1342 
G01 X48.1696 Y19.1993 
G01 X48.1024 Y19.2513 
G01 X48.0253 Y19.2832 
G01 X47.9425 Y19.2941 
G01 X47.9355 Y19.2932 
G01 X47.8597 Y19.2832 
G01 X47.7826 Y19.2513 
G01 X47.7175 Y19.2014 
G01 X47.6655 Y19.1342 
G01 X47.6642 Y19.1310 
G01 X47.4847 Y18.6978 
G01 X47.2152 Y18.4283 
G01 X46.8631 Y18.2824 
G01 X46.4819 Y18.2824 
G01 X46.1298 Y18.4283 
G01 X45.8603 Y18.6978 
G01 X45.6795 Y19.1342 
G01 X45.6287 Y19.2005 
G01 X45.5624 Y19.2513 
G01 X45.4853 Y19.2832 
G01 X45.4025 Y19.2941 
G01 X45.3197 Y19.2832 
G01 X45.2887 Y19.2704 
G01 X45.2426 Y19.2513 
G01 X45.1763 Y19.2005 
G01 X45.1255 Y19.1342 
G01 X45.1237 Y19.1300 
G01 X44.9957 Y18.8208 
G01 X44.9852 Y18.8026 
G01 X44.9798 Y18.7824 
G01 X44.9718 Y18.7630 
G01 X44.9690 Y18.7422 
G01 X44.9636 Y18.7220 
G01 X44.9636 Y18.7010 
G01 X44.9609 Y18.6802 
G01 X44.9636 Y18.6594 
G01 X44.9636 Y17.2093 
G01 X44.9636 Y17.1678 
G01 X44.9636 Y17.1258 
G01 X44.9733 Y17.0895 
G01 X44.9761 Y17.0792 
G01 X44.9761 Y15.3613 
G01 X44.8612 Y15.2464 
G01 X43.3988 Y15.2464 
G01 X43.3758 Y15.2693 
G01 X43.3234 Y15.3001 
G01 X43.3024 Y15.3122 
G01 X43.2659 Y15.3220 
G01 X43.2218 Y15.3338 
G01 X43.1382 Y15.3338 
G01 X43.1049 Y15.3249 
G01 X43.0576 Y15.3122 
G01 X43.0031 Y15.2807 
G01 X42.9853 Y15.2705 
G01 X42.9612 Y15.2464 
G01 X41.4988 Y15.2464 
G01 X41.3839 Y15.3613 
G01 X41.3839 Y15.7736 
G01 X41.3623 Y15.8543 
G01 X41.3205 Y15.9266 
G01 X41.2615 Y15.9856 
G01 X40.8879 Y16.3592 
G01 X40.7614 Y16.6647 
G01 X40.7614 Y18.6594 
G01 X40.7641 Y18.6802 
G01 X40.7614 Y18.7010 
G01 X40.7614 Y18.7220 
G01 X40.7560 Y18.7422 
G01 X40.7532 Y18.7630 
G01 X40.7452 Y18.7824 
G01 X40.7398 Y18.8026 
G01 X40.7293 Y18.8208 
G01 X40.6344 Y19.0499 
G01 X40.6344 Y20.9551 
G01 X40.7293 Y21.1842 
G01 X40.7398 Y21.2024 
G01 X40.7452 Y21.2226 
G01 X40.7532 Y21.2420 
G01 X40.7560 Y21.2628 
G01 X40.7614 Y21.2830 
G01 X40.7614 Y21.3040 
G01 X40.7641 Y21.3248 
G01 X40.7614 Y21.3455 
G01 X40.7614 Y26.2003 
G01 X40.8879 Y26.5058 
G01 X42.6157 Y28.2336 
G01 X42.6575 Y28.3059 
G01 X42.6791 Y28.3865 
G01 X42.6791 Y30.0212 
G01 X42.6575 Y30.1019 
G01 X42.6157 Y30.1742 
G00 Z2.0000  F3000
G00 X41.8376 Y29.2104  F3000
G01 Z-0.2000 F200.00 
G01 X41.8376 Y29.2090 F500.00 
G01 X41.8281 Y29.1734 
G01 X41.8096 Y29.1415 
G01 X41.7835 Y29.1154 
G01 X41.7516 Y29.0969 
G01 X41.7159 Y29.0874 
G01 X41.2146 Y29.0874 
G01 X41.2146 Y29.1136 
G01 X41.7202 Y29.1136 
G01 X41.7620 Y29.1309 
G01 X41.7941 Y29.1630 
G01 X41.8114 Y29.2048 
G01 X41.8114 Y29.2104 
G01 X41.8376 Y29.2104 
G00 Z2.0000  F3000
G00 X40.5804 Y29.1136  F3000
G01 Z-0.2000 F200.00 
G01 X40.5804 Y29.0874 F500.00 
G01 X40.0790 Y29.0874 
G01 X40.0434 Y29.0969 
G01 X40.0115 Y29.1154 
G01 X39.9854 Y29.1415 
G01 X39.9669 Y29.1734 
G01 X39.9574 Y29.2090 
G01 X39.9836 Y29.2104 
G01 X39.9836 Y29.2048 
G01 X40.0009 Y29.1630 
G01 X40.0330 Y29.1309 
G01 X40.0748 Y29.1136 
G01 X40.5804 Y29.1136 
G00 Z2.0000  F3000
G00 X39.2796 Y29.4290  F3000
G01 Z-0.2000 F200.00 
G01 X39.2535 Y29.4029 F500.00 
G01 X39.2216 Y29.3844 
G01 X39.1859 Y29.3749 
G01 X38.8564 Y29.3749 
G01 X38.8564 Y29.4011 
G01 X39.1902 Y29.4011 
G01 X39.2320 Y29.4184 
G01 X39.2641 Y29.4505 
G01 X39.2814 Y29.4923 
G01 X39.2814 Y29.7261 
G01 X39.3076 Y29.7261 
G01 X39.3076 Y29.4965 
G01 X39.2981 Y29.4609 
G01 X39.2796 Y29.4290 
G00 Z2.0000  F3000
G00 X37.9786 Y29.4011  F3000
G01 Z-0.2000 F200.00 
G01 X37.9786 Y29.3749 F500.00 
G01 X37.6490 Y29.3749 
G01 X37.6134 Y29.3844 
G01 X37.5815 Y29.4029 
G01 X37.5554 Y29.4290 
G01 X37.5369 Y29.4609 
G01 X37.5274 Y29.4965 
G01 X37.5274 Y29.7261 
G01 X37.5536 Y29.7261 
G01 X37.5536 Y29.4923 
G01 X37.5709 Y29.4505 
G01 X37.6030 Y29.4184 
G01 X37.6448 Y29.4011 
G01 X37.9786 Y29.4011 
G00 Z2.0000  F3000
G00 X35.7871 Y29.4290  F3000
G01 Z-0.2000 F200.00 
G01 X35.7610 Y29.4029 F500.00 
G01 X35.7291 Y29.3844 
G01 X35.6934 Y29.3749 
G01 X35.3639 Y29.3749 
G01 X35.3639 Y29.4011 
G01 X35.6977 Y29.4011 
G01 X35.7395 Y29.4184 
G01 X35.7716 Y29.4505 
G01 X35.7889 Y29.4923 
G01 X35.7889 Y29.7261 
G01 X35.8151 Y29.7261 
G01 X35.8151 Y29.4965 
G01 X35.8056 Y29.4609 
G01 X35.7871 Y29.4290 
G00 Z2.0000  F3000
G00 X34.4861 Y29.4011  F3000
G01 Z-0.2000 F200.00 
G01 X34.4861 Y29.3749 F500.00 
G01 X34.1565 Y29.3749 
G01 X34.1209 Y29.3844 
G01 X34.0890 Y29.4029 
G01 X34.0629 Y29.4290 
G01 X34.0444 Y29.4609 
G01 X34.0349 Y29.4965 
G01 X34.0349 Y29.7261 
G01 X34.0611 Y29.7261 
G01 X34.0611 Y29.4923 
G01 X34.0784 Y29.4505 
G01 X34.1105 Y29.4184 
G01 X34.1523 Y29.4011 
G01 X34.4861 Y29.4011 
G00 Z2.0000  F3000
G00 X32.7239 Y29.2048  F3000
G01 Z-0.2000 F200.00 
G01 X32.7239 Y29.8502 F500.00 
G01 X32.7066 Y29.8920 
G01 X32.6745 Y29.9241 
G01 X32.6327 Y29.9414 
G01 X31.8830 Y29.9414 
G01 X31.8651 Y29.9462 
G01 X31.7549 Y29.9462 
G01 X31.7370 Y29.9414 
G01 X30.9873 Y29.9414 
G01 X30.9455 Y29.9241 
G01 X30.9134 Y29.8920 
G01 X30.8961 Y29.8502 
G01 X30.8961 Y29.2048 
G01 X30.9134 Y29.1630 
G01 X30.9455 Y29.1309 
G01 X30.9873 Y29.1136 
G01 X31.3313 Y29.1136 
G01 X31.3313 Y28.2434 
G01 X31.2726 Y28.2042 
G01 X31.1683 Y28.0999 
G01 X31.0863 Y27.9772 
G01 X31.0299 Y27.8409 
G01 X31.0011 Y27.6963 
G01 X31.0011 Y27.5487 
G01 X31.0299 Y27.4041 
G01 X31.0863 Y27.2678 
G01 X31.1683 Y27.1451 
G01 X31.9536 Y26.3598 
G01 X31.9536 Y20.9028 
G01 X31.9263 Y20.8619 
G01 X31.8603 Y20.7025 
G01 X31.8266 Y20.5333 
G01 X31.8266 Y18.8367 
G01 X31.8603 Y18.6675 
G01 X31.9263 Y18.5081 
G01 X31.9536 Y18.4672 
G01 X31.9536 Y17.3739 
G01 X31.7098 Y17.3739 
G01 X31.6680 Y17.3566 
G01 X31.6359 Y17.3245 
G01 X31.6186 Y17.2827 
G01 X31.6186 Y15.7373 
G01 X31.6359 Y15.6955 
G01 X31.6680 Y15.6634 
G01 X31.7098 Y15.6461 
G01 X33.0552 Y15.6461 
G01 X33.0970 Y15.6634 
G01 X33.1291 Y15.6955 
G01 X33.1464 Y15.7373 
G01 X33.1464 Y16.2148 
G01 X33.2842 Y16.3526 
G01 X33.3662 Y16.4753 
G01 X33.4226 Y16.6116 
G01 X33.4514 Y16.7562 
G01 X33.4514 Y18.4672 
G01 X33.4787 Y18.5081 
G01 X33.5447 Y18.6675 
G01 X33.5784 Y18.8367 
G01 X33.5784 Y20.5333 
G01 X33.5447 Y20.7025 
G01 X33.4787 Y20.8619 
G01 X33.4514 Y20.9028 
G01 X33.4514 Y26.7438 
G01 X33.4226 Y26.8884 
G01 X33.3662 Y27.0247 
G01 X33.2842 Y27.1474 
G01 X32.2274 Y28.2042 
G01 X32.1687 Y28.2434 
G01 X32.1687 Y29.1136 
G01 X32.6327 Y29.1136 
G01 X32.6745 Y29.1309 
G01 X32.7066 Y29.1630 
G01 X32.7239 Y29.2048 
G00 Z2.0000  F3000
G00 X30.7442 Y26.8299  F3000
G01 Z-0.2000 F200.00 
G01 X29.3699 Y28.2042 F500.00 
G01 X29.3112 Y28.2434 
G01 X29.3112 Y30.5351 
G01 X29.2827 Y30.6416 
G01 X29.2275 Y30.7371 
G01 X28.9100 Y31.0546 
G01 X28.8321 Y31.1325 
G01 X28.7366 Y31.1877 
G01 X28.6301 Y31.2162 
G01 X26.5549 Y31.2162 
G01 X26.5370 Y31.2114 
G01 X25.7873 Y31.2114 
G01 X25.7455 Y31.1941 
G01 X25.7134 Y31.1620 
G01 X25.6961 Y31.1202 
G01 X25.6961 Y30.4748 
G01 X25.7134 Y30.4330 
G01 X25.7455 Y30.4009 
G01 X25.7873 Y30.3836 
G01 X26.5370 Y30.3836 
G01 X26.5549 Y30.3788 
G01 X28.4016 Y30.3788 
G01 X28.4738 Y30.3066 
G01 X28.4738 Y28.2434 
G01 X28.4151 Y28.2042 
G01 X28.3108 Y28.0999 
G01 X28.2288 Y27.9772 
G01 X28.1724 Y27.8409 
G01 X28.1436 Y27.6963 
G01 X28.1436 Y27.5487 
G01 X28.1724 Y27.4041 
G01 X28.2288 Y27.2678 
G01 X28.3108 Y27.1451 
G01 X29.4136 Y26.0423 
G01 X29.4136 Y20.9028 
G01 X29.3863 Y20.8619 
G01 X29.3203 Y20.7025 
G01 X29.2866 Y20.5333 
G01 X29.2866 Y18.8367 
G01 X29.3203 Y18.6675 
G01 X29.3863 Y18.5081 
G01 X29.4136 Y18.4672 
G01 X29.4136 Y16.7562 
G01 X29.4424 Y16.6116 
G01 X29.4988 Y16.4753 
G01 X29.5808 Y16.3526 
G01 X29.7186 Y16.2148 
G01 X29.7186 Y15.7373 
G01 X29.7359 Y15.6955 
G01 X29.7680 Y15.6634 
G01 X29.8098 Y15.6461 
G01 X31.1552 Y15.6461 
G01 X31.1970 Y15.6634 
G01 X31.2291 Y15.6955 
G01 X31.2464 Y15.7373 
G01 X31.2464 Y17.2827 
G01 X31.2291 Y17.3245 
G01 X31.1970 Y17.3566 
G01 X31.1552 Y17.3739 
G01 X30.9114 Y17.3739 
G01 X30.9114 Y18.4672 
G01 X30.9387 Y18.5081 
G01 X31.0047 Y18.6675 
G01 X31.0384 Y18.8367 
G01 X31.0384 Y20.5333 
G01 X31.0047 Y20.7025 
G01 X30.9387 Y20.8619 
G01 X30.9114 Y20.9028 
G01 X30.9114 Y26.4263 
G01 X30.8826 Y26.5709 
G01 X30.8262 Y26.7072 
G01 X30.7442 Y26.8299 
G00 Z2.0000  F3000
G00 X29.2680 Y26.0716  F3000
G01 Z-0.2000 F200.00 
G01 X29.2090 Y26.1306 F500.00 
G01 X28.1879 Y27.1517 
G01 X28.0614 Y27.4572 
G01 X28.0614 Y27.7878 
G01 X28.1879 Y28.0933 
G01 X28.3282 Y28.2336 
G01 X28.3700 Y28.3059 
G01 X28.3916 Y28.3865 
G01 X28.3916 Y30.0212 
G01 X28.3700 Y30.1019 
G01 X28.3282 Y30.1742 
G01 X28.2692 Y30.2332 
G01 X28.1969 Y30.2750 
G01 X28.1162 Y30.2966 
G01 X27.8008 Y30.2966 
G01 X27.7202 Y30.2750 
G01 X27.6479 Y30.2332 
G01 X27.5889 Y30.1742 
G01 X27.5471 Y30.1019 
G01 X27.5264 Y30.0247 
G01 X27.5255 Y30.0212 
G01 X27.5255 Y29.9378 
G01 X27.5299 Y29.9213 
G01 X27.5501 Y29.8459 
G01 X27.5239 Y29.8446 
G01 X27.5239 Y29.8502 
G01 X27.5066 Y29.8920 
G01 X27.4745 Y29.9241 
G01 X27.4327 Y29.9414 
G01 X25.7873 Y29.9414 
G01 X25.7455 Y29.9241 
G01 X25.7134 Y29.8920 
G01 X25.6961 Y29.8502 
G01 X25.6961 Y29.8446 
G01 X25.6699 Y29.8446 
G01 X25.6794 Y29.8816 
G01 X25.6979 Y29.9135 
G01 X25.7126 Y29.9282 
G01 X25.7297 Y29.9578 
G01 X25.7543 Y30.0005 
G01 X25.7759 Y30.0812 
G01 X25.7759 Y30.1647 
G01 X25.7543 Y30.2453 
G01 X25.7394 Y30.2712 
G01 X25.7126 Y30.3176 
G01 X25.6535 Y30.3766 
G01 X25.6139 Y30.4163 
G01 X25.6139 Y31.0717 
G01 X25.6130 Y31.0752 
G01 X25.5923 Y31.1524 
G01 X25.5515 Y31.2231 
G01 X25.4915 Y31.2837 
G01 X25.4192 Y31.3255 
G01 X25.3385 Y31.3471 
G01 X25.2551 Y31.3471 
G01 X25.2516 Y31.3462 
G01 X25.1744 Y31.3255 
G01 X25.1037 Y31.2846 
G01 X25.0431 Y31.2247 
G01 X24.6430 Y30.8246 
G01 X24.1041 Y30.6014 
G01 X23.5209 Y30.6014 
G01 X22.9820 Y30.8246 
G01 X22.5696 Y31.2370 
G01 X22.3464 Y31.7759 
G01 X22.3464 Y32.3591 
G01 X22.3485 Y32.3641 
G01 X22.3589 Y32.3823 
G01 X22.3644 Y32.4025 
G01 X22.3724 Y32.4219 
G01 X22.3751 Y32.4427 
G01 X22.3806 Y32.4629 
G01 X22.3806 Y32.4839 
G01 X22.3833 Y32.5047 
G01 X22.3806 Y32.5254 
G01 X22.3806 Y32.5464 
G01 X22.3751 Y32.5667 
G01 X22.3724 Y32.5874 
G01 X22.3644 Y32.6068 
G01 X22.3589 Y32.6271 
G01 X22.3485 Y32.6452 
G01 X22.3404 Y32.6646 
G01 X22.3277 Y32.6812 
G01 X22.3172 Y32.6994 
G01 X22.3024 Y32.7142 
G01 X22.2896 Y32.7308 
G01 X22.2730 Y32.7436 
G01 X22.2582 Y32.7584 
G01 X22.2400 Y32.7689 
G01 X22.2234 Y32.7816 
G01 X22.2040 Y32.7897 
G01 X22.1859 Y32.8002 
G01 X22.1656 Y32.8056 
G01 X22.1462 Y32.8136 
G01 X22.1255 Y32.8163 
G01 X22.1052 Y32.8218 
G01 X22.0843 Y32.8218 
G01 X22.0635 Y32.8245 
G01 X22.0427 Y32.8218 
G01 X22.0217 Y32.8218 
G01 X22.0015 Y32.8163 
G01 X21.9807 Y32.8136 
G01 X21.9613 Y32.8056 
G01 X21.9411 Y32.8002 
G01 X21.9229 Y32.7897 
G01 X21.9035 Y32.7816 
G01 X21.8869 Y32.7689 
G01 X21.8688 Y32.7584 
G01 X21.8539 Y32.7436 
G01 X21.8373 Y32.7308 
G01 X21.8245 Y32.7142 
G01 X21.2735 Y32.1631 
G01 X21.2145 Y32.1041 
G01 X21.1736 Y32.0334 
G01 X21.1511 Y31.9511 
G01 X21.1511 Y30.5963 
G01 X21.1727 Y30.5157 
G01 X21.2145 Y30.4434 
G01 X28.0782 Y23.5797 
G01 X28.3271 Y23.3308 
G01 X28.4536 Y23.0253 
G01 X28.4536 Y21.0280 
G01 X28.4509 Y21.0073 
G01 X28.4536 Y20.9865 
G01 X28.4536 Y20.9655 
G01 X28.4590 Y20.9453 
G01 X28.4618 Y20.9245 
G01 X28.4698 Y20.9051 
G01 X28.4752 Y20.8849 
G01 X28.4857 Y20.8667 
G01 X28.6155 Y20.5533 
G01 X28.6663 Y20.4870 
G01 X28.7326 Y20.4362 
G01 X28.8088 Y20.4046 
G01 X28.8925 Y20.3934 
G01 X28.9683 Y20.4033 
G01 X28.9753 Y20.4043 
G01 X29.0524 Y20.4362 
G01 X29.1187 Y20.4870 
G01 X29.1695 Y20.5533 
G01 X29.2993 Y20.8667 
G01 X29.3098 Y20.8849 
G01 X29.3152 Y20.9051 
G01 X29.3232 Y20.9245 
G01 X29.3260 Y20.9453 
G01 X29.3314 Y20.9655 
G01 X29.3314 Y20.9865 
G01 X29.3341 Y21.0073 
G01 X29.3314 Y21.0280 
G01 X29.3314 Y25.9186 
G01 X29.3098 Y25.9993 
G01 X29.2680 Y26.0716 
G00 Z2.0000  F3000
G00 X28.2042 Y23.3374  F3000
G01 Z-0.2000 F200.00 
G01 X28.0999 Y23.4417 F500.00 
G01 X21.0689 Y30.4727 
G01 X21.0689 Y32.0748 
G01 X26.9802 Y37.9861 
G01 X27.0613 Y37.9861 
G01 X27.2059 Y38.0149 
G01 X27.3422 Y38.0713 
G01 X27.4649 Y38.1533 
G01 X27.5692 Y38.2576 
G01 X27.8867 Y38.5751 
G01 X27.9687 Y38.6978 
G01 X28.0251 Y38.8341 
G01 X28.0539 Y38.9787 
G01 X28.0539 Y40.0123 
G01 X30.7902 Y42.7486 
G01 X33.4113 Y42.7486 
G01 X33.5559 Y42.7774 
G01 X33.6922 Y42.8338 
G01 X33.8149 Y42.9158 
G01 X33.9192 Y43.0201 
G01 X34.5542 Y43.6551 
G01 X34.6362 Y43.7778 
G01 X34.6926 Y43.9141 
G01 X34.7214 Y44.0587 
G01 X34.7214 Y44.9586 
G01 X34.7952 Y44.9586 
G01 X34.8370 Y44.9759 
G01 X34.8691 Y45.0080 
G01 X34.8864 Y45.0498 
G01 X34.8864 Y46.3952 
G01 X34.8691 Y46.4370 
G01 X34.8370 Y46.4691 
G01 X34.7952 Y46.4864 
G01 X33.1498 Y46.4864 
G01 X33.1080 Y46.4691 
G01 X33.0759 Y46.4370 
G01 X33.0586 Y46.3952 
G01 X33.0586 Y45.0498 
G01 X33.0759 Y45.0080 
G01 X33.1080 Y44.9759 
G01 X33.1498 Y44.9586 
G01 X33.2236 Y44.9586 
G01 X33.2236 Y44.4427 
G01 X33.0273 Y44.2464 
G01 X30.4062 Y44.2464 
G01 X30.2616 Y44.2176 
G01 X30.1253 Y44.1612 
G01 X30.0026 Y44.0792 
G01 X26.8276 Y40.9042 
G01 X26.7233 Y40.7999 
G01 X26.6413 Y40.6772 
G01 X26.5849 Y40.5409 
G01 X26.5561 Y40.3963 
G01 X26.5561 Y39.4759 
G01 X26.4516 Y39.4551 
G01 X26.3153 Y39.3987 
G01 X26.1926 Y39.3167 
G01 X19.8426 Y32.9667 
G01 X19.7383 Y32.8624 
G01 X19.6563 Y32.7397 
G01 X19.5999 Y32.6034 
G01 X19.5711 Y32.4588 
G01 X19.5711 Y30.0887 
G01 X19.5999 Y29.9441 
G01 X19.6563 Y29.8078 
G01 X19.7383 Y29.6851 
G01 X19.8426 Y29.5808 
G01 X26.8736 Y22.5498 
G01 X26.8736 Y20.9028 
G01 X26.8463 Y20.8619 
G01 X26.7803 Y20.7025 
G01 X26.7466 Y20.5333 
G01 X26.7466 Y18.8367 
G01 X26.7803 Y18.6675 
G01 X26.8463 Y18.5081 
G01 X26.9421 Y18.3646 
G01 X27.0641 Y18.2426 
G01 X27.2076 Y18.1468 
G01 X27.3670 Y18.0808 
G01 X27.5362 Y18.0471 
G01 X27.7088 Y18.0471 
G01 X27.8780 Y18.0808 
G01 X28.0374 Y18.1468 
G01 X28.1809 Y18.2426 
G01 X28.3029 Y18.3646 
G01 X28.3987 Y18.5081 
G01 X28.4647 Y18.6675 
G01 X28.4984 Y18.8367 
G01 X28.4984 Y20.5333 
G01 X28.4647 Y20.7025 
G01 X28.3987 Y20.8619 
G01 X28.3714 Y20.9028 
G01 X28.3714 Y22.9338 
G01 X28.3426 Y23.0784 
G01 X28.2862 Y23.2147 
G01 X28.2042 Y23.3374 
G00 Z2.0000  F3000
G00 X25.6642 Y23.3374  F3000
G01 Z-0.2000 F200.00 
G01 X25.5599 Y23.4417 F500.00 
G01 X18.5289 Y30.4727 
G01 X18.5289 Y32.3923 
G01 X25.6642 Y39.5276 
G01 X25.7462 Y39.6503 
G01 X25.8026 Y39.7866 
G01 X25.8314 Y39.9312 
G01 X25.8314 Y40.6473 
G01 X30.1577 Y44.9736 
G01 X30.5736 Y44.9736 
G01 X30.6098 Y44.9586 
G01 X32.2552 Y44.9586 
G01 X32.2970 Y44.9759 
G01 X32.3291 Y45.0080 
G01 X32.3464 Y45.0498 
G01 X32.3464 Y46.3952 
G01 X32.3291 Y46.4370 
G01 X32.2970 Y46.4691 
G01 X32.2552 Y46.4864 
G01 X30.6098 Y46.4864 
G01 X30.5736 Y46.4714 
G01 X29.7737 Y46.4714 
G01 X29.6291 Y46.4426 
G01 X29.4928 Y46.3862 
G01 X29.3701 Y46.3042 
G01 X24.5008 Y41.4349 
G01 X24.4188 Y41.3122 
G01 X24.3624 Y41.1759 
G01 X24.3336 Y41.0313 
G01 X24.3336 Y40.3152 
G01 X17.3026 Y33.2842 
G01 X17.1983 Y33.1799 
G01 X17.1163 Y33.0572 
G01 X17.0599 Y32.9209 
G01 X17.0311 Y32.7763 
G01 X17.0311 Y30.0887 
G01 X17.0599 Y29.9441 
G01 X17.1163 Y29.8078 
G01 X17.1983 Y29.6851 
G01 X17.3026 Y29.5808 
G01 X24.3336 Y22.5498 
G01 X24.3336 Y20.9028 
G01 X24.3063 Y20.8619 
G01 X24.2403 Y20.7025 
G01 X24.2066 Y20.5333 
G01 X24.2066 Y18.8367 
G01 X24.2403 Y18.6675 
G01 X24.3063 Y18.5081 
G01 X24.4021 Y18.3646 
G01 X24.5241 Y18.2426 
G01 X24.6676 Y18.1468 
G01 X24.8270 Y18.0808 
G01 X24.9962 Y18.0471 
G01 X25.1688 Y18.0471 
G01 X25.3380 Y18.0808 
G01 X25.4974 Y18.1468 
G01 X25.6409 Y18.2426 
G01 X25.7629 Y18.3646 
G01 X25.8587 Y18.5081 
G01 X25.9247 Y18.6675 
G01 X25.9584 Y18.8367 
G01 X25.9584 Y20.5333 
G01 X25.9247 Y20.7025 
G01 X25.8587 Y20.8619 
G01 X25.8314 Y20.9028 
G01 X25.8314 Y22.9338 
G01 X25.8026 Y23.0784 
G01 X25.7462 Y23.2147 
G01 X25.6642 Y23.3374 
G00 Z2.0000  F3000
G00 X23.2229 Y21.0054  F3000
G01 Z-0.2000 F200.00 
