;(.../Electronics/Eagle/pcb-gcode/pcb-gcode.ulp)
;(Copyright 2005 - 2012 by John Johnson)
;(See readme.txt for licensing terms.)
;(This file generated from the board:)
;(.../RepRap-MultiFilament/Electronics/multifilament.brd)
;(Current profile is .../pcb-gcode/profiles/generic.pp  )
;(This file generated 06/02/2019 15:39)
;(Settings from pcb-machine.h)
;(spindle on time = 1000.0000)
;(spindle speed = 20000.0000)
;(tool change at 0.0000 0.0000 5.0000 )
;(feed rate xy = F0.00  )
;(feed rate z  = F200.00 )
;(Z Axis Settings)
;(  High     Up        Down     Drill)
;(5.0000 	2.0000 	-0.2000 	-2.0000 )
;(Settings from pcb-defaults.h)
;(isolate min = 0.0250)
;(isolate max = 0.5000)
;(isolate step = 0.0800)
;(Generated top outlines, top drill, )
;(Unit of measure: mm)
;( Tool|       Size       |  Min Sub |  Max Sub |   Count )
;( T01  0.600mm 0.0236in 0.0000in 0.0000in )
;( T02  1.000mm 0.0394in 0.0000in 0.0000in )
;( T03  1.016mm 0.0400in 0.0000in 0.0000in )
;(Metric Mode)
G21
;(Absolute Coordinates)
G90
;S20000
G00 Z5.0000  F3000
G00 X0.0000 Y0.0000  F3000
;M03 S1
G04 P1000.000000
;M03 S0
;M06 T01  ; 0.6000 
G01 Z0.0000 F200.00 
;M06 
G00 Z2.0000  F3000
;M03 S1
G04 P1000.000000
G00 X11.4300 Y22.5425  F3000
G01 Z-2.0000 F200.00 
G00 Z2.0000  F3000
G00 X19.0500 Y23.1775  F3000
G01 Z-2.0000 F200.00 
G00 Z2.0000  F3000
G00 X19.0500 Y25.4000  F3000
G01 Z-2.0000 F200.00 
G00 Z2.0000  F3000
G00 X26.6700 Y27.3050  F3000
G01 Z-2.0000 F200.00 
G00 Z2.0000  F3000
G00 X23.8125 Y32.0675  F3000
G01 Z-2.0000 F200.00 
G00 Z2.0000  F3000
G00 X11.4300 Y32.0675  F3000
G01 Z-2.0000 F200.00 
G00 Z2.0000  F3000
G00 X19.0500 Y16.1925  F3000
G01 Z-2.0000 F200.00 
G00 Z2.0000  F3000
G00 X29.2100 Y13.0175  F3000
G01 Z-2.0000 F200.00 
G00 Z2.0000  F3000
G00 X34.6075 Y8.2550  F3000
G01 Z-2.0000 F200.00 
G00 Z2.0000  F3000
G00 X42.8625 Y6.3500  F3000
G01 Z-2.0000 F200.00 
G00 Z2.0000  F3000
G00 X58.7375 Y25.0825  F3000
G01 Z-2.0000 F200.00 
G00 Z2.0000  F3000
G00 X65.4050 Y25.0825  F3000
G01 Z-2.0000 F200.00 
G00 Z2.0000  F3000
G00 X47.9425 Y37.4650  F3000
G01 Z-2.0000 F200.00 
G00 Z2.0000  F3000
G00 X33.0200 Y40.9575  F3000
G01 Z-2.0000 F200.00 
G00 Z2.0000  F3000
;M03 S0
G00 Z5.0000  F3000
G00 X0.0000 Y0.0000  F3000
;M06 T02  ; 1.0000 
G01 Z0.0000 F200.00 
;M06 
G00 Z2.0000  F3000
;M03 S1
G04 P1000.000000
G00 X18.7960 Y50.8000  F3000
G01 Z-2.0000 F200.00 
G00 Z2.0000  F3000
G00 X21.3360 Y50.8000  F3000
G01 Z-2.0000 F200.00 
G00 Z2.0000  F3000
G00 X23.8760 Y50.8000  F3000
G01 Z-2.0000 F200.00 
G00 Z2.0000  F3000
G00 X26.4160 Y50.8000  F3000
G01 Z-2.0000 F200.00 
G00 Z2.0000  F3000
G00 X28.9560 Y50.8000  F3000
G01 Z-2.0000 F200.00 
G00 Z2.0000  F3000
G00 X31.4960 Y50.8000  F3000
G01 Z-2.0000 F200.00 
G00 Z2.0000  F3000
G00 X34.0360 Y50.8000  F3000
G01 Z-2.0000 F200.00 
G00 Z2.0000  F3000
G00 X36.5760 Y50.8000  F3000
G01 Z-2.0000 F200.00 
G00 Z2.0000  F3000
G00 X39.1160 Y50.8000  F3000
G01 Z-2.0000 F200.00 
G00 Z2.0000  F3000
G00 X41.6560 Y50.8000  F3000
G01 Z-2.0000 F200.00 
G00 Z2.0000  F3000
G00 X45.7200 Y50.8000  F3000
G01 Z-2.0000 F200.00 
G00 Z2.0000  F3000
G00 X48.2600 Y50.8000  F3000
G01 Z-2.0000 F200.00 
G00 Z2.0000  F3000
G00 X50.8000 Y50.8000  F3000
G01 Z-2.0000 F200.00 
G00 Z2.0000  F3000
G00 X53.3400 Y50.8000  F3000
G01 Z-2.0000 F200.00 
G00 Z2.0000  F3000
G00 X55.8800 Y50.8000  F3000
G01 Z-2.0000 F200.00 
G00 Z2.0000  F3000
G00 X58.4200 Y50.8000  F3000
G01 Z-2.0000 F200.00 
G00 Z2.0000  F3000
G00 X60.9600 Y50.8000  F3000
G01 Z-2.0000 F200.00 
G00 Z2.0000  F3000
G00 X63.5000 Y50.8000  F3000
G01 Z-2.0000 F200.00 
G00 Z2.0000  F3000
G00 X63.5000 Y2.5400  F3000
G01 Z-2.0000 F200.00 
G00 Z2.0000  F3000
G00 X60.9600 Y2.5400  F3000
G01 Z-2.0000 F200.00 
G00 Z2.0000  F3000
G00 X58.4200 Y2.5400  F3000
G01 Z-2.0000 F200.00 
G00 Z2.0000  F3000
G00 X55.8800 Y2.5400  F3000
G01 Z-2.0000 F200.00 
G00 Z2.0000  F3000
G00 X53.3400 Y2.5400  F3000
G01 Z-2.0000 F200.00 
G00 Z2.0000  F3000
G00 X50.8000 Y2.5400  F3000
G01 Z-2.0000 F200.00 
G00 Z2.0000  F3000
G00 X45.7200 Y2.5400  F3000
G01 Z-2.0000 F200.00 
G00 Z2.0000  F3000
G00 X43.1800 Y2.5400  F3000
G01 Z-2.0000 F200.00 
G00 Z2.0000  F3000
G00 X40.6400 Y2.5400  F3000
G01 Z-2.0000 F200.00 
G00 Z2.0000  F3000
G00 X38.1000 Y2.5400  F3000
G01 Z-2.0000 F200.00 
G00 Z2.0000  F3000
G00 X35.5600 Y2.5400  F3000
G01 Z-2.0000 F200.00 
G00 Z2.0000  F3000
G00 X33.0200 Y2.5400  F3000
G01 Z-2.0000 F200.00 
G00 Z2.0000  F3000
;M03 S0
G00 Z5.0000  F3000
G00 X0.0000 Y0.0000  F3000
;M06 T03  ; 1.0160 
G01 Z0.0000 F200.00 
;M06 
G00 Z2.0000  F3000
;M03 S1
G04 P1000.000000
G00 X6.9850 Y36.5125  F3000
G01 Z-2.0000 F200.00 
G00 Z2.0000  F3000
G00 X6.9850 Y39.0525  F3000
G01 Z-2.0000 F200.00 
G00 Z2.0000  F3000
G00 X16.1925 Y46.0375  F3000
G01 Z-2.0000 F200.00 
G00 Z2.0000  F3000
G00 X18.7325 Y46.0375  F3000
G01 Z-2.0000 F200.00 
G00 Z2.0000  F3000
G00 X21.2725 Y46.0375  F3000
G01 Z-2.0000 F200.00 
G00 Z2.0000  F3000
G00 X23.8125 Y46.0375  F3000
G01 Z-2.0000 F200.00 
G00 Z2.0000  F3000
G00 X22.5425 Y19.6850  F3000
G01 Z-2.0000 F200.00 
G00 Z2.0000  F3000
G00 X20.0025 Y19.6850  F3000
G01 Z-2.0000 F200.00 
G00 Z2.0000  F3000
G00 X25.0825 Y19.6850  F3000
G01 Z-2.0000 F200.00 
G00 Z2.0000  F3000
G00 X27.6225 Y19.6850  F3000
G01 Z-2.0000 F200.00 
G00 Z2.0000  F3000
G00 X30.1625 Y19.6850  F3000
G01 Z-2.0000 F200.00 
G00 Z2.0000  F3000
G00 X32.7025 Y19.6850  F3000
G01 Z-2.0000 F200.00 
G00 Z2.0000  F3000
G00 X41.5925 Y20.0025  F3000
G01 Z-2.0000 F200.00 
G00 Z2.0000  F3000
G00 X44.1325 Y20.0025  F3000
G01 Z-2.0000 F200.00 
G00 Z2.0000  F3000
G00 X46.6725 Y20.0025  F3000
G01 Z-2.0000 F200.00 
G00 Z2.0000  F3000
G00 X49.2125 Y20.0025  F3000
G01 Z-2.0000 F200.00 
G00 Z2.0000  F3000
G00 X51.7525 Y20.0025  F3000
G01 Z-2.0000 F200.00 
G00 Z2.0000  F3000
G00 X54.2925 Y20.0025  F3000
G01 Z-2.0000 F200.00 
G00 Z2.0000  F3000
G00 X56.8325 Y20.0025  F3000
G01 Z-2.0000 F200.00 
G00 Z2.0000  F3000
G00 X59.3725 Y20.0025  F3000
G01 Z-2.0000 F200.00 
G00 Z2.0000  F3000
G00 X64.7700 Y15.2400  F3000
G01 Z-2.0000 F200.00 
G00 Z2.0000  F3000
G00 X64.7700 Y12.7000  F3000
G01 Z-2.0000 F200.00 
G00 Z2.0000  F3000
G00 X64.7700 Y10.1600  F3000
G01 Z-2.0000 F200.00 
G00 Z2.0000  F3000
G00 X64.7700 Y7.6200  F3000
G01 Z-2.0000 F200.00 
G00 Z2.0000  F3000
;T01 
G00 Z5.0000  F3000
;M03 S0
M0
