; generated by Slic3r 1.2.9 on 2019-09-30 at 15:11:48

; external perimeters extrusion width = 0.40mm
; perimeters extrusion width = 0.40mm
; infill extrusion width = 0.40mm
; solid infill extrusion width = 0.40mm
; top infill extrusion width = 0.40mm

M107
M83
T0
M116
G21 ; set units to millimeters
G90 ; use absolute coordinates
M83 ; use relative distances for extrusion
G1 E-3.50000 F1500.00000
G1 Z0.400 F15000.000
G1 X12.343 Y-5.511 F15000.000
G1 Z0.300 F15000.000
G1 E3.50000 F1500.00000
G1 X12.753 Y-4.593 E0.07751 F960.000
G1 X12.843 Y-4.338 E0.02080
G1 X13.339 Y-2.432 E0.15182
G1 X13.386 Y-2.158 E0.02138
G1 X13.558 Y-0.139 E0.15620
G1 X13.558 Y0.139 E0.02138
G1 X13.386 Y2.158 E0.15620
G1 X13.339 Y2.432 E0.02138
G1 X12.828 Y4.393 E0.15620
G1 X12.736 Y4.655 E0.02138
G1 X11.901 Y6.502 E0.15620
G1 X11.766 Y6.744 E0.02138
G1 X10.631 Y8.423 E0.15620
G1 X10.457 Y8.639 E0.02138
G1 X9.054 Y10.102 E0.15620
G1 X8.846 Y10.285 E0.02138
G1 X7.216 Y11.491 E0.15620
G1 X6.980 Y11.636 E0.02138
G1 X5.170 Y12.549 E0.15620
G1 X4.913 Y12.652 E0.02138
G1 X2.975 Y13.246 E0.15620
G1 X2.704 Y13.304 E0.02138
G1 X0.693 Y13.561 E0.15620
G1 X0.416 Y13.573 E0.02138
G1 X-1.609 Y13.487 E0.15620
G1 X-1.891 Y13.450 E0.02196
G1 X-3.925 Y13.002 E0.16052
G1 X-4.183 Y12.923 E0.02080
G1 X-6.011 Y12.188 E0.15182
G1 X-6.259 Y12.063 E0.02138
G1 X-7.985 Y11.000 E0.15620
G1 X-8.208 Y10.835 E0.02138
G1 X-9.729 Y9.496 E0.15620
G1 X-9.921 Y9.296 E0.02138
G1 X-11.195 Y7.719 E0.15620
G1 X-11.350 Y7.489 E0.02138
G1 X-12.339 Y5.720 E0.15620
G1 X-12.453 Y5.467 E0.02138
G1 X-13.128 Y3.556 E0.15620
G1 X-13.198 Y3.288 E0.02138
G1 X-13.540 Y1.290 E0.15620
G1 X-13.564 Y1.013 E0.02138
G1 X-13.564 Y-1.013 E0.15620
G1 X-13.540 Y-1.290 E0.02138
G1 X-13.198 Y-3.288 E0.15620
G1 X-13.126 Y-3.563 E0.02196
G1 X-12.423 Y-5.524 E0.16052
G1 X-12.311 Y-5.769 E0.02080
G1 X-11.350 Y-7.489 E0.15182
G1 X-11.195 Y-7.719 E0.02138
G1 X-9.921 Y-9.296 E0.15620
G1 X-9.729 Y-9.496 E0.02138
G1 X-8.208 Y-10.835 E0.15620
G1 X-7.985 Y-11.000 E0.02138
G1 X-6.259 Y-12.063 E0.15620
G1 X-6.011 Y-12.188 E0.02138
G1 X-4.131 Y-12.944 E0.15620
G1 X-3.865 Y-13.025 E0.02138
G1 X-1.884 Y-13.452 E0.15620
G1 X-1.601 Y-13.487 E0.02196
G1 X0.480 Y-13.566 E0.16052
G1 X0.750 Y-13.554 E0.02080
G1 X2.704 Y-13.304 E0.15182 F960.000
G1 X2.975 Y-13.246 E0.02138
G1 X4.913 Y-12.652 E0.15620
G1 X5.170 Y-12.549 E0.02138
G1 X6.980 Y-11.636 E0.15620
G1 X7.216 Y-11.491 E0.02138
G1 X8.846 Y-10.285 E0.15620
G1 X9.054 Y-10.102 E0.02138
G1 X10.457 Y-8.639 E0.15620
G1 X10.631 Y-8.423 E0.02138
G1 X11.766 Y-6.744 E0.15620
G1 X11.904 Y-6.495 E0.02196
G1 X12.319 Y-5.566 E0.07838
G1 E-3.50000 F1500.00000
G1 Z0.700 F15000.000
G1 X-3.936 Y4.772 F15000.000
G1 Z0.300 F15000.000
G1 E3.50000 F1500.00000
G1 X-3.879 Y4.861 E0.00814 F600.000
G1 X-3.716 Y5.384 E0.04221
G1 X-3.685 Y5.890 E0.03907
G1 X-3.777 Y6.389 E0.03907
G1 X-3.985 Y6.851 E0.03907
G1 X-4.298 Y7.250 E0.03907
G1 X-4.697 Y7.563 E0.03907
G1 X-5.159 Y7.771 E0.03907
G1 X-5.658 Y7.862 E0.03907
G1 X-6.164 Y7.831 E0.03907
G1 X-6.648 Y7.681 E0.03907
G1 X-7.081 Y7.418 E0.03907
G1 X-7.440 Y7.060 E0.03907
G1 X-7.702 Y6.626 E0.03907
G1 X-7.854 Y6.139 E0.03933
G1 X-7.876 Y5.596 E0.04183
G1 X-7.792 Y5.137 E0.03597
G1 X-7.584 Y4.675 E0.03907
G1 X-7.272 Y4.276 E0.03907
G1 X-6.870 Y3.961 E0.03933
G1 X-6.371 Y3.748 E0.04183
G1 X-5.912 Y3.664 E0.03597 F600.000
G1 X-5.405 Y3.694 E0.03907
G1 X-4.921 Y3.845 E0.03907
G1 X-4.488 Y4.108 E0.03907
G1 X-4.132 Y4.463 E0.03876
G1 X-3.968 Y4.721 E0.02357
G1 X-3.830 Y4.767 F15000.000
G1 E-3.50000 F1500.00000
G1 Z0.700 F15000.000
G1 X-4.358 Y8.123 F15000.000
G1 X-4.600 Y9.081 F15000.000
G1 X-4.844 Y9.054 F15000.000
G1 X-5.543 Y8.923 F15000.000
G1 X-5.618 Y8.516 F15000.000
G1 X-6.592 Y8.364 F15000.000
G1 Z0.300 F15000.000
G1 E3.50000 F1500.00000
G1 X-6.279 Y8.461 E0.02525 F600.000
G1 X-5.619 Y8.501 E0.05096
G1 X-4.968 Y8.382 E0.05097
G1 X-4.365 Y8.111 E0.05096
G1 X-3.845 Y7.703 E0.05096
G1 X-3.437 Y7.182 E0.05097
G1 X-3.166 Y6.579 E0.05096
G1 X-3.046 Y5.929 E0.05096
G1 X-3.072 Y5.506 E0.03265
G1 X-2.267 Y5.933 E0.07024
G1 X-0.784 Y6.297 E0.11770 F600.000
G1 X0.744 Y6.297 E0.11769
G1 X2.266 Y5.912 E0.12101
G1 X2.999 Y5.526 E0.06385
G1 X3.043 Y6.257 E0.05648
G1 X3.240 Y6.889 E0.05096
G1 X3.582 Y7.455 E0.05096
G1 X4.050 Y7.922 E0.05097
G1 X4.615 Y8.264 E0.05097
G1 X5.247 Y8.461 E0.05096
G1 X5.907 Y8.501 E0.05096
G1 X6.501 Y8.392 E0.04654
G1 X6.621 Y8.670 E0.02336
G1 X5.725 Y9.333 E0.08592
G1 X4.065 Y10.170 E0.14327
G1 X2.288 Y10.715 E0.14327
G1 X0.444 Y10.951 E0.14327
G1 X-1.412 Y10.872 E0.14309
G1 X-3.282 Y10.460 E0.14759
G1 X-4.956 Y9.787 E0.13907
G1 X-6.539 Y8.812 E0.14327
G1 X-6.743 Y8.633 E0.02093
G1 X-6.621 Y8.416 E0.01917
G1 X3.673 Y6.142 F15000.000
G1 X3.642 Y5.636 E0.03907 F600.000
G1 X3.734 Y5.137 E0.03907
G1 X3.942 Y4.675 E0.03907
G1 X4.254 Y4.276 E0.03907
G1 X4.656 Y3.961 E0.03933
G1 X5.155 Y3.748 E0.04183
G1 X5.614 Y3.664 E0.03597 F600.000
G1 X6.120 Y3.694 E0.03907
G1 X6.604 Y3.845 E0.03907
G1 X7.041 Y4.109 E0.03933
G1 X7.418 Y4.500 E0.04183
G1 X7.659 Y4.900 E0.03597
G1 X7.810 Y5.384 E0.03907
G1 X7.840 Y5.890 E0.03907
G1 X7.749 Y6.389 E0.03907
G1 X7.541 Y6.851 E0.03907
G1 X7.228 Y7.250 E0.03907
G1 X6.829 Y7.563 E0.03907
G1 X6.367 Y7.771 E0.03907
G1 X5.868 Y7.862 E0.03907
G1 X5.362 Y7.831 E0.03907
G1 X4.878 Y7.681 E0.03907
G1 X4.444 Y7.418 E0.03907
G1 X4.086 Y7.060 E0.03907
G1 X3.824 Y6.626 E0.03907
G1 X3.691 Y6.199 E0.03445
G1 X3.302 Y5.993 F15000.000
G1 X2.966 Y4.825 F15000.000
G1 X2.037 Y5.315 E0.08095 F720.000
G1 X0.665 Y5.662 E0.10906
G1 X-0.707 Y5.662 E0.10567
G1 X-2.038 Y5.334 E0.10570
G1 X-3.289 Y4.671 E0.10907
G1 X-4.289 Y3.783 E0.10309
G1 X-5.064 Y2.662 E0.10500
G1 X-5.554 Y1.381 E0.10569
G1 X-5.723 Y0.021 E0.10565
G1 X-5.554 Y-1.381 E0.10882
G1 X-5.064 Y-2.662 E0.10574
G1 X-4.287 Y-3.785 E0.10518
G1 X-3.269 Y-4.688 E0.10491
G1 X-2.080 Y-5.315 E0.10358
G1 X-0.708 Y-5.662 E0.10906
G1 X0.663 Y-5.662 E0.10567
G1 X1.995 Y-5.334 E0.10570
G1 X3.246 Y-4.671 E0.10907
G1 X3.609 Y-4.348 E0.03752
G1 X3.861 Y-4.556 E0.02520
G1 X3.714 Y-4.804 E0.02222
G1 X3.574 Y-5.251 E0.03612
G1 X3.537 Y-5.795 E0.04203
G1 X3.627 Y-6.281 E0.03802
G1 X3.831 Y-6.736 E0.03848
G1 X4.142 Y-7.137 E0.03905
G1 X4.542 Y-7.453 E0.03934
G1 X5.042 Y-7.671 E0.04200
G1 X5.502 Y-7.755 E0.03603
G1 X6.008 Y-7.726 E0.03907
G1 X6.493 Y-7.577 E0.03912
G1 X6.931 Y-7.314 E0.03937
G1 X7.310 Y-6.923 E0.04196
G1 X7.551 Y-6.523 E0.03601
G1 X7.704 Y-6.036 E0.03936
G1 X7.727 Y-5.492 E0.04194
G1 X7.643 Y-5.032 E0.03599
G1 X7.435 Y-4.570 E0.03911
G1 X7.124 Y-4.172 E0.03894
G1 X6.744 Y-3.872 E0.03727
G1 X6.258 Y-3.648 E0.04121
G1 X5.764 Y-3.558 E0.03870
G1 X5.269 Y-3.587 E0.03820
G1 X4.751 Y-3.751 E0.04191
G1 X4.551 Y-3.873 E0.01807
G1 X4.339 Y-3.648 E0.02381
G1 X5.021 Y-2.662 E0.09237
G1 X5.518 Y-1.353 E0.10790
G1 X5.678 Y-0.035 E0.10239
G1 X5.508 Y1.387 E0.11036
G1 X5.021 Y2.663 E0.10524
G1 X4.244 Y3.785 E0.10514 F720.000
G1 X3.225 Y4.688 E0.10491
G1 X3.019 Y4.797 E0.01800
G1 X2.950 Y5.224 F15000.000
G1 X6.144 Y1.544 F15000.000
G1 X6.613 Y1.442 F15000.000
G1 X6.525 Y0.024 F15000.000
G1 X6.526 Y-0.012 F15000.000
G1 X6.333 Y-0.035 F15000.000
G1 X6.034 Y-1.786 F15000.000
G1 X5.616 Y-2.885 E0.09063 F600.000
G1 X6.452 Y-3.037 E0.06543
G1 X7.079 Y-3.327 E0.05320
G1 X7.577 Y-3.720 E0.04895
G1 X7.983 Y-4.238 E0.05076
G1 X8.255 Y-4.842 E0.05101
G1 X8.366 Y-5.448 E0.04744
G1 X8.336 Y-6.146 E0.05388
G1 X8.106 Y-6.877 E0.05905
G1 X8.367 Y-7.031 E0.02330
G1 X8.506 Y-6.886 E0.01553
G1 X9.546 Y-5.347 E0.14309 F600.000
G1 X10.327 Y-3.599 E0.14759
G1 X10.606 Y-2.527 E0.08535
G1 X9.809 Y-2.723 E0.06324
G1 X9.148 Y-2.723 E0.05096
G1 X8.506 Y-2.565 E0.05096
G1 X7.920 Y-2.258 E0.05096
G1 X7.425 Y-1.819 E0.05096
G1 X7.049 Y-1.275 E0.05096
G1 X6.815 Y-0.656 E0.05096
G1 X6.735 Y0.000 E0.05097
G1 X6.815 Y0.656 E0.05096
G1 X7.049 Y1.275 E0.05097
G1 X7.425 Y1.819 E0.05097
G1 X7.920 Y2.258 E0.05096
G1 X8.506 Y2.565 E0.05096
G1 X9.148 Y2.723 E0.05096
G1 X9.809 Y2.723 E0.05097
G1 X10.606 Y2.527 E0.06323
G1 X10.313 Y3.651 E0.08956
G1 X9.547 Y5.345 E0.14327
G1 X8.652 Y6.670 E0.12322
G1 X8.365 Y6.553 E0.02387
G1 X8.480 Y5.929 E0.04893
G1 X8.440 Y5.268 E0.05097
G1 X8.243 Y4.637 E0.05096
G1 X7.925 Y4.111 E0.04739
G1 X7.441 Y3.608 E0.05373
G1 X6.867 Y3.261 E0.05171
G1 X6.236 Y3.065 E0.05096
G1 X5.563 Y3.024 E0.05194
G1 X6.130 Y1.541 E0.12237
G1 X6.318 Y-0.035 E0.12232
G1 X6.140 Y-1.507 E0.11424
G1 X6.055 Y-1.729 E0.01835
G1 X2.900 Y-5.590 F15000.000
G1 X2.748 Y-5.824 F15000.000
G1 X2.468 Y-6.398 F15000.000
G1 X2.229 Y-5.946 F15000.000
G1 X-0.016 Y-6.297 F15000.000
G1 X-0.787 Y-6.297 E0.05943 F600.000
G1 X-2.309 Y-5.912 E0.12101
G1 X-3.042 Y-5.526 E0.06385
G1 X-3.086 Y-6.257 E0.05648
G1 X-3.283 Y-6.889 E0.05096
G1 X-3.601 Y-7.415 E0.04739
G1 X-4.084 Y-7.917 E0.05373
G1 X-4.659 Y-8.264 E0.05171
G1 X-5.290 Y-8.461 E0.05096
G1 X-5.950 Y-8.501 E0.05096
G1 X-6.606 Y-8.381 E0.05140
G1 X-6.733 Y-8.642 E0.02236
G1 X-6.539 Y-8.812 E0.01987
G1 X-4.956 Y-9.787 E0.14327
G1 X-3.231 Y-10.480 E0.14327
G1 X-1.416 Y-10.871 E0.14309
G1 X0.498 Y-10.944 E0.14759
G1 X2.288 Y-10.715 E0.13907
G1 X4.065 Y-10.170 E0.14327 F600.000
G1 X5.725 Y-9.333 E0.14327
G1 X6.937 Y-8.437 E0.11616
G1 X6.792 Y-8.150 E0.02480
G1 X6.121 Y-8.357 E0.05409
G1 X5.462 Y-8.394 E0.05089
G1 X4.855 Y-8.283 E0.04753
G1 X4.213 Y-8.003 E0.05400
G1 X3.687 Y-7.587 E0.05166
G1 X3.282 Y-7.066 E0.05090
G1 X3.016 Y-6.471 E0.05020
G1 X2.854 Y-5.598 E0.06840
G1 X2.223 Y-5.933 E0.05504
G1 X0.740 Y-6.297 E0.11770
G1 X0.044 Y-6.297 E0.05363
G1 X-3.712 Y-6.070 F15000.000
G1 X-3.685 Y-5.636 E0.03351 F600.000
G1 X-3.777 Y-5.137 E0.03907
G1 X-3.985 Y-4.675 E0.03907
G1 X-4.298 Y-4.276 E0.03907
G1 X-4.697 Y-3.963 E0.03907
G1 X-5.159 Y-3.755 E0.03907
G1 X-5.658 Y-3.664 E0.03907
G1 X-6.164 Y-3.694 E0.03907
G1 X-6.648 Y-3.845 E0.03907
G1 X-7.081 Y-4.108 E0.03907
G1 X-7.440 Y-4.466 E0.03907
G1 X-7.702 Y-4.900 E0.03907
G1 X-7.854 Y-5.387 E0.03933
G1 X-7.876 Y-5.929 E0.04183
G1 X-7.792 Y-6.389 E0.03597
G1 X-7.584 Y-6.851 E0.03907
G1 X-7.272 Y-7.250 E0.03907
G1 X-6.870 Y-7.565 E0.03933
G1 X-6.371 Y-7.778 E0.04183
G1 X-5.912 Y-7.862 E0.03597 F600.000
G1 X-5.405 Y-7.831 E0.03907
G1 X-4.921 Y-7.681 E0.03907
G1 X-4.485 Y-7.417 E0.03933
G1 X-4.108 Y-7.025 E0.04183
G1 X-3.867 Y-6.626 E0.03597
G1 X-3.715 Y-6.130 E0.03998
G1 X-3.342 Y-5.917 F15000.000
G1 X-6.324 Y0.339 F15000.000
G1 X-6.175 Y1.536 E0.09299 F600.000
G1 X-5.598 Y3.046 E0.12454
G1 X-5.950 Y3.025 E0.02719
G1 X-6.555 Y3.136 E0.04739
G1 X-7.196 Y3.409 E0.05373
G1 X-7.724 Y3.823 E0.05171
G1 X-8.132 Y4.344 E0.05096
G1 X-8.404 Y4.947 E0.05096
G1 X-8.514 Y5.552 E0.04739
G1 X-8.486 Y6.248 E0.05373
G1 X-8.404 Y6.509 E0.02107
G1 X-8.683 Y6.658 E0.02431
G1 X-9.103 Y6.138 E0.05152
G1 X-10.009 Y4.515 E0.14327
G1 X-10.718 Y2.510 E0.16386
G1 X-9.852 Y2.723 E0.06868
G1 X-9.191 Y2.723 E0.05097
G1 X-8.549 Y2.565 E0.05096
G1 X-7.984 Y2.268 E0.04916
G1 X-7.471 Y1.823 E0.05234
G1 X-7.093 Y1.275 E0.05135
G1 X-6.858 Y0.656 E0.05096
G1 X-6.778 Y0.000 E0.05096
G1 X-6.858 Y-0.656 E0.05097
G1 X-7.084 Y-1.253 E0.04916
G1 X-7.465 Y-1.816 E0.05234
G1 X-7.963 Y-2.258 E0.05135
G1 X-8.549 Y-2.565 E0.05096
G1 X-9.191 Y-2.723 E0.05097
G1 X-9.852 Y-2.723 E0.05097
G1 X-10.719 Y-2.510 E0.06876
G1 X-9.983 Y-4.562 E0.16804
G1 X-9.103 Y-6.138 E0.13907
G1 X-8.681 Y-6.660 E0.05173
G1 X-8.411 Y-6.536 E0.02285
G1 X-8.514 Y-5.974 E0.04404 F600.000
G1 X-8.486 Y-5.278 E0.05373
G1 X-8.286 Y-4.637 E0.05171
G1 X-7.944 Y-4.071 E0.05096
G1 X-7.476 Y-3.604 E0.05097
G1 X-6.910 Y-3.261 E0.05097
G1 X-6.279 Y-3.065 E0.05096
G1 X-5.606 Y-3.024 E0.05192
G1 X-6.176 Y-1.535 E0.12287
G1 X-6.364 Y0.022 E0.12086
G1 X-6.332 Y0.280 E0.01998
G1 X-7.436 Y0.145 F15000.000
G1 X-7.419 Y0.000 E0.01129 F720.000
G1 X-7.480 Y-0.503 E0.03907
G1 X-7.652 Y-0.958 E0.03752
G1 X-7.946 Y-1.393 E0.04045
G1 X-8.327 Y-1.731 E0.03921
G1 X-8.776 Y-1.966 E0.03907
G1 X-9.268 Y-2.088 E0.03907
G1 X-9.775 Y-2.088 E0.03907
G1 X-10.267 Y-1.966 E0.03907
G1 X-10.698 Y-1.740 E0.03752
G1 X-11.095 Y-1.396 E0.04045
G1 X-11.240 Y-1.185 E0.01975
G1 X-11.524 Y-1.301 E0.02361
G1 X-11.246 Y-2.922 E0.12676
G1 X-10.563 Y-4.826 E0.15592
G1 X-9.631 Y-6.495 E0.14729
G1 X-8.395 Y-8.025 E0.15161
G1 X-6.919 Y-9.325 E0.15161
G1 X-5.243 Y-10.357 E0.15161
G1 X-3.418 Y-11.090 E0.15161
G1 X-1.496 Y-11.504 E0.15154
G1 X0.526 Y-11.581 E0.15592
G1 X2.422 Y-11.338 E0.14729
G1 X4.303 Y-10.762 E0.15161 F720.000
G1 X6.060 Y-9.877 E0.15161
G1 X7.641 Y-8.707 E0.15161
G1 X9.002 Y-7.286 E0.15161
G1 X10.104 Y-5.657 E0.15154
G1 X10.929 Y-3.810 E0.15592
G1 X11.410 Y-1.960 E0.14729
G1 X11.467 Y-1.293 E0.05159
G1 X11.191 Y-1.194 E0.02260
G1 X11.052 Y-1.395 E0.01877
G1 X10.673 Y-1.731 E0.03907
G1 X10.224 Y-1.966 E0.03907
G1 X9.732 Y-2.088 E0.03907
G1 X9.225 Y-2.088 E0.03907
G1 X8.733 Y-1.966 E0.03907
G1 X8.284 Y-1.731 E0.03907
G1 X7.904 Y-1.395 E0.03907
G1 X7.616 Y-0.977 E0.03907
G1 X7.437 Y-0.503 E0.03907
G1 X7.375 Y0.000 E0.03907
G1 X7.437 Y0.503 E0.03907
G1 X7.616 Y0.977 E0.03907
G1 X7.904 Y1.395 E0.03907
G1 X8.284 Y1.731 E0.03907
G1 X8.733 Y1.966 E0.03907
G1 X9.225 Y2.088 E0.03907
G1 X9.732 Y2.088 E0.03907
G1 X10.224 Y1.966 E0.03907
G1 X10.655 Y1.740 E0.03752
G1 X11.051 Y1.396 E0.04045
G1 X11.191 Y1.194 E0.01891
G1 X11.467 Y1.293 E0.02260
G1 X11.410 Y1.960 E0.05159
G1 X10.914 Y3.864 E0.15161
G1 X10.104 Y5.657 E0.15161
G1 X9.002 Y7.286 E0.15161
G1 X7.641 Y8.707 E0.15161
G1 X6.060 Y9.877 E0.15161
G1 X4.303 Y10.762 E0.15161
G1 X2.422 Y11.338 E0.15161
G1 X0.471 Y11.588 E0.15161
G1 X-1.494 Y11.505 E0.15154
G1 X-3.470 Y11.069 E0.15592
G1 X-5.243 Y10.357 E0.14729
G1 X-6.919 Y9.325 E0.15161
G1 X-8.395 Y8.025 E0.15161
G1 X-9.631 Y6.495 E0.15161
G1 X-10.591 Y4.777 E0.15161
G1 X-11.246 Y2.923 E0.15161
G1 X-11.524 Y1.299 E0.12699
G1 X-11.239 Y1.184 E0.02373
G1 X-11.097 Y1.393 E0.01949
G1 X-10.716 Y1.731 E0.03921
G1 X-10.267 Y1.966 E0.03907
G1 X-9.775 Y2.088 E0.03907
G1 X-9.268 Y2.088 E0.03907
G1 X-8.776 Y1.966 E0.03907
G1 X-8.345 Y1.740 E0.03752
G1 X-7.949 Y1.396 E0.04045
G1 X-7.660 Y0.977 E0.03921
G1 X-7.480 Y0.503 E0.03907
G1 X-7.444 Y0.205 E0.02316
G1 X-7.302 Y0.088 F15000.000
G1 E-3.50000 F1500.00000
G1 Z0.700 F15000.000
G1 X-6.764 Y-0.000 F15000.000
G1 X-6.691 Y-1.599 F15000.000
G1 X-8.748 Y-3.583 F15000.000
G1 X-8.528 Y-6.633 F15000.000
G1 X-8.172 Y-7.211 F15000.000
G1 X-7.743 Y-7.719 F15000.000
G1 X-7.222 Y-8.152 F15000.000
G1 X-6.002 Y-8.794 F15000.000
G1 X1.287 Y-8.528 F15000.000
G1 X6.203 Y-8.628 F15000.000
G1 X7.402 Y-7.889 F15000.000
G1 X8.304 Y-6.841 F15000.000
G1 X9.013 Y-4.503 F15000.000
G1 X6.911 Y-2.397 F15000.000
G1 X6.637 Y-1.557 F15000.000
G1 X6.529 Y-0.693 F15000.000
G1 X6.527 Y-0.023 F15000.000
G1 X6.721 Y-0.000 F15000.000
G1 X11.435 Y-0.910 F15000.000
G1 Z0.300 F15000.000
G1 E3.50000 F1500.00000
G1 X11.531 Y-0.462 E0.03531 F720.000
G1 X11.578 Y-0.000 E0.03577
G1 X11.531 Y0.462 E0.03577
G1 X11.435 Y0.910 E0.03531
G1 E-3.50000 F1500.00000
G1 Z0.700 F15000.000
G1 X6.721 Y-0.000 F15000.000
G1 X6.637 Y-1.557 F15000.000
G1 X8.311 Y-3.348 F15000.000
G1 X9.001 Y-4.704 F15000.000
G1 X8.607 Y-6.229 F15000.000
G1 X7.890 Y-7.383 F15000.000
G1 X6.806 Y-8.323 F15000.000
G1 X3.614 Y-9.049 F15000.000
G1 X-3.417 Y-9.018 F15000.000
G1 X-5.933 Y-8.816 F15000.000
G1 X-7.216 Y-8.157 F15000.000
G1 X-7.741 Y-7.721 F15000.000
G1 X-8.177 Y-7.204 F15000.000
G1 X-8.834 Y-5.963 F15000.000
G1 X-7.635 Y-2.879 F15000.000
G1 X-6.716 Y-1.739 F15000.000
G1 X-6.574 Y-0.762 F15000.000
G1 X-6.570 Y-0.024 F15000.000
G1 X-6.764 Y-0.000 F15000.000
G1 X-11.545 Y0.930 F15000.000
G1 Z0.300 F15000.000
G1 E3.50000 F1500.00000
G1 X-11.599 Y-0.040 E0.07482 F720.000
G1 X-11.545 Y-0.931 E0.06883
G1 X-9.720 Y-3.109 F15000.000
G1 X-10.025 Y-3.414 E0.03415 F960.000
G1 X-9.781 Y-4.093 E0.05707
G1 X-8.733 Y-3.045 E0.11730
G1 X-8.855 Y-5.012 F15000.000
G1 X-9.155 Y-5.312 E0.03357 F960.000
G1 X-9.501 Y-4.735 E0.05321
G1 X-6.478 Y-1.713 E0.33808
G1 X-6.223 Y-2.380 E0.05652
G1 X-6.535 Y-2.692 E0.03494
G1 X-8.426 Y-6.893 F15000.000
G1 X-7.901 Y-7.552 E0.13644 F960.000
G1 X-7.771 Y-7.690 E0.03076
G1 X-6.956 Y-8.374 E0.17223
G1 X-5.343 Y-9.132 F15000.000
G1 X-5.049 Y-8.838 E0.03397 F960.000
