; generated by Slic3r 1.2.9 on 2019-10-01 at 14:07:42

; external perimeters extrusion width = 0.40mm
; perimeters extrusion width = 0.40mm
; infill extrusion width = 0.40mm
; solid infill extrusion width = 0.40mm
; top infill extrusion width = 0.40mm

M107
M83
T0
M116
G21 ; set units to millimeters
G90 ; use absolute coordinates
M83 ; use relative distances for extrusion
G1 E-3.50000 F1500.00000
G1 Z0.400 F15000.000
G1 X10.233 Y2.146 F15000.000
G1 Z0.300 F15000.000
G1 E3.50000 F1500.00000
G1 X7.481 Y15.270 E1.03338 F960.000
G1 X7.280 Y15.886 E0.04999
G1 X7.121 Y16.216 E0.02823
G1 X6.889 Y16.586 E0.03365
G1 X6.660 Y16.872 E0.02822
G1 X6.352 Y17.181 E0.03365
G1 X6.065 Y17.409 E0.02823
G1 X5.696 Y17.642 E0.03365
G1 X5.366 Y17.800 E0.02823
G1 X4.954 Y17.945 E0.03365
G1 X4.597 Y18.026 E0.02823
G1 X4.160 Y18.075 E0.03386
G1 X-4.018 Y18.086 E0.63020
G1 X-4.637 Y18.026 E0.04798
G1 X-4.994 Y17.945 E0.02823
G1 X-5.407 Y17.800 E0.03365
G1 X-5.737 Y17.642 E0.02823
G1 X-6.106 Y17.409 E0.03365
G1 X-6.393 Y17.181 E0.02823
G1 X-6.701 Y16.872 E0.03365
G1 X-6.930 Y16.586 E0.02823
G1 X-7.160 Y16.218 E0.03343
G1 X-7.319 Y15.891 E0.02805
G1 X-7.523 Y15.267 E0.05057
G1 X-10.208 Y2.357 E1.01625
G1 X-10.536 Y0.661 E0.13307
G1 X-10.565 Y0.351 E0.02398
G1 X-10.565 Y-1.351 E0.13123
G1 X-10.536 Y-1.661 E0.02398
G1 X-10.213 Y-3.333 E0.13123
G1 X-7.465 Y-15.474 E0.95931
G1 X-7.321 Y-15.886 E0.03365
G1 X-7.162 Y-16.216 E0.02823
G1 X-6.930 Y-16.586 E0.03365
G1 X-6.700 Y-16.874 E0.02840
G1 X-6.389 Y-17.184 E0.03385
G1 X-6.104 Y-17.411 E0.02805
G1 X-5.737 Y-17.642 E0.03343
G1 X-5.407 Y-17.800 E0.02823
G1 X-4.994 Y-17.945 E0.03365
G1 X-4.637 Y-18.026 E0.02823
G1 X-4.018 Y-18.086 E0.04798
G1 X4.160 Y-18.075 E0.63020
G1 X4.594 Y-18.026 E0.03365 F960.000
G1 X4.949 Y-17.946 E0.02805
G1 X5.364 Y-17.801 E0.03385
G1 X5.696 Y-17.642 E0.02840
G1 X6.065 Y-17.409 E0.03365
G1 X6.352 Y-17.181 E0.02823
G1 X6.660 Y-16.872 E0.03365
G1 X6.889 Y-16.586 E0.02823
G1 X7.121 Y-16.216 E0.03365
G1 X7.280 Y-15.886 E0.02823
G1 X7.424 Y-15.474 E0.03365
G1 X10.401 Y-2.346 E1.03742
G1 X10.435 Y-2.122 E0.01748
G1 X10.559 Y-0.636 E0.11487
G1 X10.559 Y-0.364 E0.02099
G1 X10.435 Y1.122 E0.11487
G1 X10.245 Y2.087 E0.07583
G1 E-3.50000 F1500.00000
G1 Z0.700 F15000.000
G1 X2.642 Y9.381 F15000.000
G1 Z0.300 F15000.000
G1 E3.50000 F1500.00000
G1 X3.046 Y10.026 E0.05863 F600.000
G1 X3.297 Y10.744 E0.05863
G1 X3.382 Y11.503 E0.05888
G1 X3.269 Y12.361 E0.06666
G1 X2.977 Y13.111 E0.06205
G1 X2.492 Y13.794 E0.06454
G1 X1.829 Y14.356 E0.06696
G1 X1.075 Y14.721 E0.06457
G1 X0.254 Y14.892 E0.06463
G1 X-0.611 Y14.848 E0.06676
G1 X-1.382 Y14.618 E0.06204
G1 X-2.103 Y14.191 E0.06457
G1 X-2.716 Y13.575 E0.06696
G1 X-3.142 Y12.854 E0.06454
G1 X-3.378 Y12.051 E0.06450
G1 X-3.411 Y11.215 E0.06450
G1 X-3.246 Y10.426 E0.06214
G1 X-2.854 Y9.619 E0.06908
G1 X-2.333 Y9.004 E0.06218
G1 X-1.653 Y8.515 E0.06453
G1 X-0.844 Y8.199 E0.06692
G1 X-0.046 Y8.099 E0.06197 F600.000
G1 X0.742 Y8.184 E0.06112
G1 X1.461 Y8.437 E0.05872
G1 X2.105 Y8.843 E0.05862
G1 X2.600 Y9.339 E0.05400
G1 X3.040 Y9.337 F15000.000
G1 X0.887 Y7.546 F15000.000
G1 X6.618 Y-0.656 F15000.000
G1 X4.047 Y-6.065 F15000.000
G1 X1.332 Y-6.654 F15000.000
G1 X0.834 Y-6.667 F15000.000
G1 X0.090 Y-6.634 F15000.000
G1 X-0.010 Y-7.443 F15000.000
G1 X0.420 Y-8.151 F15000.000
G1 X-0.012 Y-8.097 E0.03350 F600.000
G1 X-0.832 Y-8.196 E0.06368
G1 X-1.605 Y-8.489 E0.06367
G1 X-2.284 Y-8.961 E0.06373
G1 X-2.855 Y-9.618 E0.06708
G1 X-3.230 Y-10.369 E0.06475
G1 X-3.409 Y-11.189 E0.06461
G1 X-3.382 Y-12.027 E0.06467
G1 X-3.150 Y-12.834 E0.06473
G1 X-2.709 Y-13.585 E0.06711
G1 X-2.117 Y-14.180 E0.06468
G1 X-1.424 Y-14.598 E0.06233
G1 X-0.564 Y-14.856 E0.06924
G1 X0.244 Y-14.893 E0.06229 F600.000
G1 X1.066 Y-14.725 E0.06466
G1 X1.822 Y-14.360 E0.06472
G1 X2.488 Y-13.799 E0.06711
G1 X2.975 Y-13.114 E0.06472
G1 X3.279 Y-12.332 E0.06466
G1 X3.382 Y-11.503 E0.06437
G1 X3.307 Y-10.793 E0.05509
G1 X3.088 Y-10.116 E0.05482
G1 X2.748 Y-9.527 E0.05244
G1 X2.254 Y-8.970 E0.05734
G1 X1.605 Y-8.514 E0.06110
G1 X0.810 Y-8.200 E0.06593
G1 X0.479 Y-8.159 E0.02568
G1 X0.264 Y-7.783 F15000.000
G1 X0.479 Y-5.804 F15000.000
G1 X0.624 Y-5.804 E0.01114 F600.000
G1 X1.874 Y-5.496 E0.09927
G1 X3.015 Y-4.897 E0.09927
G1 X3.979 Y-4.043 E0.09927
G1 X4.711 Y-2.983 E0.09927
G1 X5.168 Y-1.779 E0.09927
G1 X5.323 Y-0.500 E0.09927
G1 X5.168 Y0.779 E0.09927
G1 X4.711 Y1.983 E0.09927
G1 X3.979 Y3.043 E0.09927
G1 X3.015 Y3.897 E0.09927
G1 X1.874 Y4.496 E0.09927
G1 X0.624 Y4.804 E0.09927
G1 X-0.664 Y4.804 E0.09927
G1 X-1.915 Y4.496 E0.09927
G1 X-3.056 Y3.897 E0.09927
G1 X-4.020 Y3.043 E0.09927
G1 X-4.752 Y1.983 E0.09927
G1 X-5.208 Y0.779 E0.09927
G1 X-5.364 Y-0.500 E0.09927
G1 X-5.208 Y-1.779 E0.09927
G1 X-4.752 Y-2.983 E0.09927
G1 X-4.020 Y-4.043 E0.09927
G1 X-3.056 Y-4.897 E0.09927
G1 X-1.915 Y-5.496 E0.09927
G1 X-0.664 Y-5.804 E0.09927
G1 X0.419 Y-5.804 E0.08350 F600.000
G1 X0.419 Y-5.169 F15000.000
G1 X0.546 Y-5.169 E0.00982 F600.000
G1 X1.647 Y-4.897 E0.08737
G1 X2.651 Y-4.370 E0.08737
G1 X3.500 Y-3.619 E0.08737
G1 X4.144 Y-2.686 E0.08737
G1 X4.546 Y-1.625 E0.08737
G1 X4.683 Y-0.500 E0.08737
G1 X4.546 Y0.625 E0.08737
G1 X4.144 Y1.686 E0.08737
G1 X3.500 Y2.619 E0.08737
G1 X2.651 Y3.370 E0.08737
G1 X1.647 Y3.897 E0.08737
G1 X0.546 Y4.169 E0.08737
G1 X-0.587 Y4.169 E0.08737
G1 X-1.688 Y3.897 E0.08737
G1 X-2.692 Y3.370 E0.08737
G1 X-3.541 Y2.619 E0.08737
G1 X-4.185 Y1.686 E0.08737
G1 X-4.587 Y0.625 E0.08737
G1 X-4.723 Y-0.500 E0.08737
G1 X-4.587 Y-1.625 E0.08737
G1 X-4.185 Y-2.686 E0.08737
G1 X-3.541 Y-3.619 E0.08737
G1 X-2.692 Y-4.370 E0.08737
G1 X-1.688 Y-4.897 E0.08737
G1 X-0.587 Y-5.169 E0.08737
G1 X0.359 Y-5.169 E0.07293 F600.000
G1 X0.483 Y-5.279 F15000.000
G1 E-3.50000 F1500.00000
G1 Z0.700 F15000.000
G1 X5.182 Y0.782 F15000.000
G1 X5.927 Y2.446 F15000.000
G1 X5.682 Y2.882 F15000.000
G1 X5.076 Y3.781 F15000.000
G1 X6.167 Y4.501 F15000.000
G1 X5.463 Y5.741 F15000.000
G1 Z0.300 F15000.000
G1 E3.50000 F1500.00000
G1 X5.086 Y6.828 E0.08867 F720.000
G1 X4.944 Y8.103 E0.09884
G1 X4.944 Y14.442 E0.48853
G1 X4.913 Y14.713 E0.02104
G1 X4.843 Y14.916 E0.01653
G1 X4.728 Y15.097 E0.01653
G1 X4.577 Y15.249 E0.01653
G1 X4.395 Y15.363 E0.01653
G1 X4.193 Y15.434 E0.01653
G1 X3.921 Y15.464 E0.02104
G1 X1.678 Y15.464 E0.17288
G1 X1.610 Y15.168 E0.02340
G1 X2.179 Y14.893 E0.04871
G1 X2.964 Y14.227 E0.07932
G1 X3.540 Y13.415 E0.07675
G1 X3.889 Y12.520 E0.07400
G1 X4.023 Y11.510 E0.07857
G1 X3.921 Y10.602 E0.07038
G1 X3.623 Y9.749 E0.06965
G1 X3.142 Y8.983 E0.06965
G1 X2.504 Y8.343 E0.06965
G1 X1.740 Y7.861 E0.06965
G1 X0.884 Y7.560 E0.06992
G1 X-0.051 Y7.459 E0.07250
G1 X-1.001 Y7.578 E0.07378
G1 X-1.959 Y7.952 E0.07921
G1 X-2.767 Y8.533 E0.07673
G1 X-3.391 Y9.270 E0.07436
G1 X-3.852 Y10.218 E0.08130
G1 X-4.050 Y11.161 E0.07425
G1 X-4.010 Y12.155 E0.07664
G1 X-3.729 Y13.109 E0.07665
G1 X-3.223 Y13.967 E0.07678
G1 X-2.497 Y14.697 E0.07932
G1 X-1.675 Y15.184 E0.07362
G1 X-1.752 Y15.464 E0.02242
G1 X-3.962 Y15.464 E0.17035
G1 X-4.234 Y15.434 E0.02104
G1 X-4.436 Y15.363 E0.01653
G1 X-4.618 Y15.249 E0.01653
G1 X-4.769 Y15.097 E0.01653
G1 X-4.882 Y14.917 E0.01637
G1 X-4.954 Y14.712 E0.01674
G1 X-4.985 Y14.442 E0.02099
G1 X-4.985 Y8.103 E0.48853
G1 X-5.127 Y6.828 E0.09884
G1 X-5.567 Y5.557 E0.10367
G1 X-7.093 Y3.153 E0.21940
G1 X-7.657 Y1.744 E0.11695
G1 X-7.944 Y0.257 E0.11671
G1 X-7.944 Y-1.257 E0.11671
G1 X-7.657 Y-2.744 E0.11671
G1 X-7.093 Y-4.153 E0.11695
G1 X-5.567 Y-6.557 E0.21940
G1 X-5.127 Y-7.828 E0.10367
G1 X-4.985 Y-9.103 E0.09884
G1 X-4.985 Y-14.442 E0.41147
G1 X-4.954 Y-14.713 E0.02104
G1 X-4.883 Y-14.916 E0.01653
G1 X-4.770 Y-15.097 E0.01648
G1 X-4.616 Y-15.250 E0.01674
G1 X-4.436 Y-15.363 E0.01637
G1 X-4.234 Y-15.434 E0.01653
G1 X-3.962 Y-15.464 E0.02104
G1 X-1.758 Y-15.464 E0.16985
G1 X-1.681 Y-15.185 E0.02233
G1 X-2.512 Y-14.684 E0.07482 F720.000
G1 X-3.216 Y-13.977 E0.07690
G1 X-3.739 Y-13.087 E0.07951
G1 X-4.015 Y-12.127 E0.07702
G1 X-4.047 Y-11.130 E0.07684
G1 X-3.834 Y-10.157 E0.07679
G1 X-3.388 Y-9.262 E0.07708
G1 X-2.712 Y-8.484 E0.07943
G1 X-1.903 Y-7.923 E0.07584
G1 X-0.985 Y-7.574 E0.07566
G1 X-0.010 Y-7.457 E0.07567
G1 X0.968 Y-7.579 E0.07602
G1 X1.909 Y-7.951 E0.07794
G1 X2.681 Y-8.492 E0.07265
G1 X3.266 Y-9.153 E0.06806
G1 X3.671 Y-9.856 E0.06253
G1 X3.933 Y-10.660 E0.06510
G1 X4.022 Y-11.509 E0.06586
G1 X3.900 Y-12.489 E0.07608
G1 X3.539 Y-13.418 E0.07684
G1 X2.959 Y-14.233 E0.07700
G1 X2.171 Y-14.898 E0.07951
G1 X1.610 Y-15.168 E0.04796
G1 X1.678 Y-15.464 E0.02344
G1 X3.921 Y-15.464 E0.17289
G1 X4.191 Y-15.434 E0.02088
G1 X4.396 Y-15.363 E0.01674
G1 X4.577 Y-15.249 E0.01648
G1 X4.728 Y-15.097 E0.01653
G1 X4.843 Y-14.916 E0.01653
G1 X4.913 Y-14.713 E0.01653
G1 X4.944 Y-14.442 E0.02104
G1 X4.944 Y-9.103 E0.41147
G1 X5.086 Y-7.828 E0.09884
G1 X5.525 Y-6.561 E0.10330
G1 X6.179 Y-5.509 E0.09551
G1 X6.965 Y-4.318 E0.10995
G1 X7.502 Y-3.106 E0.10217
G1 X7.830 Y-1.821 E0.10217
G1 X7.940 Y-0.500 E0.10217
G1 X7.830 Y0.821 E0.10217
G1 X7.502 Y2.106 E0.10217
G1 X6.965 Y3.318 E0.10217
G1 X6.179 Y4.509 E0.10995
G1 X5.525 Y5.561 E0.09551
G1 X5.482 Y5.684 E0.01001
G1 X6.083 Y5.892 F15000.000
G1 X5.710 Y6.969 E0.08783 F720.000
G1 X5.580 Y8.138 E0.09064
G1 X5.580 Y14.478 E0.48856
G1 X5.537 Y14.855 E0.02931
G1 X5.419 Y15.193 E0.02757
G1 X5.229 Y15.496 E0.02757
G1 X4.976 Y15.749 E0.02757
G1 X4.673 Y15.939 E0.02757
G1 X4.335 Y16.057 E0.02757
G1 X3.957 Y16.100 E0.02931
G1 X-3.998 Y16.100 E0.61306
G1 X-4.376 Y16.057 E0.02931
G1 X-4.714 Y15.939 E0.02757
G1 X-5.016 Y15.749 E0.02757
G1 X-5.269 Y15.496 E0.02757
G1 X-5.458 Y15.195 E0.02737
G1 X-5.578 Y14.855 E0.02778
G1 X-5.620 Y14.478 E0.02929
G1 X-5.620 Y8.138 E0.48856
G1 X-5.751 Y6.969 E0.09064
G1 X-6.144 Y5.835 E0.09250
G1 X-7.661 Y3.444 E0.21822
G1 X-8.270 Y1.924 E0.12616
G1 X-8.580 Y0.318 E0.12608
G1 X-8.580 Y-1.318 E0.12608
G1 X-8.270 Y-2.924 E0.12608
G1 X-7.661 Y-4.444 E0.12616
G1 X-6.144 Y-6.835 E0.21822
G1 X-5.751 Y-7.969 E0.09250
G1 X-5.620 Y-9.138 E0.09064
G1 X-5.620 Y-14.478 E0.41149
G1 X-5.578 Y-14.855 E0.02931
G1 X-5.460 Y-15.193 E0.02757
G1 X-5.269 Y-15.496 E0.02755
G1 X-5.014 Y-15.750 E0.02778
G1 X-4.714 Y-15.939 E0.02737
G1 X-4.376 Y-16.057 E0.02757
G1 X-3.998 Y-16.100 E0.02931
G1 X3.957 Y-16.100 E0.61306
G1 X4.333 Y-16.058 E0.02912
G1 X4.673 Y-15.939 E0.02778 F720.000
G1 X4.976 Y-15.749 E0.02755
G1 X5.229 Y-15.496 E0.02757
G1 X5.419 Y-15.193 E0.02757
G1 X5.537 Y-14.855 E0.02757
G1 X5.580 Y-14.478 E0.02931
G1 X5.580 Y-9.138 E0.41149
G1 X5.710 Y-7.969 E0.09064
G1 X6.102 Y-6.837 E0.09237
G1 X6.714 Y-5.852 E0.08936
G1 X7.525 Y-4.624 E0.11337
G1 X8.105 Y-3.315 E0.11036
G1 X8.459 Y-1.927 E0.11036
G1 X8.578 Y-0.500 E0.11036
G1 X8.459 Y0.927 E0.11036
G1 X8.105 Y2.315 E0.11036
G1 X7.525 Y3.624 E0.11036
G1 X6.714 Y4.852 E0.11337
G1 X6.103 Y5.836 E0.08928
G1 X5.686 Y5.940 F15000.000
G1 X4.255 Y9.472 F15000.000
G1 X4.424 Y10.464 E0.07752 F960.000
G1 X4.484 Y11.497 E0.07971
G1 X4.412 Y12.628 E0.08737
G1 X4.244 Y13.536 E0.07114
G1 X4.559 Y14.270 F15000.000
G1 X4.244 Y13.956 E0.04264 F960.000
G1 X3.383 Y14.212 E0.08608
G1 X4.224 Y15.054 E0.11404
G1 X3.132 Y15.079 E0.10464
G1 X2.828 Y14.775 E0.04117
G1 X1.335 Y15.391 F15000.000
G1 X0.265 Y15.497 E0.17423 F960.000
G1 X-0.681 Y15.473 E0.15311
G1 X-1.397 Y15.373 E0.11716
G1 X-3.640 Y14.190 F15000.000
G1 X-3.984 Y13.846 E0.05306 F960.000
G1 X-4.543 Y14.560 E0.09884
G1 X-4.080 Y15.022 E0.07132
G1 X-4.311 Y13.522 F15000.000
G1 X-4.496 Y12.214 E0.10182 F960.000
G1 X-4.518 Y11.141 E0.08273
G1 X-4.479 Y10.741 E0.03092
G1 X-4.479 Y10.741 F15000.000
G1 X-4.408 Y10.062 E0.11066 F960.000
G1 X-4.273 Y9.455 E0.10070
G1 X-4.599 Y8.706 F15000.000
G1 X-4.283 Y9.022 E0.03522 F960.000
G1 X-3.500 Y8.887 E0.06260
G1 X-4.618 Y7.768 E0.12459
G1 X-4.734 Y6.735 E0.08191
G1 X-3.078 Y8.390 E0.18434
G1 X-2.568 Y7.981 E0.05145
G1 X-5.164 Y5.386 E0.28906
G1 X-6.608 Y3.024 F15000.000
G1 X-2.025 Y7.607 E0.51036 F960.000
G1 X-1.364 Y7.349 F15000.000
G1 X-7.300 Y1.413 E0.66097 F960.000
G1 X-7.519 Y0.275 E0.09125
G1 X-0.635 Y7.160 E0.76662
G1 X-1.956 Y4.920 F15000.000
G1 X0.208 Y7.084 E0.24101 F960.000
G1 X1.276 Y7.234 E0.08493
G1 X-0.768 Y5.190 E0.22766
G1 X0.150 Y5.190 E0.07232
G1 X4.091 Y9.130 E0.43881
G1 X4.559 Y8.679 E0.05115
G1 X0.967 Y5.087 E0.39998
G1 X1.703 Y4.906 E0.05975
G1 X4.603 Y7.806 E0.32294
G1 X4.696 Y6.980 E0.06546
G1 X2.346 Y4.630 E0.26162
G1 X2.949 Y4.314 E0.05356
G1 X4.909 Y6.274 E0.21830
G1 X5.145 Y5.592 E0.05684
G1 X3.479 Y3.927 E0.18549
G1 X3.966 Y3.495 E0.05123
G1 X5.477 Y5.005 E0.16816
G1 X5.828 Y4.439 E0.05252
G1 X4.404 Y3.014 E0.15867
G1 X4.779 Y2.470 E0.05199
G1 X6.192 Y3.884 E0.15738
G1 X6.557 Y3.331 E0.05220
G1 X5.117 Y1.890 E0.16042
G1 X5.369 Y1.224 E0.05608
G1 X6.858 Y2.713 E0.16584
G1 X7.140 Y2.077 E0.05482
G1 X5.573 Y0.510 E0.17451
G1 X5.673 Y-0.309 E0.06496
G1 X7.328 Y1.346 E0.18436
G1 X7.475 Y0.574 E0.06187
G1 X5.636 Y-1.265 E0.20479
G1 X5.396 Y-2.423 E0.09312
G1 X7.545 Y-0.273 E0.23936
G1 X7.478 Y-1.259 E0.07777
G1 X1.371 Y-7.367 E0.68015
G1 X2.028 Y-7.628 E0.05568
G1 X7.242 Y-2.414 E0.58065
G1 X6.642 Y-3.932 F15000.000
G1 X2.567 Y-8.007 E0.45373 F960.000
G1 X3.065 Y-8.428 E0.05131
G1 X5.132 Y-6.360 E0.23024
G1 X4.695 Y-7.716 E0.11215
G1 X3.496 Y-8.915 E0.13352
G1 X4.263 Y-9.066 E0.06158
G1 X4.580 Y-8.750 E0.03523
G1 X1.893 Y-5.926 F15000.000
G1 X0.652 Y-7.167 E0.13824 F960.000
G1 X0.711 Y-6.190 E0.07709
G1 X-0.170 Y-7.071 E0.09813
G1 X-1.214 Y-7.196 E0.08278
G1 X-0.208 Y-6.190 E0.11209
G1 X-1.021 Y-6.084 E0.06455
G1 X-4.085 Y-9.148 E0.34120
G1 X-4.646 Y-8.791 E0.05238
G1 X-1.758 Y-5.903 E0.32165
G1 X-2.398 Y-5.625 E0.05497
G1 X-4.738 Y-7.965 E0.26060
G1 X-4.954 Y-7.262 E0.05788
G1 X-3.000 Y-5.308 E0.21757
G1 X-3.529 Y-4.919 E0.05172
G1 X-5.190 Y-6.580 E0.18499
G1 X-5.526 Y-5.998 E0.05294
G1 X-4.016 Y-4.487 E0.16819
G1 X-4.451 Y-4.004 E0.05121
G1 X-5.883 Y-5.436 E0.15944
G1 X-6.239 Y-4.874 E0.05240
G1 X-4.826 Y-3.461 E0.15737
G1 X-5.162 Y-2.878 E0.05295
G1 X-6.596 Y-4.312 E0.15969
G1 X-6.903 Y-3.700 E0.05389
G1 X-5.414 Y-2.212 E0.16570
G1 X-5.616 Y-1.495 E0.05865
G1 X-7.165 Y-3.044 E0.17255
G1 X-7.368 Y-2.329 E0.05856
G1 X-5.715 Y-0.676 E0.18408
G1 X-5.674 Y0.284 E0.07562
G1 X-7.517 Y-1.559 E0.20519
G1 X-7.559 Y-0.682 E0.06911
G1 X-5.427 Y1.449 E0.23739
G1 X-5.970 Y-3.447 F15000.000
G1 X0.090 Y-6.634 F15000.000
G1 X2.769 Y-6.721 F15000.000
G1 X3.752 Y-7.678 F15000.000
G1 X4.130 Y-9.013 F15000.000
G1 X4.151 Y-9.102 F15000.000
G1 X4.263 Y-9.517 F15000.000
G1 X4.264 Y-9.479 F15000.000
G1 X4.431 Y-10.533 E0.08219 F960.000
G1 X4.484 Y-11.498 E0.07447
G1 X4.418 Y-12.593 E0.08459
G1 X4.304 Y-13.217 E0.04887
G1 X3.930 Y-13.395 E0.03188
G1 X3.891 Y-13.439 E0.00452
G1 X3.838 Y-13.991 F15000.000
G1 X3.468 Y-14.361 E0.05528 F960.000
G1 X4.039 Y-15.022 E0.09242
G1 X4.502 Y-14.560 E0.06913
G1 X1.335 Y-15.392 F15000.000
G1 X0.256 Y-15.497 E0.17564 F960.000
G1 X-0.631 Y-15.477 E0.14369
G1 X-1.402 Y-15.368 E0.12601
G1 X-2.886 Y-14.775 F15000.000
G1 X-3.190 Y-15.079 E0.04145 F960.000
G1 X-3.447 Y-14.211 E0.08731
G1 X-4.283 Y-15.047 E0.11404
G1 X-4.599 Y-14.238 E0.08380
G1 X-4.286 Y-13.925 E0.04272
G1 X-4.313 Y-13.519 F15000.000
G1 X-4.499 Y-12.182 E0.10406 F960.000
G1 X-4.516 Y-11.106 E0.08294
G1 X-4.480 Y-10.743 E0.02809
G1 X-4.480 Y-10.743 F15000.000
G1 X-4.399 Y-9.993 E0.12218 F960.000
G1 X-4.280 Y-9.470 E0.08679
G1 E-3.50000 F1500.00000
G1 Z0.700 F15000.000
G1 X-0.880 Y7.993 F15000.000
G1 Z0.500 F15000.000
G1 E3.50000 F1500.00000
G1 X-0.080 Y7.894 E0.02327 F2400.000
G1 X0.796 Y7.983 E0.02541
G1 X1.560 Y8.253 E0.02338
G1 X2.240 Y8.685 E0.02325
G1 X2.808 Y9.256 E0.02325
G1 X3.235 Y9.939 E0.02325
G1 X3.501 Y10.699 E0.02325
G1 X3.591 Y11.503 E0.02334
G1 X3.483 Y12.375 E0.02535
G1 X3.167 Y13.197 E0.02544
G1 X2.658 Y13.921 E0.02552
G1 X1.928 Y14.540 E0.02764
G1 X1.130 Y14.923 E0.02553
G1 X0.267 Y15.100 E0.02544
G1 X-0.614 Y15.063 E0.02543
G1 X-1.459 Y14.813 E0.02544
G1 X-2.221 Y14.363 E0.02555
G1 X-2.895 Y13.683 E0.02764
G1 X-3.340 Y12.919 E0.02550
G1 X-3.586 Y12.073 E0.02544
G1 X-3.619 Y11.192 E0.02545
G1 X-3.437 Y10.330 E0.02543
G1 X-3.052 Y9.537 E0.02544
G1 X-2.485 Y8.861 E0.02544
