; generated by Slic3r 1.2.9 on 2019-02-22 at 12:10:54

; external perimeters extrusion width = 0.40mm
; perimeters extrusion width = 0.40mm
; infill extrusion width = 0.40mm
; solid infill extrusion width = 0.40mm
; top infill extrusion width = 0.40mm

M107
M83
T0
M116
G21 ; set units to millimeters
G90 ; use absolute coordinates
M83 ; use relative distances for extrusion
G1 E-3.50000 F1500.00000
G1 Z0.400 F15000.000
G1 X0.000 Y12.836 F15000.000
G1 Z0.300 F15000.000
G1 E3.50000 F1500.00000
G1 X-14.950 Y12.836 E1.15213 F960.000
G1 X-16.597 Y12.441 E0.13052
G1 X-17.887 Y11.343 E0.13052
G1 X-18.586 Y9.200 E0.17373
G1 X-18.586 Y-9.200 E1.41801
G1 X-18.191 Y-10.847 E0.13052
G1 X-17.093 Y-12.137 E0.13052
G1 X-14.950 Y-12.836 E0.17373
G1 X14.950 Y-12.836 E2.30426
G1 X16.597 Y-12.441 E0.13052
G1 X17.887 Y-11.343 E0.13052 F960.000
G1 X18.586 Y-9.200 E0.17373
G1 X18.586 Y9.200 E1.41801
G1 X18.191 Y10.847 E0.13052
G1 X17.093 Y12.137 E0.13052
G1 X14.950 Y12.836 E0.17373
G1 X0.060 Y12.836 E1.14751
G1 E-3.50000 F1500.00000
G1 Z0.700 F15000.000
G1 X-13.236 Y-5.733 F15000.000
G1 Z0.300 F15000.000
G1 E3.50000 F1500.00000
G1 X-13.236 Y2.286 E0.61796 F720.000
G1 X-8.740 Y2.286 E0.34647 F720.000
G1 X-8.740 Y3.286 E0.07707
G1 X8.742 Y3.286 E1.34724
G1 X8.742 Y2.286 E0.07707
G1 X13.236 Y2.286 E0.34631
G1 X13.236 Y-8.214 E0.80919
G1 X13.964 Y-8.214 E0.05616
G1 X13.964 Y8.214 E1.26609
G1 X-13.964 Y8.214 E2.15234
G1 X-13.964 Y-8.214 E1.26609
G1 X-13.236 Y-8.214 E0.05616
G1 X-13.236 Y-5.793 E0.18660
G1 X-12.600 Y-5.793 F15000.000
G1 X-12.600 Y1.650 E0.57360 F720.000
G1 X-8.104 Y1.650 E0.34647 F720.000
G1 X-8.104 Y2.650 E0.07707
G1 X8.106 Y2.650 E1.24927
G1 X8.106 Y1.650 E0.07707
G1 X12.600 Y1.650 E0.34631
G1 X12.600 Y-8.850 E0.80919
G1 X14.600 Y-8.850 E0.15413
G1 X14.600 Y8.850 E1.36406
G1 X-14.600 Y8.850 E2.25031
G1 X-14.600 Y-8.850 E1.36406
G1 X-12.600 Y-8.850 E0.15413
G1 X-12.600 Y-5.853 E0.23096
G1 X-12.946 Y-5.593 F15000.000
G1 X-13.600 Y-7.897 F15000.000
G1 X-13.600 Y2.603 E0.80919 F960.000
G1 X-13.269 Y7.829 F15000.000
G1 X-13.579 Y7.519 E0.03465 F960.000
G1 X-13.579 Y6.596 E0.07302
G1 X-12.346 Y7.829 E0.13792
G1 X-11.424 Y7.829 E0.07302
G1 X-13.579 Y5.674 E0.24119
G1 X-13.579 Y4.751 E0.07302
G1 X-10.501 Y7.829 E0.34446
G1 X-9.578 Y7.829 E0.07302
G1 X-13.579 Y3.828 E0.44773
G1 X-13.495 Y2.989 E0.06671
G1 X-8.655 Y7.829 E0.54160
G1 X-7.732 Y7.829 E0.07302
G1 X-12.865 Y2.696 E0.57433
G1 X-11.967 Y2.671 E0.07105
G1 X-6.809 Y7.829 E0.57716
G1 X-5.886 Y7.829 E0.07302
G1 X-11.044 Y2.671 E0.57716
G1 X-10.121 Y2.671 E0.07302
G1 X-4.963 Y7.829 E0.57716
G1 X-4.040 Y7.829 E0.07302
G1 X-8.198 Y3.671 E0.46526
G1 X-7.275 Y3.671 E0.07302
G1 X-3.117 Y7.829 E0.46526
G1 X-2.194 Y7.829 E0.07302
G1 X-6.352 Y3.671 E0.46526
G1 X-5.429 Y3.671 E0.07302
G1 X-1.272 Y7.829 E0.46526
G1 X-0.349 Y7.829 E0.07302
G1 X-4.507 Y3.671 E0.46526
G1 X-3.584 Y3.671 E0.07302
G1 X0.574 Y7.829 E0.46526
G1 X1.497 Y7.829 E0.07302
G1 X-2.661 Y3.671 E0.46526
G1 X-1.738 Y3.671 E0.07302
G1 X2.420 Y7.829 E0.46526
G1 X3.343 Y7.829 E0.07302
G1 X-0.815 Y3.671 E0.46526
G1 X0.108 Y3.671 E0.07302
G1 X4.266 Y7.829 E0.46526
G1 X5.189 Y7.829 E0.07302
G1 X1.031 Y3.671 E0.46526
G1 X1.954 Y3.671 E0.07302
G1 X6.112 Y7.829 E0.46526
G1 X7.035 Y7.829 E0.07302
G1 X2.877 Y3.671 E0.46526
G1 X3.800 Y3.671 E0.07302
G1 X7.957 Y7.829 E0.46526
G1 X8.880 Y7.829 E0.07302
G1 X4.722 Y3.671 E0.46526
G1 X5.645 Y3.671 E0.07302
G1 X9.803 Y7.829 E0.46526
G1 X10.726 Y7.829 E0.07302
G1 X6.568 Y3.671 E0.46526
G1 X7.491 Y3.671 E0.07302
G1 X11.649 Y7.829 E0.46526
G1 X12.572 Y7.829 E0.07302
G1 X8.414 Y3.671 E0.46526
G1 X9.127 Y3.461 E0.05882
G1 X13.495 Y7.829 E0.48872
G1 X13.579 Y6.990 E0.06670
G1 X9.260 Y2.671 E0.48329
G1 X10.183 Y2.671 E0.07302
G1 X13.579 Y6.067 E0.38002
G1 X13.579 Y5.144 E0.07302
G1 X11.106 Y2.671 E0.27675
G1 X12.029 Y2.671 E0.07302
G1 X13.579 Y4.221 E0.17348
G1 X13.269 Y2.989 E0.10056
G1 X13.579 Y3.299 E0.03465
G1 X13.600 Y2.603 F15000.000
G1 X13.600 Y-7.897 E0.80919 F960.000
G1 E-3.50000 F1500.00000
G1 Z0.700 F15000.000
G1 X-14.393 Y3.274 F15000.000
G1 Z0.500 F15000.000
G1 E3.50000 F1500.00000
G1 X-14.393 Y-8.643 E0.34394 F2400.000
G1 X-12.807 Y-8.643 E0.04577
G1 X-12.807 Y1.857 E0.30306
G1 X-8.486 Y1.857 E0.12471 F2400.000
G1 X-8.486 Y2.857 E0.02886
G1 X8.491 Y2.857 E0.49002
G1 X8.491 Y1.857 E0.02886
G1 X12.807 Y1.857 E0.12456
G1 X12.807 Y-8.643 E0.30306
G1 X14.393 Y-8.643 E0.04577
G1 X14.393 Y8.643 E0.49892
G1 X-14.393 Y8.643 E0.83084
G1 X-14.393 Y3.334 E0.15324
G1 X-14.750 Y3.334 F15000.000
G1 X-14.750 Y-9.000 E0.35598 F2400.000
G1 X-12.450 Y-9.000 E0.06638
G1 X-12.450 Y1.500 E0.30306
G1 X-8.129 Y1.500 E0.12471 F2400.000
G1 X-8.129 Y2.500 E0.02886
G1 X8.134 Y2.500 E0.46941
G1 X8.134 Y1.500 E0.02886
G1 X12.450 Y1.500 E0.12456
G1 X12.450 Y-9.000 E0.30306
G1 X14.750 Y-9.000 E0.06638
G1 X14.750 Y9.000 E0.51953
G1 X-14.750 Y9.000 E0.85145
G1 X-14.750 Y3.394 E0.16182
G1 X-14.404 Y3.134 F15000.000
G1 X-13.994 Y-8.435 F15000.000
G1 X-14.185 Y-8.244 E0.00789 F2400.000
G1 X-14.185 Y-7.734 E0.01485
G1 X-13.484 Y-8.435 E0.02889
G1 X-13.015 Y-8.395 E0.01372
G1 X-14.185 Y-7.224 E0.04822
G1 X-14.185 Y-6.715 E0.01485
G1 X-13.015 Y-7.885 E0.04822
G1 X-13.015 Y-7.375 E0.01485
G1 X-14.185 Y-6.205 E0.04822
G1 X-14.185 Y-5.695 E0.01485
G1 X-13.015 Y-6.865 E0.04822
G1 X-13.015 Y-6.356 E0.01485
G1 X-14.185 Y-5.185 E0.04822
G1 X-14.185 Y-4.676 E0.01485
G1 X-13.015 Y-5.846 E0.04822
G1 X-13.015 Y-5.336 E0.01485
G1 X-14.185 Y-4.166 E0.04822
G1 X-14.185 Y-3.656 E0.01485
G1 X-13.015 Y-4.826 E0.04822
G1 X-13.015 Y-4.317 E0.01485
G1 X-14.185 Y-3.146 E0.04822
G1 X-14.185 Y-2.637 E0.01485
G1 X-13.015 Y-3.807 E0.04822
G1 X-13.015 Y-3.297 E0.01485
G1 X-14.185 Y-2.127 E0.04822
G1 X-14.185 Y-1.617 E0.01485
G1 X-13.015 Y-2.787 E0.04822
G1 X-13.015 Y-2.278 E0.01485
G1 X-14.185 Y-1.107 E0.04822
G1 X-14.185 Y-0.598 E0.01485
G1 X-13.015 Y-1.768 E0.04822
G1 X-13.015 Y-1.258 E0.01485
G1 X-14.185 Y-0.088 E0.04822
G1 X-14.185 Y0.422 E0.01485
G1 X-13.015 Y-0.748 E0.04822
G1 X-13.015 Y-0.239 E0.01485
G1 X-14.185 Y0.932 E0.04822
G1 X-14.185 Y1.441 E0.01485
G1 X-13.015 Y0.271 E0.04822
G1 X-13.015 Y0.781 E0.01485
G1 X-14.185 Y1.951 E0.04822
G1 X-14.185 Y2.461 E0.01485
G1 X-13.015 Y1.291 E0.04822
G1 X-13.015 Y1.800 E0.01485
G1 X-14.185 Y2.971 E0.04822
G1 X-14.185 Y3.480 E0.01485
G1 X-12.770 Y2.065 E0.05833
G1 X-12.260 Y2.065 E0.01485
G1 X-14.185 Y3.990 E0.07933
G1 X-14.185 Y4.500 E0.01485
G1 X-11.750 Y2.065 E0.10033
G1 X-11.240 Y2.065 E0.01485
G1 X-14.185 Y5.010 E0.12134
G1 X-14.185 Y5.519 E0.01485
G1 X-10.731 Y2.065 E0.14234
G1 X-10.221 Y2.065 E0.01485
G1 X-14.185 Y6.029 E0.16334
G1 X-14.185 Y6.539 E0.01485
G1 X-9.711 Y2.065 E0.18435
G1 X-9.201 Y2.065 E0.01485
G1 X-14.185 Y7.049 E0.20535
G1 X-14.185 Y7.558 E0.01485
G1 X-8.694 Y2.067 E0.22625
G1 X-8.694 Y2.577 E0.01485
G1 X-14.185 Y8.068 E0.22625
G1 X-14.042 Y8.435 E0.01147
G1 X-8.672 Y3.065 E0.22127
G1 X-8.162 Y3.065 E0.01485
G1 X-13.533 Y8.435 E0.22127
G1 X-13.023 Y8.435 E0.01485
G1 X-7.653 Y3.065 E0.22127
G1 X-7.143 Y3.065 E0.01485
G1 X-12.513 Y8.435 E0.22127
G1 X-12.003 Y8.435 E0.01485
G1 X-6.633 Y3.065 E0.22127
G1 X-6.123 Y3.065 E0.01485
G1 X-11.494 Y8.435 E0.22127
G1 X-10.984 Y8.435 E0.01485
G1 X-5.614 Y3.065 E0.22127
G1 X-5.104 Y3.065 E0.01485
G1 X-10.474 Y8.435 E0.22127
G1 X-9.964 Y8.435 E0.01485
G1 X-4.594 Y3.065 E0.22127
G1 X-4.084 Y3.065 E0.01485
G1 X-9.455 Y8.435 E0.22127
G1 X-8.945 Y8.435 E0.01485
G1 X-3.575 Y3.065 E0.22127
G1 X-3.065 Y3.065 E0.01485
G1 X-8.435 Y8.435 E0.22127
G1 X-7.925 Y8.435 E0.01485
G1 X-2.555 Y3.065 E0.22127
G1 X-2.045 Y3.065 E0.01485
G1 X-7.416 Y8.435 E0.22127
G1 X-6.906 Y8.435 E0.01485
G1 X-1.536 Y3.065 E0.22127
G1 X-1.026 Y3.065 E0.01485
G1 X-6.396 Y8.435 E0.22127
G1 X-5.886 Y8.435 E0.01485
G1 X-0.516 Y3.065 E0.22127
G1 X-0.006 Y3.065 E0.01485
G1 X-5.377 Y8.435 E0.22127
G1 X-4.867 Y8.435 E0.01485
G1 X0.503 Y3.065 E0.22127
G1 X1.013 Y3.065 E0.01485
G1 X-4.357 Y8.435 E0.22127
G1 X-3.847 Y8.435 E0.01485
G1 X1.523 Y3.065 E0.22127
G1 X2.033 Y3.065 E0.01485
G1 X-3.338 Y8.435 E0.22127
G1 X-2.828 Y8.435 E0.01485
G1 X2.542 Y3.065 E0.22127
G1 X3.052 Y3.065 E0.01485
G1 X-2.318 Y8.435 E0.22127
G1 X-1.808 Y8.435 E0.01485
G1 X3.562 Y3.065 E0.22127
G1 X4.072 Y3.065 E0.01485
G1 X-1.299 Y8.435 E0.22127
G1 X-0.789 Y8.435 E0.01485
G1 X4.581 Y3.065 E0.22127
G1 X5.091 Y3.065 E0.01485
G1 X-0.279 Y8.435 E0.22127
G1 X0.230 Y8.435 E0.01485
G1 X5.601 Y3.065 E0.22127
G1 X6.111 Y3.065 E0.01485
G1 X0.740 Y8.435 E0.22127
G1 X1.250 Y8.435 E0.01485
G1 X6.620 Y3.065 E0.22127
G1 X7.130 Y3.065 E0.01485
G1 X1.760 Y8.435 E0.22127
G1 X2.269 Y8.435 E0.01485
G1 X7.640 Y3.065 E0.22127
G1 X8.150 Y3.065 E0.01485
G1 X2.779 Y8.435 E0.22127
G1 X3.289 Y8.435 E0.01485
G1 X9.659 Y2.065 E0.26248
G1 X10.169 Y2.065 E0.01485
G1 X3.799 Y8.435 E0.26248
G1 X4.308 Y8.435 E0.01485
G1 X10.679 Y2.065 E0.26248
G1 X11.189 Y2.065 E0.01485
G1 X4.818 Y8.435 E0.26248
G1 X5.328 Y8.435 E0.01485
G1 X11.698 Y2.065 E0.26248
G1 X12.208 Y2.065 E0.01485
G1 X5.838 Y8.435 E0.26248
G1 X6.347 Y8.435 E0.01485
G1 X12.718 Y2.065 E0.26248
G1 X13.015 Y1.768 F15000.000
G1 X14.185 Y0.597 E0.04822 F2400.000
G1 X14.185 Y1.107 E0.01485
G1 X6.857 Y8.435 E0.30193
G1 X7.367 Y8.435 E0.01485
G1 X14.185 Y1.617 E0.28093
G1 X14.185 Y2.127 E0.01485
G1 X7.877 Y8.435 E0.25993
G1 X8.386 Y8.435 E0.01485
G1 X14.185 Y2.636 E0.23892
G1 X14.185 Y3.146 E0.01485
G1 X8.896 Y8.435 E0.21792
G1 X9.406 Y8.435 E0.01485
G1 X14.185 Y3.656 E0.19692
G1 X14.185 Y4.166 E0.01485
G1 X9.916 Y8.435 E0.17591
G1 X10.425 Y8.435 E0.01485
G1 X14.185 Y4.675 E0.15491
G1 X14.185 Y5.185 E0.01485
G1 X10.935 Y8.435 E0.13391
G1 X11.445 Y8.435 E0.01485
G1 X14.185 Y5.695 E0.11291
G1 X14.185 Y6.205 E0.01485
G1 X11.955 Y8.435 E0.09190
G1 X12.464 Y8.435 E0.01485
G1 X14.185 Y6.714 E0.07090
G1 X14.185 Y7.224 E0.01485
G1 X12.974 Y8.435 E0.04990
G1 X13.484 Y8.435 E0.01485
G1 X14.185 Y7.734 E0.02889
G1 X14.185 Y8.244 E0.01485
G1 X13.994 Y8.435 E0.00789
G1 X13.015 Y1.258 F15000.000
G1 X14.185 Y0.088 E0.04822 F2400.000
G1 X14.185 Y-0.422 E0.01485
G1 X13.015 Y0.748 E0.04822
G1 X13.015 Y0.239 E0.01485
G1 X14.185 Y-0.932 E0.04822
G1 X14.185 Y-1.442 E0.01485
G1 X13.015 Y-0.271 E0.04822
G1 X13.015 Y-0.781 E0.01485
G1 X14.185 Y-1.951 E0.04822
G1 X14.185 Y-2.461 E0.01485
G1 X13.015 Y-1.291 E0.04822
G1 X13.015 Y-1.800 E0.01485
G1 X14.185 Y-2.971 E0.04822
G1 X14.185 Y-3.481 E0.01485
G1 X13.015 Y-2.310 E0.04822
G1 X13.015 Y-2.820 E0.01485
G1 X14.185 Y-3.990 E0.04822
G1 X14.185 Y-4.500 E0.01485
G1 X13.015 Y-3.330 E0.04822
G1 X13.015 Y-3.839 E0.01485
G1 X14.185 Y-5.010 E0.04822
G1 X14.185 Y-5.520 E0.01485
G1 X13.015 Y-4.349 E0.04822
G1 X13.015 Y-4.859 E0.01485
G1 X14.185 Y-6.029 E0.04822
G1 X14.185 Y-6.539 E0.01485
G1 X13.015 Y-5.369 E0.04822
G1 X13.015 Y-5.878 E0.01485
G1 X14.185 Y-7.049 E0.04822
G1 X14.185 Y-7.558 E0.01485
G1 X13.015 Y-6.388 E0.04822
G1 X13.015 Y-6.898 E0.01485
G1 X14.185 Y-8.068 E0.04822
G1 X14.042 Y-8.435 E0.01147
G1 X13.015 Y-7.408 E0.04234
G1 X13.015 Y-7.917 E0.01485
G1 X13.533 Y-8.435 E0.02133
G1 E-3.50000 F1500.00000
G1 Z0.900 F15000.000
G1 X9.150 Y2.065 F15000.000
G1 Z0.500 F15000.000
G1 E3.50000 F1500.00000
G1 X8.699 Y2.515 E0.01856 F2400.000
G1 E-3.50000 F1500.00000
G1 Z0.900 F15000.000
G1 X-12.807 Y-7.542 F15000.000
G1 Z0.700 F15000.000
G1 E3.50000 F1500.00000
G1 X-12.807 Y1.857 E0.27128 F2400.000
G1 X-8.626 Y1.857 E0.12067 F2400.000
G1 X-8.626 Y2.857 E0.02886
G1 X8.634 Y2.857 E0.49817
G1 X8.634 Y1.857 E0.02886
G1 X12.807 Y1.857 E0.12045
G1 X12.807 Y-8.643 E0.30306
G1 X14.393 Y-8.643 E0.04577
G1 X14.393 Y8.643 E0.49892
G1 X-14.393 Y8.643 E0.83084
G1 X-14.393 Y-8.643 E0.49892
G1 X-12.807 Y-8.643 E0.04577
G1 X-12.807 Y-7.602 E0.03005
G1 X-12.450 Y-7.602 F15000.000
G1 X-12.450 Y1.500 E0.26270 F2400.000
G1 X-8.269 Y1.500 E0.12067 F2400.000
G1 X-8.269 Y2.500 E0.02886
G1 X8.277 Y2.500 E0.47756
G1 X8.277 Y1.500 E0.02886
G1 X12.450 Y1.500 E0.12045
G1 X12.450 Y-9.000 E0.30306
G1 X14.750 Y-9.000 E0.06638
G1 X14.750 Y9.000 E0.51953
G1 X-14.750 Y9.000 E0.85145
G1 X-14.750 Y-9.000 E0.51953
G1 X-12.450 Y-9.000 E0.06638
G1 X-12.450 Y-7.662 E0.03862
G1 X-12.796 Y-7.402 F15000.000
G1 X-13.015 Y-8.244 F15000.000
G1 X-13.206 Y-8.435 E0.00817 F2400.000
G1 X-13.734 Y-8.435 E0.01591
G1 X-13.015 Y-7.716 E0.03067
G1 X-13.015 Y-7.188 E0.01591
G1 X-14.185 Y-8.359 E0.04991
G1 X-14.185 Y-7.831 E0.01591
G1 X-13.015 Y-6.661 E0.04991
G1 X-13.015 Y-6.133 E0.01591
G1 X-14.185 Y-7.304 E0.04991
G1 X-14.185 Y-6.776 E0.01591
G1 X-13.015 Y-5.606 E0.04991
G1 X-13.015 Y-5.078 E0.01591
G1 X-14.185 Y-6.248 E0.04991
G1 X-14.185 Y-5.721 E0.01591
G1 X-13.015 Y-4.550 E0.04991
G1 X-13.015 Y-4.023 E0.01591
G1 X-14.185 Y-5.193 E0.04991
G1 X-14.185 Y-4.665 E0.01591
G1 X-13.015 Y-3.495 E0.04991
G1 X-13.015 Y-2.967 E0.01591
G1 X-14.185 Y-4.138 E0.04991
G1 X-14.185 Y-3.610 E0.01591
G1 X-13.015 Y-2.440 E0.04991
G1 X-13.015 Y-1.912 E0.01591
G1 X-14.185 Y-3.083 E0.04991
G1 X-14.185 Y-2.555 E0.01591
G1 X-13.015 Y-1.385 E0.04991
G1 X-13.015 Y-0.857 E0.01591
G1 X-14.185 Y-2.027 E0.04991
G1 X-14.185 Y-1.500 E0.01591
G1 X-13.015 Y-0.329 E0.04991
G1 X-13.015 Y0.198 E0.01591
G1 X-14.185 Y-0.972 E0.04991
G1 X-14.185 Y-0.444 E0.01591
G1 X-13.015 Y0.726 E0.04991
G1 X-13.015 Y1.253 E0.01591
G1 X-14.185 Y0.083 E0.04991
G1 X-14.185 Y0.611 E0.01591
G1 X-13.015 Y1.781 E0.04991
G1 X-13.466 Y1.857 E0.01380
G1 X-14.185 Y1.138 E0.03067
G1 X-14.185 Y1.666 E0.01591
G1 X-13.994 Y1.857 E0.00817
G1 X-7.532 Y3.065 F15000.000
G1 X-2.162 Y8.435 E0.21921 F2400.000
G1 X0.723 Y8.435 E0.08327
G1 X-5.983 Y3.065 E0.24797
G1 X-2.483 Y3.065 E0.10104
G1 X2.888 Y8.435 E0.21921
G1 X6.419 Y8.435 E0.10192
G1 X-0.287 Y3.065 E0.24797
G1 X2.567 Y3.065 E0.08239
G1 X7.938 Y8.435 E0.21921
G1 X12.115 Y8.435 E0.12057
G1 X5.409 Y3.065 E0.24797
G1 X7.617 Y3.065 E0.06373
G1 X12.988 Y8.435 E0.21921
G1 X14.185 Y5.548 E0.09021
G1 X9.849 Y2.065 E0.16053
G1 X11.667 Y2.065 E0.05247
G1 X14.185 Y4.583 E0.10278
G1 X-4.973 Y8.435 F15000.000
G1 X-12.935 Y2.065 E0.29431 F2400.000
G1 X-13.624 Y2.023 E0.01992
G1 X-7.212 Y8.435 E0.26173
G1 X-10.669 Y8.435 F15000.000
G1 X-14.185 Y5.605 E0.13027 F2400.000
G1 X-14.185 Y6.512 E0.02617
G1 X-12.262 Y8.435 E0.07851
G1 X13.206 Y1.857 F15000.000
G1 X13.015 Y1.666 E0.00817 F2400.000
G1 X13.015 Y1.138 E0.01591
G1 X13.734 Y1.857 E0.03067
G1 X14.185 Y1.781 E0.01380
G1 X13.015 Y0.611 E0.04991
G1 X13.015 Y0.083 E0.01591
G1 X14.185 Y1.253 E0.04991
G1 X14.185 Y0.726 E0.01591
G1 X13.015 Y-0.445 E0.04991
G1 X13.015 Y-0.972 E0.01591
G1 X14.185 Y0.198 E0.04991
G1 X14.185 Y-0.329 E0.01591
G1 X13.015 Y-1.500 E0.04991
G1 X13.015 Y-2.027 E0.01591
G1 X14.185 Y-0.857 E0.04991
G1 X14.185 Y-1.385 E0.01591
G1 X13.015 Y-2.555 E0.04991
G1 X13.015 Y-3.083 E0.01591
G1 X14.185 Y-1.912 E0.04991
G1 X14.185 Y-2.440 E0.01591
G1 X13.015 Y-3.610 E0.04991
G1 X13.015 Y-4.138 E0.01591
G1 X14.185 Y-2.967 E0.04991
G1 X14.185 Y-3.495 E0.01591
G1 X13.015 Y-4.665 E0.04991
G1 X13.015 Y-5.193 E0.01591
G1 X14.185 Y-4.023 E0.04991
G1 X14.185 Y-4.550 E0.01591
G1 X13.015 Y-5.721 E0.04991
G1 X13.015 Y-6.248 E0.01591
G1 X14.185 Y-5.078 E0.04991
G1 X14.185 Y-5.606 E0.01591
G1 X13.015 Y-6.776 E0.04991
G1 X13.015 Y-7.304 E0.01591
G1 X14.185 Y-6.133 E0.04991
G1 X14.185 Y-6.661 E0.01591
G1 X13.015 Y-7.831 E0.04991
G1 X13.015 Y-8.359 E0.01591
G1 X14.185 Y-7.188 E0.04991
G1 X14.185 Y-7.716 E0.01591
G1 X13.466 Y-8.435 E0.03067
G1 X13.994 Y-8.435 E0.01591
G1 X14.185 Y-8.244 E0.00817
M106 S255
G1 E-3.50000 F1500.00000
G1 Z1.100 F15000.000
G1 X-12.807 Y-8.643 F15000.000
G1 Z0.900 F15000.000
G1 E3.50000 F1500.00000
G1 X-12.807 Y1.857 E0.30306 F2400.000
G1 X-8.766 Y1.857 E0.11664 F2400.000
G1 X-8.766 Y2.857 E0.02886
G1 X8.777 Y2.857 E0.50632
G1 X8.777 Y1.857 E0.02886
G1 X12.807 Y1.857 E0.11633
G1 X12.807 Y-8.643 E0.30306
G1 X14.393 Y-8.643 E0.04577
G1 X14.393 Y8.643 E0.49892
G1 X-14.393 Y8.643 E0.83084
G1 X-14.393 Y-8.643 E0.49892
G1 X-12.867 Y-8.643 E0.04404
G1 X-12.867 Y-9.000 F15000.000
G1 X-12.450 Y-9.000 E0.01204 F2400.000
G1 X-12.450 Y1.500 E0.30306
G1 X-8.409 Y1.500 E0.11664 F2400.000
G1 X-8.409 Y2.500 E0.02886
G1 X8.419 Y2.500 E0.48571
G1 X8.419 Y1.500 E0.02886
G1 X12.450 Y1.500 E0.11633
