; generated by Slic3r 1.2.9 on 2019-02-19 at 15:11:59

; external perimeters extrusion width = 0.40mm
; perimeters extrusion width = 0.40mm
; infill extrusion width = 0.40mm
; solid infill extrusion width = 0.40mm
; top infill extrusion width = 0.40mm

M107
M83
T0
M116
G21 ; set units to millimeters
G90 ; use absolute coordinates
M83 ; use relative distances for extrusion
G1 E-3.50000 F1500.00000
G1 Z0.400 F15000.000
G1 X-39.218 Y1.050 F15000.000
G1 Z0.300 F15000.000
G1 E3.50000 F1500.00000
G1 X-39.834 Y-21.953 E1.77336 F960.000
G1 X-39.836 Y-40.950 E1.46404
G1 X-39.441 Y-42.597 E0.13052
G1 X-38.343 Y-43.887 E0.13052
G1 X-36.200 Y-44.586 E0.17373
G1 X36.200 Y-44.586 E5.57954
G1 X37.847 Y-44.191 E0.13052
G1 X39.137 Y-43.093 E0.13052 F960.000
G1 X39.836 Y-40.950 E0.17373
G1 X39.836 Y40.950 E6.31166
G1 X39.441 Y42.597 E0.13052
G1 X38.343 Y43.887 E0.13052
G1 X36.200 Y44.586 E0.17373
G1 X-13.700 Y44.586 E3.84557
G1 X-15.220 Y44.253 E0.11989
G1 X-36.292 Y34.556 E1.78765
G1 X-37.624 Y33.510 E0.13052
G1 X-38.407 Y31.351 E0.17696
G1 X-39.217 Y1.110 E2.33136
G1 E-3.50000 F1500.00000
G1 Z0.700 F15000.000
G1 X35.214 Y-4.471 F15000.000
G1 Z0.300 F15000.000
G1 E3.50000 F1500.00000
G1 X35.214 Y39.964 E3.42445 F720.000
G1 X-12.714 Y39.964 E3.69365 F720.000
G1 X-12.714 Y35.036 E0.37984
G1 X27.286 Y35.036 E3.08262
G1 X27.286 Y-35.036 E5.40007
G1 X-27.286 Y-35.036 E4.20556
G1 X-27.286 Y-23.036 E0.92479
G1 X-35.214 Y-23.036 E0.61103
G1 X-35.214 Y-39.964 E1.30462
G1 X35.214 Y-39.964 E5.42763
G1 X35.214 Y-4.531 E2.73067
G1 X35.850 Y-4.531 F15000.000
G1 X35.850 Y40.600 E3.47806 F720.000
G1 X-13.350 Y40.600 E3.79162 F720.000
G1 X-13.350 Y34.400 E0.47781
G1 X26.650 Y34.400 E3.08262
G1 X26.650 Y-34.400 E5.30211
G1 X-26.650 Y-34.400 E4.10759
G1 X-26.650 Y-22.400 E0.92479
G1 X-35.850 Y-22.400 E0.70900
G1 X-35.850 Y-40.600 E1.40259
G1 X35.850 Y-40.600 E5.52560
G1 X35.850 Y-4.591 E2.77503
G1 X35.504 Y-4.331 F15000.000
G1 X34.829 Y-17.566 F15000.000
G1 X27.671 Y-24.724 E0.78480 F960.000
G1 X27.671 Y-25.628 E0.07011
G1 X34.829 Y-18.471 E0.78480
G1 X34.829 Y-19.375 E0.07011
G1 X27.671 Y-26.533 E0.78480
G1 X27.671 Y-27.437 E0.07011
G1 X34.829 Y-20.279 E0.78480
G1 X34.829 Y-21.183 E0.07011
G1 X27.671 Y-28.341 E0.78480
G1 X27.671 Y-29.246 E0.07011
G1 X34.829 Y-22.088 E0.78480
G1 X34.829 Y-22.992 E0.07011
G1 X27.671 Y-30.150 E0.78480
G1 X27.671 Y-31.054 E0.07011
G1 X34.829 Y-23.896 E0.78480
G1 X34.829 Y-24.801 E0.07011
G1 X27.671 Y-31.959 E0.78480
G1 X27.671 Y-32.863 E0.07011
G1 X34.829 Y-25.705 E0.78480
G1 X34.829 Y-26.609 E0.07011
G1 X27.671 Y-33.767 E0.78480
G1 X27.671 Y-34.671 E0.07011
G1 X34.829 Y-27.513 E0.78480
G1 X27.671 Y-23.820 F15000.000
G1 X34.829 Y-16.662 E0.78480 F960.000
G1 X34.829 Y-15.758 E0.07011
G1 X27.671 Y-22.916 E0.78480
G1 X27.671 Y-22.011 E0.07011
G1 X34.829 Y-14.853 E0.78480
G1 X34.829 Y-13.949 E0.07011
G1 X27.671 Y-21.107 E0.78480
G1 X27.671 Y-20.203 E0.07011
G1 X34.829 Y-13.045 E0.78480
G1 X34.829 Y-12.141 E0.07011
G1 X27.671 Y-19.298 E0.78480
G1 X27.671 Y-18.394 E0.07011
G1 X34.829 Y-11.236 E0.78480
G1 X34.829 Y-10.332 E0.07011
G1 X27.671 Y-17.490 E0.78480
G1 X27.671 Y-16.586 E0.07011
G1 X34.829 Y-9.428 E0.78480
G1 X34.829 Y-8.523 E0.07011
G1 X27.671 Y-15.681 E0.78480
G1 X27.671 Y-14.777 E0.07011
G1 X34.829 Y-7.619 E0.78480
G1 X34.829 Y-6.715 E0.07011
G1 X27.671 Y-13.873 E0.78480
G1 X27.671 Y-12.968 E0.07011
G1 X34.829 Y-5.810 E0.78480
G1 X34.829 Y-4.906 E0.07011
G1 X27.671 Y-12.064 E0.78480
G1 X27.671 Y-11.160 E0.07011
G1 X34.829 Y-4.002 E0.78480
G1 X34.829 Y-3.098 E0.07011
G1 X27.671 Y-10.256 E0.78480
G1 X27.671 Y-9.351 E0.07011
G1 X34.829 Y-2.193 E0.78480
G1 X34.829 Y-1.289 E0.07011
G1 X27.671 Y-8.447 E0.78480
G1 X27.671 Y-7.543 E0.07011
G1 X34.829 Y-0.385 E0.78480
G1 X34.829 Y0.520 E0.07011
G1 X27.671 Y-6.638 E0.78480
G1 X27.671 Y-5.734 E0.07011
G1 X34.829 Y1.424 E0.78480
G1 X34.829 Y2.328 E0.07011
G1 X27.671 Y-4.830 E0.78480
G1 X27.671 Y-3.925 E0.07011
G1 X34.829 Y3.232 E0.78480
G1 X34.829 Y4.137 E0.07011
G1 X27.671 Y-3.021 E0.78480
G1 X27.671 Y-2.117 E0.07011
G1 X34.829 Y5.041 E0.78480
G1 X34.829 Y5.945 E0.07011
G1 X27.671 Y-1.213 E0.78480
G1 X27.671 Y-0.308 E0.07011
G1 X34.829 Y6.850 E0.78480
G1 X34.829 Y7.754 E0.07011
G1 X27.671 Y0.596 E0.78480
G1 X27.671 Y1.500 E0.07011
G1 X34.829 Y8.658 E0.78480
G1 X34.829 Y9.562 E0.07011
G1 X27.671 Y2.405 E0.78480
G1 X27.671 Y3.309 E0.07011
G1 X34.829 Y10.467 E0.78480
G1 X34.829 Y11.371 E0.07011
G1 X27.671 Y4.213 E0.78480
G1 X27.671 Y5.117 E0.07011
G1 X34.829 Y12.275 E0.78480
G1 X34.829 Y13.180 E0.07011
G1 X27.671 Y6.022 E0.78480
G1 X27.671 Y6.926 E0.07011
G1 X34.829 Y14.084 E0.78480
G1 X34.829 Y14.988 E0.07011
G1 X27.671 Y7.830 E0.78480
G1 X27.671 Y8.735 E0.07011
G1 X34.829 Y15.893 E0.78480
G1 X34.829 Y16.797 E0.07011
G1 X27.671 Y9.639 E0.78480
G1 X27.671 Y10.543 E0.07011
G1 X34.829 Y17.701 E0.78480
G1 X34.829 Y18.605 E0.07011
G1 X27.671 Y11.447 E0.78480
G1 X27.671 Y12.352 E0.07011
G1 X34.829 Y19.510 E0.78480
G1 X34.829 Y20.414 E0.07011
G1 X27.671 Y13.256 E0.78480
G1 X27.671 Y14.160 E0.07011
G1 X34.829 Y21.318 E0.78480
G1 X34.829 Y22.223 E0.07011
G1 X27.671 Y15.065 E0.78480
G1 X27.671 Y15.969 E0.07011
G1 X34.829 Y23.127 E0.78480
G1 X34.829 Y24.031 E0.07011
G1 X27.671 Y16.873 E0.78480
G1 X27.671 Y17.778 E0.07011
G1 X34.829 Y24.935 E0.78480
G1 X34.829 Y25.840 E0.07011
G1 X27.671 Y18.682 E0.78480
G1 X27.671 Y19.586 E0.07011
G1 X34.829 Y26.744 E0.78480
G1 X34.829 Y27.648 E0.07011
G1 X27.671 Y20.490 E0.78480
G1 X27.671 Y21.395 E0.07011
G1 X34.829 Y28.553 E0.78480
G1 X34.829 Y29.457 E0.07011
G1 X27.671 Y22.299 E0.78480
G1 X27.671 Y23.203 E0.07011
G1 X34.829 Y30.361 E0.78480
G1 X34.829 Y31.265 E0.07011
G1 X27.671 Y24.108 E0.78480
G1 X27.671 Y25.012 E0.07011
G1 X34.829 Y32.170 E0.78480
G1 X34.829 Y33.074 E0.07011
G1 X27.671 Y25.916 E0.78480
G1 X27.671 Y26.820 E0.07011
G1 X34.829 Y33.978 E0.78480
G1 X34.829 Y34.883 E0.07011
G1 X27.671 Y27.725 E0.78480
G1 X27.671 Y28.629 E0.07011
G1 X34.829 Y35.787 E0.78480
G1 X34.829 Y36.691 E0.07011
G1 X27.671 Y29.533 E0.78480
G1 X27.671 Y30.438 E0.07011
G1 X34.829 Y37.596 E0.78480
G1 X34.829 Y38.500 E0.07011
G1 X27.671 Y31.342 E0.78480
G1 X27.671 Y32.246 E0.07011
G1 X34.829 Y39.404 E0.78480
G1 X34.100 Y39.579 E0.05815
G1 X27.671 Y33.150 E0.70482
G1 X27.671 Y34.055 E0.07011
G1 X33.195 Y39.579 E0.60567
G1 X32.291 Y39.579 E0.07011
G1 X27.671 Y34.959 E0.50653
G1 X27.229 Y35.421 F15000.000
G1 X31.387 Y39.579 E0.45588 F960.000
G1 X30.482 Y39.579 E0.07011
G1 X26.324 Y35.421 E0.45588
G1 X25.420 Y35.421 E0.07011
G1 X29.578 Y39.579 E0.45588
G1 X28.674 Y39.579 E0.07011
G1 X24.516 Y35.421 E0.45588
G1 X23.612 Y35.421 E0.07011
G1 X27.769 Y39.579 E0.45588
G1 X26.865 Y39.579 E0.07011
G1 X22.707 Y35.421 E0.45588
G1 X21.803 Y35.421 E0.07011
G1 X25.961 Y39.579 E0.45588
G1 X25.057 Y39.579 E0.07011
G1 X20.899 Y35.421 E0.45588
G1 X19.994 Y35.421 E0.07011
G1 X24.152 Y39.579 E0.45588
G1 X23.248 Y39.579 E0.07011
G1 X19.090 Y35.421 E0.45588
G1 X18.186 Y35.421 E0.07011
G1 X22.344 Y39.579 E0.45588
G1 X21.439 Y39.579 E0.07011
G1 X17.282 Y35.421 E0.45588
G1 X16.377 Y35.421 E0.07011
G1 X20.535 Y39.579 E0.45588
G1 X19.631 Y39.579 E0.07011
G1 X15.473 Y35.421 E0.45588
G1 X14.569 Y35.421 E0.07011
G1 X18.727 Y39.579 E0.45588
G1 X17.822 Y39.579 E0.07011
G1 X13.664 Y35.421 E0.45588
G1 X12.760 Y35.421 E0.07011
G1 X16.918 Y39.579 E0.45588
G1 X16.014 Y39.579 E0.07011
G1 X11.856 Y35.421 E0.45588
G1 X10.951 Y35.421 E0.07011
G1 X15.109 Y39.579 E0.45588
G1 X14.205 Y39.579 E0.07011
G1 X10.047 Y35.421 E0.45588
G1 X9.143 Y35.421 E0.07011
G1 X13.301 Y39.579 E0.45588
G1 X12.397 Y39.579 E0.07011
G1 X8.239 Y35.421 E0.45588
G1 X7.334 Y35.421 E0.07011
G1 X11.492 Y39.579 E0.45588
G1 X10.588 Y39.579 E0.07011
G1 X6.430 Y35.421 E0.45588
G1 X5.526 Y35.421 E0.07011
G1 X9.684 Y39.579 E0.45588
G1 X8.779 Y39.579 E0.07011
G1 X4.621 Y35.421 E0.45588
G1 X3.717 Y35.421 E0.07011
G1 X7.875 Y39.579 E0.45588
G1 X6.971 Y39.579 E0.07011
G1 X2.813 Y35.421 E0.45588
G1 X1.909 Y35.421 E0.07011
G1 X6.066 Y39.579 E0.45588
G1 X5.162 Y39.579 E0.07011
G1 X1.004 Y35.421 E0.45588
G1 X0.100 Y35.421 E0.07011
G1 X4.258 Y39.579 E0.45588
G1 X3.354 Y39.579 E0.07011
G1 X-0.804 Y35.421 E0.45588
G1 X-1.709 Y35.421 E0.07011
G1 X2.449 Y39.579 E0.45588
G1 X1.545 Y39.579 E0.07011
G1 X-2.613 Y35.421 E0.45588
G1 X-3.517 Y35.421 E0.07011
G1 X0.641 Y39.579 E0.45588
G1 X-0.264 Y39.579 E0.07011
G1 X-4.422 Y35.421 E0.45588
G1 X-5.326 Y35.421 E0.07011
G1 X-1.168 Y39.579 E0.45588
G1 X-2.072 Y39.579 E0.07011
G1 X-6.230 Y35.421 E0.45588
G1 X-7.134 Y35.421 E0.07011
G1 X-2.976 Y39.579 E0.45588
G1 X-3.881 Y39.579 E0.07011
G1 X-8.039 Y35.421 E0.45588
G1 X-8.943 Y35.421 E0.07011
G1 X-4.785 Y39.579 E0.45588
G1 X-5.689 Y39.579 E0.07011
G1 X-9.847 Y35.421 E0.45588
G1 X-10.752 Y35.421 E0.07011
G1 X-6.594 Y39.579 E0.45588
G1 X-7.498 Y39.579 E0.07011
G1 X-11.656 Y35.421 E0.45588
G1 X-12.329 Y35.652 E0.05518
G1 X-8.402 Y39.579 E0.43053
G1 X-9.307 Y39.579 E0.07011
G1 X-12.329 Y36.557 E0.33138
G1 X-12.329 Y37.461 E0.07011
G1 X-10.211 Y39.579 E0.23224
G1 X-11.115 Y39.579 E0.07011
G1 X-12.329 Y38.365 E0.13309
G1 X-12.329 Y39.269 E0.07011
G1 X-12.019 Y39.579 E0.03394
G1 E-3.50000 F1500.00000
G1 Z0.700 F15000.000
G1 X-34.829 Y-23.924 F15000.000
G1 Z0.300 F15000.000
G1 E3.50000 F1500.00000
G1 X-34.326 Y-23.421 E0.05512 F960.000
G1 X-33.422 Y-23.421 E0.07011
G1 X-34.829 Y-24.828 E0.15427
G1 X-34.829 Y-25.732 E0.07011
G1 X-32.518 Y-23.421 E0.25341
G1 X-31.613 Y-23.421 E0.07011
G1 X-34.829 Y-26.637 E0.35256
G1 X-34.829 Y-27.541 E0.07011
G1 X-30.709 Y-23.421 E0.45171
G1 X-29.805 Y-23.421 E0.07011
G1 X-34.829 Y-28.445 E0.55085
G1 X-34.829 Y-29.350 E0.07011
G1 X-28.900 Y-23.421 E0.65000
G1 X-27.996 Y-23.421 E0.07011
G1 X-34.829 Y-30.254 E0.74915
G1 X-34.829 Y-31.158 E0.07011
G1 X-27.671 Y-24.000 E0.78480
G1 X-27.671 Y-24.904 E0.07011
G1 X-34.829 Y-32.062 E0.78480
G1 X-34.829 Y-32.967 E0.07011
G1 X-27.671 Y-25.809 E0.78480
G1 X-27.671 Y-26.713 E0.07011
G1 X-34.829 Y-33.871 E0.78480
G1 X-34.829 Y-34.775 E0.07011
G1 X-27.671 Y-27.617 E0.78480
G1 X-27.671 Y-28.522 E0.07011
G1 X-34.829 Y-35.680 E0.78480
G1 X-34.829 Y-36.584 E0.07011
G1 X-27.671 Y-29.426 E0.78480
G1 X-27.671 Y-30.330 E0.07011
G1 X-34.829 Y-37.488 E0.78480
G1 X-34.829 Y-38.392 E0.07011
G1 X-27.671 Y-31.235 E0.78480
G1 X-27.671 Y-32.139 E0.07011
G1 X-34.829 Y-39.297 E0.78480
G1 X-34.207 Y-39.579 E0.05296
G1 X-27.671 Y-33.043 E0.71660
G1 X-27.671 Y-33.947 E0.07011
G1 X-33.303 Y-39.579 E0.61745
G1 X-32.398 Y-39.579 E0.07011
G1 X-27.671 Y-34.852 E0.51830
G1 X-27.336 Y-35.421 F15000.000
G1 X-31.494 Y-39.579 E0.45588 F960.000
G1 X-30.590 Y-39.579 E0.07011
G1 X-26.432 Y-35.421 E0.45588
G1 X-25.528 Y-35.421 E0.07011
G1 X-29.685 Y-39.579 E0.45588
G1 X-28.781 Y-39.579 E0.07011
G1 X-24.623 Y-35.421 E0.45588
G1 X-23.719 Y-35.421 E0.07011
G1 X-27.877 Y-39.579 E0.45588
G1 X-26.973 Y-39.579 E0.07011
G1 X-22.815 Y-35.421 E0.45588
G1 X-21.910 Y-35.421 E0.07011
G1 X-26.068 Y-39.579 E0.45588
G1 X-25.164 Y-39.579 E0.07011
G1 X-21.006 Y-35.421 E0.45588
G1 X-20.102 Y-35.421 E0.07011
G1 X-24.260 Y-39.579 E0.45588
G1 X-23.355 Y-39.579 E0.07011
G1 X-19.197 Y-35.421 E0.45588
G1 X-18.293 Y-35.421 E0.07011
G1 X-22.451 Y-39.579 E0.45588
G1 X-21.547 Y-39.579 E0.07011
G1 X-17.389 Y-35.421 E0.45588
G1 X-16.485 Y-35.421 E0.07011
G1 X-20.643 Y-39.579 E0.45588
G1 X-19.738 Y-39.579 E0.07011
G1 X-15.580 Y-35.421 E0.45588
G1 X-14.676 Y-35.421 E0.07011
G1 X-18.834 Y-39.579 E0.45588
G1 X-17.930 Y-39.579 E0.07011
G1 X-13.772 Y-35.421 E0.45588
G1 X-12.867 Y-35.421 E0.07011
G1 X-17.025 Y-39.579 E0.45588
G1 X-16.121 Y-39.579 E0.07011
G1 X-11.963 Y-35.421 E0.45588
G1 X-11.059 Y-35.421 E0.07011
G1 X-15.217 Y-39.579 E0.45588
G1 X-14.312 Y-39.579 E0.07011
G1 X-10.155 Y-35.421 E0.45588
G1 X-9.250 Y-35.421 E0.07011
G1 X-13.408 Y-39.579 E0.45588
G1 X-12.504 Y-39.579 E0.07011
G1 X-8.346 Y-35.421 E0.45588
G1 X-7.442 Y-35.421 E0.07011
G1 X-11.600 Y-39.579 E0.45588
G1 X-10.695 Y-39.579 E0.07011
G1 X-6.537 Y-35.421 E0.45588
G1 X-5.633 Y-35.421 E0.07011
G1 X-9.791 Y-39.579 E0.45588
G1 X-8.887 Y-39.579 E0.07011
G1 X-4.729 Y-35.421 E0.45588
G1 X-3.825 Y-35.421 E0.07011
G1 X-7.982 Y-39.579 E0.45588
G1 X-7.078 Y-39.579 E0.07011
G1 X-2.920 Y-35.421 E0.45588
G1 X-2.016 Y-35.421 E0.07011
G1 X-6.174 Y-39.579 E0.45588
G1 X-5.270 Y-39.579 E0.07011
G1 X-1.112 Y-35.421 E0.45588
G1 X-0.207 Y-35.421 E0.07011
G1 X-4.365 Y-39.579 E0.45588
G1 X-3.461 Y-39.579 E0.07011
G1 X0.697 Y-35.421 E0.45588
G1 X1.601 Y-35.421 E0.07011
G1 X-2.557 Y-39.579 E0.45588
G1 X-1.652 Y-39.579 E0.07011
G1 X2.506 Y-35.421 E0.45588
G1 X3.410 Y-35.421 E0.07011
G1 X-0.748 Y-39.579 E0.45588
G1 X0.156 Y-39.579 E0.07011
G1 X4.314 Y-35.421 E0.45588
G1 X5.218 Y-35.421 E0.07011
G1 X1.060 Y-39.579 E0.45588
G1 X1.965 Y-39.579 E0.07011
G1 X6.123 Y-35.421 E0.45588
G1 X7.027 Y-35.421 E0.07011
G1 X2.869 Y-39.579 E0.45588
G1 X3.773 Y-39.579 E0.07011
G1 X7.931 Y-35.421 E0.45588
G1 X8.836 Y-35.421 E0.07011
G1 X4.678 Y-39.579 E0.45588
G1 X5.582 Y-39.579 E0.07011
G1 X9.740 Y-35.421 E0.45588
G1 X10.644 Y-35.421 E0.07011
G1 X6.486 Y-39.579 E0.45588
G1 X7.391 Y-39.579 E0.07011
G1 X11.548 Y-35.421 E0.45588
G1 X12.453 Y-35.421 E0.07011
G1 X8.295 Y-39.579 E0.45588
G1 X9.199 Y-39.579 E0.07011
G1 X13.357 Y-35.421 E0.45588
G1 X14.261 Y-35.421 E0.07011
G1 X10.103 Y-39.579 E0.45588
G1 X11.008 Y-39.579 E0.07011
G1 X15.166 Y-35.421 E0.45588
G1 X16.070 Y-35.421 E0.07011
G1 X11.912 Y-39.579 E0.45588
G1 X12.816 Y-39.579 E0.07011
G1 X16.974 Y-35.421 E0.45588
G1 X17.878 Y-35.421 E0.07011
G1 X13.721 Y-39.579 E0.45588
G1 X14.625 Y-39.579 E0.07011
G1 X18.783 Y-35.421 E0.45588
G1 X19.687 Y-35.421 E0.07011
G1 X15.529 Y-39.579 E0.45588
G1 X16.433 Y-39.579 E0.07011
G1 X20.591 Y-35.421 E0.45588
G1 X21.496 Y-35.421 E0.07011
G1 X17.338 Y-39.579 E0.45588
G1 X18.242 Y-39.579 E0.07011
G1 X22.400 Y-35.421 E0.45588
G1 X23.304 Y-35.421 E0.07011
G1 X19.146 Y-39.579 E0.45588
G1 X20.051 Y-39.579 E0.07011
G1 X24.209 Y-35.421 E0.45588
G1 X25.113 Y-35.421 E0.07011
G1 X20.955 Y-39.579 E0.45588
G1 X21.859 Y-39.579 E0.07011
G1 X26.017 Y-35.421 E0.45588
G1 X26.921 Y-35.421 E0.07011
G1 X22.763 Y-39.579 E0.45588
G1 X23.668 Y-39.579 E0.07011
G1 X34.829 Y-28.418 E1.22372
G1 X34.829 Y-29.322 E0.07011
G1 X24.572 Y-39.579 E1.12457
G1 X25.476 Y-39.579 E0.07011
G1 X34.829 Y-30.226 E1.02542
G1 X34.829 Y-31.131 E0.07011
G1 X26.381 Y-39.579 E0.92628
G1 X27.285 Y-39.579 E0.07011
G1 X34.829 Y-32.035 E0.82713
G1 X34.829 Y-32.939 E0.07011
G1 X28.189 Y-39.579 E0.72798
G1 X29.094 Y-39.579 E0.07011
G1 X34.829 Y-33.844 E0.62884
G1 X34.829 Y-34.748 E0.07011
G1 X29.998 Y-39.579 E0.52969
G1 X30.902 Y-39.579 E0.07011
G1 X34.829 Y-35.652 E0.43054
G1 X34.829 Y-36.556 E0.07011
G1 X31.806 Y-39.579 E0.33139
G1 X32.711 Y-39.579 E0.07011
G1 X34.829 Y-37.461 E0.23225
G1 X34.829 Y-38.365 E0.07011
G1 X33.615 Y-39.579 E0.13310
G1 X34.519 Y-39.579 E0.07011
G1 X34.829 Y-39.269 E0.03395
G1 E-3.50000 F1500.00000
G1 Z0.700 F15000.000
G1 X-24.387 Y15.265 F15000.000
G1 Z0.300 F15000.000
G1 E3.50000 F1500.00000
G1 X-24.122 Y15.630 E0.03483 F600.000
G1 X-23.955 Y16.050 E0.03483
G1 X-23.899 Y16.499 E0.03483
G1 X-23.955 Y16.947 E0.03483
G1 X-24.122 Y17.368 E0.03483
G1 X-24.387 Y17.733 E0.03483
G1 X-24.736 Y18.021 E0.03483
G1 X-25.145 Y18.214 E0.03483
G1 X-25.589 Y18.299 E0.03483
G1 X-26.040 Y18.270 E0.03483
G1 X-26.470 Y18.130 E0.03483
G1 X-26.851 Y17.888 E0.03483
G1 X-27.161 Y17.559 E0.03483
G1 X-27.378 Y17.163 E0.03483
G1 X-27.491 Y16.725 E0.03483
G1 X-27.491 Y16.273 E0.03483
G1 X-27.378 Y15.835 E0.03483
G1 X-27.161 Y15.439 E0.03483
G1 X-26.851 Y15.110 E0.03483
G1 X-26.470 Y14.867 E0.03483
G1 X-26.040 Y14.728 E0.03483
G1 X-25.589 Y14.699 E0.03483 F600.000
G1 X-25.145 Y14.784 E0.03483
G1 X-24.736 Y14.976 E0.03483
G1 X-24.434 Y15.226 E0.03021
G1 X-23.994 Y15.190 F15000.000
G1 X-25.089 Y3.299 F15000.000
G1 X-25.540 Y3.270 E0.03483 F600.000
G1 X-25.970 Y3.130 E0.03483
G1 X-26.351 Y2.888 E0.03483
G1 X-26.661 Y2.559 E0.03483
G1 X-26.878 Y2.163 E0.03483
G1 X-26.991 Y1.725 E0.03483
G1 X-26.991 Y1.273 E0.03483
G1 X-26.878 Y0.835 E0.03483
G1 X-26.661 Y0.439 E0.03483
G1 X-26.351 Y0.110 E0.03483
