; generated by Slic3r 1.2.9 on 2019-02-18 at 17:58:54

; external perimeters extrusion width = 0.40mm
; perimeters extrusion width = 0.40mm
; infill extrusion width = 0.40mm
; solid infill extrusion width = 0.40mm
; top infill extrusion width = 0.40mm
; support material extrusion width = 0.40mm

M107
M83
T0
M116
G21 ; set units to millimeters
G90 ; use absolute coordinates
M83 ; use relative distances for extrusion
G1 E-3.50000 F1500.00000
G1 Z0.400 F15000.000
G1 X-27.372 Y0.000 F15000.000
G1 Z0.300 F15000.000
G1 E3.50000 F1500.00000
G1 X-27.372 Y-11.801 E0.90947 F960.000
G1 X-26.977 Y-13.448 E0.13052
G1 X-26.370 Y-14.307 E0.08106
G1 X-8.798 Y-32.777 E1.96468
G1 X-7.377 Y-33.699 E0.13052
G1 X-6.164 Y-33.907 E0.09484
G1 X23.736 Y-33.907 E2.30426
G1 X25.383 Y-33.513 E0.13052
G1 X26.673 Y-32.415 E0.13052 F960.000
G1 X27.369 Y-30.404 E0.16395
G1 X28.607 Y3.390 E2.60614
G1 X28.570 Y23.469 E1.54738
G1 X28.185 Y25.091 E0.12847
G1 X27.768 Y25.921 E0.07160
G1 X27.440 Y26.455 E0.04830
G1 X23.036 Y32.405 E0.57046
G1 X21.739 Y33.494 E0.13052
G1 X20.308 Y33.872 E0.11409
G1 X19.561 Y33.907 E0.05760
G1 X6.661 Y33.907 E0.99414
G1 X6.284 Y33.887 E0.02913
G1 X-24.113 Y30.715 E2.35531
G1 X-25.711 Y30.151 E0.13052
G1 X-26.879 Y28.925 E0.13052
G1 X-27.372 Y27.099 E0.14580
G1 X-27.372 Y0.060 E2.08375
G1 E-3.50000 F1500.00000
G1 Z0.700 F15000.000
G1 X10.211 Y-2.279 F15000.000
G1 Z0.300 F15000.000
G1 E3.50000 F1500.00000
G1 X10.211 Y-5.579 E0.25432 F600.000
G1 X16.511 Y-5.579 E0.48551 F600.000
G1 X16.511 Y-2.279 E0.25432
G1 X10.271 Y-2.279 E0.48089
G1 X9.811 Y-2.279 F15000.000
G1 E-3.50000 F1500.00000
G1 Z0.700 F15000.000
G1 X11.223 Y17.901 F15000.000
G1 Z0.300 F15000.000
G1 E3.50000 F1500.00000
G1 X11.745 Y17.374 E0.05714 F720.000
G1 X12.503 Y16.164 E0.11006
G1 X12.958 Y14.882 E0.10483
G1 X13.016 Y14.593 E0.02270
G1 X13.153 Y13.319 E0.09877
G1 X12.996 Y11.897 E0.11023
G1 X12.507 Y10.487 E0.11503
G1 X11.746 Y9.269 E0.11066
G1 X10.693 Y8.208 E0.11519
G1 X9.450 Y7.427 E0.11315
G1 X8.067 Y6.943 E0.11290
G1 X7.647 Y6.896 E0.03258
G1 X7.647 Y-8.643 E1.19751
G1 X18.576 Y-8.643 E0.84223
G1 X18.576 Y-3.096 E0.42747
G1 X18.045 Y-3.032 E0.04117 F720.000
G1 X17.147 Y-2.691 E0.07405
G1 X17.147 Y-6.214 E0.27152
G1 X9.576 Y-6.214 E0.58348
G1 X9.576 Y-1.643 E0.35228
G1 X15.331 Y-1.643 E0.44354
G1 X14.222 Y-0.388 E0.12904
G1 X13.513 Y0.954 E0.11701
G1 X13.165 Y2.308 E0.10772
G1 X13.118 Y2.546 E0.01869
G1 X13.112 Y4.075 E0.11780
G1 X13.507 Y5.676 E0.12710
G1 X14.223 Y7.033 E0.11823
G1 X15.272 Y8.219 E0.12200
G1 X16.570 Y9.115 E0.12162
G1 X18.045 Y9.675 E0.12156
G1 X18.576 Y9.739 E0.04117
G1 X18.576 Y16.904 E0.55218
G1 X18.045 Y16.968 E0.04117
G1 X16.570 Y17.528 E0.12156
G1 X15.272 Y18.424 E0.12163
G1 X14.222 Y19.612 E0.12213
G1 X13.513 Y20.954 E0.11701
G1 X13.118 Y22.546 E0.12638
G1 X13.112 Y24.070 E0.11745
G1 X13.442 Y25.462 E0.11023
G1 X13.545 Y25.749 E0.02353
G1 X14.223 Y27.033 E0.11190
G1 X15.272 Y28.219 E0.12197
G1 X16.430 Y29.018 E0.10843
G1 X16.346 Y29.286 E0.02163
G1 X7.647 Y29.286 E0.67041
G1 X7.647 Y19.747 E0.73512
G1 X8.067 Y19.700 E0.03258
G1 X9.450 Y19.216 E0.11290
G1 X10.693 Y18.435 E0.11315
G1 X11.180 Y17.943 E0.05334
G1 X10.729 Y17.496 F15000.000
G1 X11.244 Y16.977 E0.05631 F720.000
G1 X11.927 Y15.886 E0.09923
G1 X12.344 Y14.712 E0.09598
G1 X12.387 Y14.496 E0.01697
G1 X12.513 Y13.320 E0.09117
G1 X12.372 Y12.038 E0.09940
G1 X11.930 Y10.763 E0.10398
G1 X11.244 Y9.667 E0.09965
G1 X10.293 Y8.708 E0.10411
G1 X9.172 Y8.003 E0.10201
G1 X7.925 Y7.567 E0.10186
G1 X7.011 Y7.464 E0.07084
G1 X7.011 Y-9.279 E1.29027
G1 X19.211 Y-9.279 E0.94020
G1 X19.211 Y-2.533 E0.51986
G1 X18.199 Y-2.410 E0.07862 F720.000
G1 X16.868 Y-1.905 E0.10967
G1 X15.696 Y-1.097 E0.10971
G1 X14.749 Y-0.024 E0.11029
G1 X14.110 Y1.185 E0.10539
G1 X13.785 Y2.450 E0.10064
G1 X13.752 Y2.615 E0.01296
G1 X13.748 Y2.843 E0.01759
G1 X13.748 Y3.997 E0.08896
G1 X14.106 Y5.448 E0.11515
G1 X14.750 Y6.669 E0.10637
G1 X15.696 Y7.740 E0.11015
G1 X16.868 Y8.548 E0.10970
G1 X18.199 Y9.053 E0.10967
G1 X19.211 Y9.176 E0.07862
G1 X19.211 Y17.467 E0.63897
G1 X18.199 Y17.590 E0.07861
G1 X16.868 Y18.095 E0.10967
G1 X15.696 Y18.903 E0.10971
G1 X14.749 Y19.976 E0.11029
G1 X14.110 Y21.185 E0.10539
G1 X13.785 Y22.450 E0.10064
G1 X13.752 Y22.615 E0.01296
G1 X13.748 Y23.996 E0.10642
G1 X14.052 Y25.281 E0.10179
G1 X14.128 Y25.492 E0.01732
G1 X14.750 Y26.669 E0.10254
G1 X15.696 Y27.740 E0.11014
G1 X16.868 Y28.548 E0.10970
G1 X18.199 Y29.053 E0.10967
G1 X19.211 Y29.176 E0.07862
G1 X19.211 Y29.921 E0.05746
G1 X7.011 Y29.921 E0.94020
G1 X7.011 Y19.179 E0.82788
G1 X7.925 Y19.076 E0.07084
G1 X9.172 Y18.639 E0.10186
G1 X10.293 Y17.935 E0.10201
G1 X10.687 Y17.538 E0.04310
G1 X11.116 Y17.598 F15000.000
G1 E-3.50000 F1500.00000
G1 Z0.700 F15000.000
G1 X13.050 Y10.718 F15000.000
G1 Z0.300 F15000.000
G1 E3.50000 F1500.00000
G1 X18.190 Y15.858 E0.57067 F960.000
G1 X18.023 Y16.606 E0.06019
G1 X13.410 Y11.994 E0.51209
G1 X13.524 Y13.023 E0.08128
G1 X17.359 Y16.858 E0.42578
G1 X16.695 Y17.110 E0.05573
G1 X13.466 Y13.881 E0.35843
G1 X13.364 Y14.695 E0.06436
G1 X16.110 Y17.441 E0.30487
G1 X15.569 Y17.815 E0.05167
G1 X13.146 Y15.392 E0.26895
G1 X12.906 Y16.068 E0.05629
G1 X15.034 Y18.195 E0.23616
G1 X14.604 Y18.681 E0.05092
G1 X12.585 Y16.663 E0.22411
G1 X12.233 Y17.226 E0.05215
G1 X14.174 Y19.167 E0.21557
G1 X13.793 Y19.701 E0.05152
G1 X11.839 Y17.747 E0.21689
G1 X11.383 Y18.207 E0.05082
G1 X13.476 Y20.300 E0.23240
G1 X13.160 Y20.900 E0.05320
G1 X10.927 Y18.667 E0.24790
G1 X10.374 Y19.030 E0.05190
G1 X12.977 Y21.633 E0.28895
G1 X12.795 Y22.366 E0.05931
G1 X9.812 Y19.383 E0.33113
G1 X9.189 Y19.676 E0.05402
G1 X12.730 Y23.217 E0.39310
G1 X12.727 Y24.129 E0.07162
G1 X8.511 Y19.913 E0.46804
G1 X8.032 Y20.350 E0.05088
G1 X12.969 Y25.287 E0.54803
G1 X13.585 Y26.819 F15000.000
G1 X8.032 Y21.266 E0.61645 F960.000
G1 X8.032 Y22.181 E0.07187
G1 X14.751 Y28.900 E0.74590
G1 X13.836 Y28.900 E0.07187
G1 X8.032 Y23.097 E0.64425
G1 X8.032 Y24.013 E0.07187
G1 X12.920 Y28.900 E0.54261
G1 X12.004 Y28.900 E0.07187
G1 X8.032 Y24.928 E0.44096
G1 X8.032 Y25.844 E0.07187
G1 X11.089 Y28.900 E0.33931
G1 X10.173 Y28.900 E0.07187
G1 X8.032 Y26.760 E0.23767
G1 X8.032 Y27.675 E0.07187
G1 X9.258 Y28.900 E0.13602
G1 X8.342 Y28.900 E0.07187
G1 X8.032 Y28.591 E0.03437
G1 X18.190 Y14.943 F15000.000
G1 X8.032 Y4.785 E1.12767 F960.000
G1 X8.032 Y5.700 E0.07187
G1 X9.213 Y6.881 E0.13103
G1 X8.032 Y3.869 F15000.000
G1 X18.190 Y14.027 E1.12767 F960.000
G1 X18.190 Y13.111 E0.07187
G1 X8.032 Y2.953 E1.12767
G1 X8.032 Y2.038 E0.07187
G1 X18.190 Y12.196 E1.12767
G1 X18.190 Y11.280 E0.07187
G1 X16.454 Y9.544 E0.19278
G1 X17.887 Y10.061 F15000.000
G1 X18.190 Y10.365 E0.03371 F960.000
G1 X13.426 Y6.516 F15000.000
G1 X8.032 Y1.122 E0.59878 F960.000
G1 X8.032 Y0.207 E0.07187
G1 X12.933 Y5.107 E0.54402
G1 X12.728 Y3.986 E0.08944
G1 X8.032 Y-0.709 E0.52125
G1 X8.032 Y-1.625 E0.07187
G1 X12.731 Y3.074 E0.52161
G1 X13.893 Y-1.258 F15000.000
G1 X14.242 Y-0.909 E0.03871 F960.000
G1 X13.842 Y-0.393 E0.05123
G1 X12.977 Y-1.258 E0.09599
G1 X12.062 Y-1.258 E0.07187
G1 X13.526 Y0.206 E0.16252
G1 X13.210 Y0.806 E0.05320
G1 X11.146 Y-1.258 E0.22906
G1 X10.231 Y-1.258 E0.07187
G1 X13.006 Y1.518 E0.30807
G1 X12.823 Y2.251 E0.05931
G1 X8.032 Y-2.540 E0.53187
G1 X8.032 Y-3.456 E0.07187
G1 X9.190 Y-2.298 E0.12855
G1 X9.190 Y-3.214 E0.07187
G1 X8.032 Y-4.371 E0.12855
G1 X8.032 Y-5.287 E0.07187
G1 X9.190 Y-4.129 E0.12855
G1 X9.190 Y-5.045 E0.07187
G1 X8.032 Y-6.203 E0.12855
G1 X8.032 Y-7.118 E0.07187
G1 X9.190 Y-5.960 E0.12855
G1 X9.467 Y-6.600 F15000.000
G1 X8.032 Y-8.034 E0.15923 F960.000
G1 X8.724 Y-8.258 E0.05709
G1 X10.382 Y-6.600 E0.18405
G1 X11.298 Y-6.600 E0.07187
G1 X9.640 Y-8.258 E0.18405
G1 X10.556 Y-8.258 E0.07187
G1 X12.213 Y-6.600 E0.18405
G1 X13.129 Y-6.600 E0.07187
G1 X11.471 Y-8.258 E0.18405
G1 X12.387 Y-8.258 E0.07187
G1 X14.045 Y-6.600 E0.18405
G1 X14.960 Y-6.600 E0.07187
G1 X13.302 Y-8.258 E0.18405
G1 X14.218 Y-8.258 E0.07187
G1 X15.876 Y-6.600 E0.18405
G1 X16.776 Y-6.615 E0.07065
G1 X15.134 Y-8.258 E0.18230
G1 X16.049 Y-8.258 E0.07187
G1 X17.389 Y-6.917 E0.14877
G1 X18.190 Y-7.032 E0.06350
G1 X16.965 Y-8.258 E0.13602
G1 X17.881 Y-8.258 E0.07187
G1 X18.190 Y-7.948 E0.03438
G1 X17.861 Y-6.532 F15000.000
G1 X17.861 Y-3.302 E0.52310 F960.000
G1 E-3.50000 F1500.00000
G1 Z0.700 F15000.000
G1 X16.697 Y29.227 F15000.000
G1 Z0.300 F15000.000
G1 E3.50000 F1500.00000
G1 X18.078 Y29.480 E0.10817 F960.000
G1 X18.893 Y29.531 E0.06297
G1 E-3.50000 F1500.00000
G1 Z0.700 F15000.000
G1 X19.583 Y28.465 F15000.000
G1 Z0.300 F15000.000
G1 E3.50000 F1500.00000
G1 X23.338 Y20.973 E0.64581 F960.000
G1 X22.539 Y19.729 E0.11393
G1 X18.253 Y28.282 E0.73726
G1 X17.527 Y26.892 F15000.000
G1 X21.741 Y18.485 E0.72474 F960.000
G1 X20.942 Y17.241 E0.11393
G1 X16.518 Y26.069 E0.76103
G1 X15.775 Y24.713 E0.11915
G1 X19.005 Y18.269 E0.55549
G1 E-3.50000 F1500.00000
G1 Z0.700 F15000.000
G1 X20.180 Y10.250 F15000.000
G1 Z0.300 F15000.000
G1 E3.50000 F1500.00000
G1 X24.175 Y2.279 E0.68713 F960.000
G1 X24.974 Y3.523 E0.11393
G1 X24.581 Y4.308 E0.06763
G1 E-3.50000 F1500.00000
G1 Z0.700 F15000.000
G1 X19.649 Y8.473 F15000.000
G1 Z0.300 F15000.000
G1 E3.50000 F1500.00000
G1 X23.377 Y1.035 E0.64120 F960.000
G1 X22.579 Y-0.209 E0.11393
G1 X18.312 Y8.304 E0.73389
G1 X17.583 Y6.921 F15000.000
G1 X21.780 Y-1.454 E0.72195 F960.000
G1 X20.982 Y-2.698 E0.11393
G1 X16.559 Y6.127 E0.76071
G1 X15.806 Y4.793 E0.11808
G1 X19.080 Y-1.740 E0.56315
G1 E-3.50000 F1500.00000
G1 Z0.700 F15000.000
G1 X8.273 Y8.474 F15000.000
G1 Z0.300 F15000.000
G1 E3.50000 F1500.00000
G1 X3.885 Y17.228 E0.75467 F960.000
G1 X3.087 Y15.984 E0.11393
G1 X6.980 Y8.216 E0.66960
G1 X6.167 Y7.001 F15000.000
G1 X2.288 Y14.740 E0.66706 F960.000
G1 X1.028 Y14.417 F15000.000
G1 X2.024 Y12.429 E0.17133 F960.000
G1 E-3.50000 F1500.00000
G1 Z0.700 F15000.000
G1 X8.976 Y9.907 F15000.000
G1 Z0.300 F15000.000
G1 E3.50000 F1500.00000
G1 X4.683 Y18.472 E0.73834 F960.000
G1 X5.482 Y19.716 E0.11393
G1 X9.913 Y10.875 E0.76213
G1 X10.573 Y12.395 E0.12767
G1 X8.246 Y17.038 E0.40029
G1 X8.286 Y16.958 F15000.000
G1 X7.595 Y18.338 E0.11896 F960.000
G1 E-3.50000 F1500.00000
G1 Z0.700 F15000.000
G1 X20.114 Y30.242 F15000.000
G1 Z0.300 F15000.000
G1 E3.50000 F1500.00000
G1 X24.136 Y22.217 E0.69174 F960.000
G1 X24.934 Y23.462 E0.11393
G1 X24.518 Y24.292 E0.07160
G1 E-3.50000 F1500.00000
G1 Z0.700 F15000.000
G1 X9.873 Y-18.910 F15000.000
G1 Z0.300 F15000.000
G1 E3.50000 F1500.00000
G1 X8.786 Y-18.778 E0.08441 F720.000
G1 X7.699 Y-18.910 E0.08441
G1 X6.675 Y-19.299 E0.08441
G1 X5.773 Y-19.921 E0.08441
G1 X5.047 Y-20.741 E0.08441
G1 X4.538 Y-21.710 E0.08441
G1 X4.273 Y-22.785 E0.08526
G1 X3.993 Y-22.801 E0.02163
G1 X3.949 Y-22.686 E0.00952
G1 X3.612 Y-22.198 E0.04571
G1 X3.159 Y-21.803 E0.04632
G1 X2.652 Y-21.537 E0.04412
G1 X2.081 Y-21.396 E0.04539
G1 X1.492 Y-21.396 E0.04539
G1 X0.920 Y-21.537 E0.04539
G1 X0.398 Y-21.811 E0.04539
G1 X-0.046 Y-22.204 E0.04571
G1 X-0.383 Y-22.701 E0.04632
G1 X-0.586 Y-23.237 E0.04412
G1 X-0.657 Y-23.821 E0.04539
G1 X-0.586 Y-24.406 E0.04539
G1 X-0.377 Y-24.957 E0.04539
G1 X-0.043 Y-25.442 E0.04539
G1 X0.398 Y-25.832 E0.04539
G1 X0.920 Y-26.106 E0.04539
G1 X1.492 Y-26.247 E0.04539
G1 X2.081 Y-26.247 E0.04539
G1 X2.652 Y-26.106 E0.04539
G1 X3.174 Y-25.832 E0.04539
G1 X3.615 Y-25.442 E0.04539
G1 X3.949 Y-24.957 E0.04539
G1 X4.143 Y-24.448 E0.04198
G1 X4.423 Y-24.464 E0.02163
G1 X4.538 Y-24.932 E0.03715
G1 X5.047 Y-25.902 E0.08441
G1 X5.773 Y-26.722 E0.08441
G1 X6.679 Y-27.347 E0.08480
G1 X7.741 Y-27.738 E0.08723
G1 X8.786 Y-27.865 E0.08111 F720.000
G1 X9.873 Y-27.733 E0.08441
G1 X10.897 Y-27.344 E0.08441
G1 X11.799 Y-26.722 E0.08441
G1 X12.525 Y-25.902 E0.08441
G1 X13.034 Y-24.932 E0.08441
G1 X13.149 Y-24.464 E0.03717
G1 X13.428 Y-24.446 E0.02153
G1 X13.632 Y-24.970 E0.04335
G1 X13.957 Y-25.442 E0.04412
G1 X14.398 Y-25.832 E0.04539
G1 X14.920 Y-26.106 E0.04539
G1 X15.496 Y-26.248 E0.04571
G1 X16.097 Y-26.243 E0.04632
G1 X16.652 Y-26.106 E0.04412
G1 X17.174 Y-25.832 E0.04539
G1 X17.615 Y-25.442 E0.04539
G1 X17.949 Y-24.957 E0.04539
G1 X18.158 Y-24.406 E0.04539
G1 X18.229 Y-23.821 E0.04539
G1 X18.158 Y-23.237 E0.04539
G1 X17.949 Y-22.686 E0.04539
G1 X17.615 Y-22.201 E0.04539
G1 X17.174 Y-21.811 E0.04539
G1 X16.652 Y-21.537 E0.04539
G1 X16.077 Y-21.395 E0.04571
G1 X15.476 Y-21.400 E0.04632
G1 X14.920 Y-21.537 E0.04412
G1 X14.398 Y-21.811 E0.04539
G1 X13.957 Y-22.201 E0.04539
G1 X13.623 Y-22.686 E0.04539
G1 X13.579 Y-22.801 E0.00952
G1 X13.299 Y-22.785 E0.02163
G1 X13.034 Y-21.710 E0.08526
G1 X12.523 Y-20.736 E0.08480
G1 X11.764 Y-19.896 E0.08723
G1 X10.897 Y-19.299 E0.08111
G1 X9.929 Y-18.932 E0.07978
G1 X9.720 Y-19.532 F15000.000
G1 X8.786 Y-19.419 E0.07251 F600.000
G1 X7.852 Y-19.532 E0.07251
G1 X6.972 Y-19.866 E0.07251
G1 X6.198 Y-20.400 E0.07251
G1 X5.574 Y-21.104 E0.07251
G1 X5.137 Y-21.937 E0.07251
G1 X4.911 Y-22.853 E0.07265
G1 X4.921 Y-23.830 E0.07534
G1 X5.137 Y-24.705 E0.06947
G1 X5.574 Y-25.539 E0.07251
G1 X6.198 Y-26.243 E0.07251
G1 X6.974 Y-26.778 E0.07265
G1 X7.891 Y-27.116 E0.07534
G1 X8.786 Y-27.224 E0.06947 F600.000
G1 X9.720 Y-27.111 E0.07251
G1 X10.600 Y-26.777 E0.07251
G1 X11.374 Y-26.243 E0.07251
G1 X11.998 Y-25.539 E0.07251
G1 X12.435 Y-24.705 E0.07251
G1 X12.661 Y-23.792 E0.07251
G1 X12.661 Y-22.851 E0.07251
G1 X12.435 Y-21.937 E0.07251
G1 X11.997 Y-21.103 E0.07265
G1 X11.342 Y-20.378 E0.07534
G1 X10.600 Y-19.866 E0.06947
G1 X9.776 Y-19.553 E0.06789
G1 X9.593 Y-19.153 F15000.000
G1 E-3.50000 F1500.00000
G1 Z0.700 F15000.000
G1 X3.382 Y-22.984 F15000.000
G1 Z0.300 F15000.000
G1 E3.50000 F1500.00000
G1 X3.135 Y-22.625 E0.03361 F600.000
G1 X2.798 Y-22.331 E0.03442
G1 X2.425 Y-22.136 E0.03243
G1 X2.003 Y-22.032 E0.03350
G1 X1.569 Y-22.032 E0.03350
G1 X1.147 Y-22.136 E0.03350
G1 X0.762 Y-22.338 E0.03350
G1 X0.435 Y-22.627 E0.03361
G1 X0.185 Y-22.997 E0.03442
G1 X0.035 Y-23.390 E0.03243
G1 X-0.017 Y-23.821 E0.03350
G1 X0.035 Y-24.253 E0.03350
G1 X0.190 Y-24.659 E0.03350
G1 X0.437 Y-25.017 E0.03350
G1 X0.762 Y-25.305 E0.03350
G1 X1.147 Y-25.507 E0.03350
G1 X1.569 Y-25.611 E0.03350
G1 X2.003 Y-25.611 E0.03350 F600.000
G1 X2.425 Y-25.507 E0.03350
G1 X2.810 Y-25.305 E0.03350
G1 X3.136 Y-25.017 E0.03350
G1 X3.382 Y-24.659 E0.03350
G1 X3.537 Y-24.253 E0.03349
G1 X3.589 Y-23.821 E0.03350
G1 X3.537 Y-23.390 E0.03350
G1 X3.404 Y-23.040 E0.02887
G1 X3.582 Y-22.637 F15000.000
G1 E-3.50000 F1500.00000
G1 Z0.700 F15000.000
G1 X13.983 Y-23.821 F15000.000
G1 Z0.300 F15000.000
G1 E3.50000 F1500.00000
G1 X14.036 Y-24.254 E0.03361 F600.000
G1 X14.197 Y-24.671 E0.03442
G1 X14.437 Y-25.017 E0.03243
G1 X14.762 Y-25.305 E0.03350
G1 X15.147 Y-25.507 E0.03350
G1 X15.570 Y-25.612 E0.03361 F600.000
G1 X16.017 Y-25.608 E0.03443
G1 X16.425 Y-25.507 E0.03243
G1 X16.810 Y-25.305 E0.03350
G1 X17.136 Y-25.017 E0.03350
G1 X17.382 Y-24.659 E0.03350
G1 X17.537 Y-24.253 E0.03350
G1 X17.589 Y-23.821 E0.03350
G1 X17.537 Y-23.390 E0.03350
G1 X17.382 Y-22.984 E0.03350
G1 X17.136 Y-22.626 E0.03350
G1 X16.810 Y-22.338 E0.03350
G1 X16.425 Y-22.136 E0.03350
G1 X16.002 Y-22.031 E0.03361
G1 X15.555 Y-22.035 E0.03443
G1 X15.147 Y-22.136 E0.03243
G1 X14.762 Y-22.338 E0.03350
G1 X14.437 Y-22.626 E0.03350
G1 X14.190 Y-22.984 E0.03350
G1 X14.035 Y-23.390 E0.03350
G1 X13.990 Y-23.762 E0.02887
G1 X13.645 Y-24.035 F15000.000
G1 E-3.50000 F1500.00000
G1 Z0.700 F15000.000
G1 X19.920 Y-17.357 F15000.000
G1 Z0.300 F15000.000
G1 E3.50000 F1500.00000
G1 X-5.178 Y-17.357 E1.93419 F720.000
G1 X-5.178 Y-29.286 E0.91930
G1 X22.750 Y-29.286 E2.15234
G1 X22.750 Y-17.357 E0.91930
G1 X19.980 Y-17.357 E0.21353 F720.000
G1 X19.980 Y-16.721 F15000.000
G1 X-5.814 Y-16.721 E1.98779 F720.000
G1 X-5.814 Y-29.921 E1.01726
G1 X23.386 Y-29.921 E2.25031
G1 X23.386 Y-16.721 E1.01726
G1 X20.040 Y-16.721 E0.25789 F720.000
G1 X19.780 Y-17.068 F15000.000
G1 X16.853 Y-17.742 F15000.000
G1 X13.233 Y-21.362 E0.39889 F960.000
G1 X12.920 Y-20.766 E0.05246
G1 X15.944 Y-17.742 E0.33320
G1 X15.035 Y-17.742 E0.07083
G1 X12.528 Y-20.250 E0.27631
G1 X12.096 Y-19.772 E0.05014
G1 X14.126 Y-17.742 E0.22371
